src/LiveStudio.Agent/BuiltInAssets/ColorCards/v1/cube/001.cube
#Generated with IWLTBAP LUT Generator
#Website: http://luts.iwltbap.com
TITLE "Neutral-125"
#LUT size
LUT_3D_SIZE 25
#LUT data points
0.000000 0.000000 0.000000
0.039216 0.000000 0.003922
0.078431 0.000000 0.003922
0.121569 0.000000 0.000000
0.164706 0.000000 0.007843
0.203922 0.000000 0.007843
0.250980 0.000000 0.003922
0.294118 0.000000 0.015686
0.333333 0.000000 0.019608
0.376471 0.000000 0.015686
0.423529 0.000000 0.015686
0.466667 0.000000 0.015686
0.513725 0.000000 0.019608
0.556863 0.003922 0.027451
0.600000 0.000000 0.027451
0.643137 0.000000 0.035294
0.686275 0.000000 0.035294
0.729412 0.000000 0.050980
0.776471 0.000000 0.066667
0.815686 0.000000 0.070588
0.854902 0.000000 0.074510
0.898039 0.000000 0.078431
0.937255 0.000000 0.094118
0.980392 0.000000 0.117647
1.000000 0.000000 0.109804
0.003922 0.043137 0.007843
0.039216 0.039216 0.000000
0.090196 0.039216 0.007843
0.117647 0.039216 0.003922
0.164706 0.035294 0.007843
0.207843 0.031373 0.007843
0.250980 0.035294 0.023529
0.286275 0.031373 0.015686
0.337255 0.031373 0.015686
0.380392 0.031373 0.015686
0.423529 0.023529 0.015686
0.466667 0.019608 0.019608
0.509804 0.015686 0.027451
0.556863 0.011765 0.031373
0.600000 0.007843 0.043137
0.647059 0.003922 0.039216
0.690196 0.000000 0.043137
0.729412 0.000000 0.054902
0.776471 0.000000 0.058824
0.819608 0.000000 0.074510
0.858824 0.000000 0.078431
0.901961 0.003922 0.094118
0.941176 0.000000 0.098039
0.980392 0.000000 0.109804
1.000000 0.007843 0.125490
0.000000 0.082353 0.000000
0.035294 0.082353 0.003922
0.082353 0.078431 0.000000
0.125490 0.082353 0.003922
0.164706 0.078431 0.023529
0.207843 0.078431 0.011765
0.254902 0.074510 0.011765
0.294118 0.074510 0.015686
0.341176 0.078431 0.015686
0.380392 0.074510 0.023529
0.431373 0.070588 0.027451
0.470588 0.066667 0.031373
0.525490 0.066667 0.031373
0.560784 0.062745 0.035294
0.603922 0.058824 0.047059
0.643137 0.058824 0.043137
0.690196 0.054902 0.047059
0.737255 0.054902 0.062745
0.776471 0.050980 0.070588
0.815686 0.050980 0.082353
0.858824 0.050980 0.090196
0.901961 0.054902 0.098039
0.945098 0.054902 0.098039
0.984314 0.062745 0.129412
0.996078 0.058824 0.133333
0.000000 0.129412 0.000000
0.039216 0.121569 0.000000
0.082353 0.125490 0.000000
0.125490 0.121569 0.011765
0.160784 0.125490 0.000000
0.207843 0.125490 0.011765
0.254902 0.121569 0.015686
0.298039 0.117647 0.023529
0.337255 0.117647 0.027451
0.384314 0.117647 0.027451
0.431373 0.113725 0.031373
0.470588 0.113725 0.031373
0.517647 0.113725 0.047059
0.564706 0.113725 0.043137
0.603922 0.109804 0.050980
0.650980 0.113725 0.050980
0.690196 0.109804 0.054902
0.737255 0.105882 0.066667
0.780392 0.109804 0.078431
0.827451 0.109804 0.086275
0.866667 0.109804 0.090196
0.898039 0.105882 0.090196
0.945098 0.109804 0.117647
0.992157 0.109804 0.133333
1.000000 0.113725 0.129412
0.000000 0.160784 0.003922
0.039216 0.168627 0.000000
0.082353 0.164706 0.003922
0.133333 0.164706 0.011765
0.168627 0.164706 0.000000
0.211765 0.164706 0.007843
0.254902 0.160784 0.011765
0.298039 0.164706 0.027451
0.341176 0.160784 0.031373
0.384314 0.160784 0.043137
0.431373 0.160784 0.047059
0.474510 0.164706 0.047059
0.517647 0.160784 0.054902
0.560784 0.160784 0.062745
0.607843 0.160784 0.058824
0.654902 0.160784 0.070588
0.701961 0.156863 0.074510
0.745098 0.160784 0.082353
0.788235 0.156863 0.086275
0.827451 0.152941 0.098039
0.866667 0.152941 0.101961
0.909804 0.156863 0.113725
0.956863 0.156863 0.121569
0.988235 0.160784 0.133333
0.996078 0.164706 0.149020
0.000000 0.207843 0.000000
0.039216 0.207843 0.000000
0.090196 0.207843 0.003922
0.129412 0.207843 0.000000
0.168627 0.207843 0.000000
0.211765 0.211765 0.007843
0.250980 0.203922 0.000000
0.294118 0.207843 0.011765
0.341176 0.203922 0.039216
0.392157 0.203922 0.047059
0.439216 0.203922 0.062745
0.482353 0.207843 0.074510
0.533333 0.207843 0.082353
0.572549 0.207843 0.078431
0.615686 0.203922 0.078431
0.658824 0.207843 0.086275
0.709804 0.207843 0.109804
0.749020 0.207843 0.105882
0.792157 0.203922 0.105882
0.827451 0.200000 0.105882
0.870588 0.200000 0.121569
0.909804 0.207843 0.129412
0.949020 0.207843 0.133333
0.988235 0.203922 0.152941
0.992157 0.215686 0.164706
0.000000 0.250980 0.000000
0.047059 0.250980 0.000000
0.086275 0.250980 0.003922
0.121569 0.247059 0.000000
0.164706 0.250980 0.000000
0.207843 0.247059 0.000000
0.247059 0.247059 0.000000
0.294118 0.250980 0.000000
0.337255 0.250980 0.015686
0.388235 0.247059 0.043137
0.431373 0.250980 0.058824
0.482353 0.250980 0.078431
0.533333 0.250980 0.094118
0.576471 0.254902 0.098039
0.619608 0.254902 0.086275
0.654902 0.250980 0.090196
0.709804 0.254902 0.109804
0.749020 0.254902 0.105882
0.792157 0.254902 0.121569
0.835294 0.250980 0.125490
0.874510 0.254902 0.141176
0.909804 0.250980 0.145098
0.952941 0.254902 0.152941
0.988235 0.250980 0.145098
1.000000 0.258824 0.164706
0.003922 0.290196 0.003922
0.035294 0.294118 0.011765
0.086275 0.290196 0.000000
0.125490 0.290196 0.000000
0.164706 0.290196 0.000000
0.207843 0.286275 0.003922
0.243137 0.290196 0.000000
0.286275 0.286275 0.000000
0.333333 0.298039 0.003922
0.380392 0.290196 0.015686
0.427451 0.290196 0.039216
0.478431 0.298039 0.066667
0.533333 0.298039 0.094118
0.576471 0.298039 0.117647
0.623529 0.301961 0.105882
0.678431 0.305882 0.133333
0.717647 0.301961 0.137255
0.756863 0.298039 0.125490
0.796078 0.298039 0.137255
0.839216 0.298039 0.152941
0.878431 0.298039 0.149020
0.917647 0.298039 0.152941
0.956863 0.294118 0.164706
0.996078 0.301961 0.172549
1.000000 0.305882 0.196078
0.000000 0.333333 0.007843
0.043137 0.329412 0.007843
0.082353 0.333333 0.000000
0.129412 0.333333 0.000000
0.168627 0.337255 0.015686
0.207843 0.333333 0.007843
0.254902 0.329412 0.007843
0.298039 0.337255 0.000000
0.333333 0.333333 0.000000
0.380392 0.333333 0.003922
0.419608 0.329412 0.015686
0.474510 0.333333 0.043137
0.525490 0.341176 0.066667
0.576471 0.341176 0.105882
0.627451 0.349020 0.129412
0.674510 0.349020 0.145098
0.721569 0.349020 0.160784
0.764706 0.345098 0.164706
0.803922 0.345098 0.172549
0.843137 0.345098 0.176471
0.882353 0.345098 0.180392
0.921569 0.345098 0.176471
0.956863 0.345098 0.188235
1.000000 0.345098 0.203922
1.000000 0.345098 0.203922
0.000000 0.376471 0.000000
0.039216 0.368627 0.000000
0.082353 0.372549 0.000000
0.121569 0.372549 0.000000
0.168627 0.368627 0.000000
0.211765 0.372549 0.000000
0.250980 0.376471 0.000000
0.294118 0.372549 0.000000
0.337255 0.376471 0.000000
0.372549 0.368627 0.003922
0.423529 0.372549 0.003922
0.462745 0.372549 0.007843
0.513725 0.376471 0.054902
0.564706 0.380392 0.074510
0.619608 0.388235 0.113725
0.674510 0.396078 0.145098
0.713725 0.392157 0.164706
0.760784 0.392157 0.180392
0.807843 0.392157 0.188235
0.850980 0.396078 0.196078
0.886275 0.392157 0.192157
0.925490 0.388235 0.207843
0.968627 0.392157 0.219608
1.000000 0.392157 0.211765
1.000000 0.392157 0.223529
0.000000 0.415686 0.000000
0.039216 0.419608 0.000000
0.082353 0.419608 0.000000
0.121569 0.419608 0.000000
0.168627 0.415686 0.003922
0.207843 0.415686 0.000000
0.247059 0.415686 0.000000
0.290196 0.419608 0.007843
0.333333 0.415686 0.003922
0.372549 0.415686 0.003922
0.419608 0.415686 0.000000
0.458824 0.415686 0.000000
0.505882 0.415686 0.015686
0.552941 0.415686 0.047059
0.603922 0.423529 0.086275
0.662745 0.431373 0.117647
0.717647 0.435294 0.145098
0.764706 0.439216 0.172549
0.807843 0.439216 0.200000
0.850980 0.439216 0.215686
0.894118 0.443137 0.227451
0.929412 0.439216 0.227451
0.968627 0.435294 0.231373
1.000000 0.439216 0.231373
0.996078 0.439216 0.243137
0.000000 0.454902 0.007843
0.047059 0.454902 0.003922
0.082353 0.462745 0.007843
0.125490 0.458824 0.000000
0.168627 0.454902 0.000000
0.207843 0.454902 0.003922
0.254902 0.466667 0.000000
0.294118 0.450980 0.003922
0.337255 0.458824 0.000000
0.376471 0.458824 0.000000
0.419608 0.458824 0.007843
0.458824 0.462745 0.003922
0.498039 0.462745 0.003922
0.545098 0.462745 0.011765
0.592157 0.466667 0.039216
0.647059 0.466667 0.098039
0.705882 0.474510 0.121569
0.752941 0.474510 0.152941
0.803922 0.482353 0.184314
0.850980 0.486275 0.223529
0.901961 0.494118 0.247059
0.937255 0.486275 0.262745
0.972549 0.482353 0.262745
0.996078 0.482353 0.262745
1.000000 0.486275 0.266667
0.007843 0.498039 0.003922
0.043137 0.498039 0.000000
0.086275 0.494118 0.003922
0.129412 0.501961 0.000000
0.164706 0.494118 0.007843
0.207843 0.501961 0.000000
0.247059 0.501961 0.000000
0.286275 0.501961 0.000000
0.337255 0.501961 0.000000
0.372549 0.501961 0.000000
0.411765 0.498039 0.000000
0.454902 0.501961 0.007843
0.498039 0.501961 0.003922
0.537255 0.498039 0.011765
0.580392 0.498039 0.000000
0.631373 0.505882 0.039216
0.690196 0.505882 0.090196
0.741176 0.513725 0.133333
0.796078 0.517647 0.164706
0.839216 0.521569 0.200000
0.890196 0.521569 0.239216
0.933333 0.533333 0.250980
0.964706 0.533333 0.286275
1.000000 0.525490 0.301961
1.000000 0.529412 0.294118
0.000000 0.541176 0.003922
0.047059 0.545098 0.000000
0.078431 0.541176 0.000000
0.125490 0.545098 0.000000
0.164706 0.545098 0.000000
0.211765 0.541176 0.000000
0.250980 0.541176 0.000000
0.290196 0.541176 0.000000
0.329412 0.541176 0.000000
0.376471 0.545098 0.000000
0.415686 0.545098 0.000000
0.454902 0.545098 0.000000
0.494118 0.541176 0.000000
0.537255 0.541176 0.000000
0.584314 0.537255 0.000000
0.623529 0.537255 0.000000
0.678431 0.549020 0.035294
0.729412 0.552941 0.086275
0.776471 0.552941 0.133333
0.827451 0.560784 0.180392
0.882353 0.564706 0.207843
0.925490 0.564706 0.239216
0.968627 0.576471 0.278431
1.000000 0.572549 0.301961
1.000000 0.576471 0.337255
0.000000 0.576471 0.000000
0.043137 0.584314 0.015686
0.078431 0.580392 0.000000
0.121569 0.584314 0.000000
0.168627 0.584314 0.000000
0.211765 0.588235 0.003922
0.247059 0.576471 0.000000
0.294118 0.584314 0.007843
0.329412 0.580392 0.000000
0.372549 0.584314 0.003922
0.411765 0.588235 0.000000
0.458824 0.588235 0.000000
0.498039 0.588235 0.000000
0.545098 0.584314 0.003922
0.580392 0.580392 0.000000
0.623529 0.584314 0.000000
0.666667 0.580392 0.000000
0.709804 0.588235 0.031373
0.768627 0.592157 0.094118
0.819608 0.596078 0.145098
0.870588 0.603922 0.176471
0.913725 0.607843 0.223529
0.956863 0.603922 0.258824
1.000000 0.611765 0.294118
1.000000 0.611765 0.329412
0.000000 0.619608 0.000000
0.043137 0.623529 0.003922
0.082353 0.623529 0.003922
0.121569 0.623529 0.000000
0.168627 0.623529 0.000000
0.207843 0.623529 0.000000
0.250980 0.619608 0.000000
0.294118 0.623529 0.003922
0.333333 0.623529 0.000000
0.372549 0.623529 0.007843
0.419608 0.619608 0.003922
0.462745 0.623529 0.003922
0.501961 0.627451 0.003922
0.541176 0.627451 0.000000
0.584314 0.623529 0.000000
0.627451 0.627451 0.000000
0.666667 0.627451 0.000000
0.705882 0.627451 0.003922
0.760784 0.631373 0.031373
0.803922 0.635294 0.090196
0.854902 0.635294 0.152941
0.905882 0.643137 0.200000
0.956863 0.647059 0.235294
1.000000 0.647059 0.270588
1.000000 0.643137 0.301961
0.000000 0.674510 0.007843
0.035294 0.662745 0.000000
0.078431 0.666667 0.000000
0.117647 0.666667 0.000000
0.168627 0.666667 0.019608
0.203922 0.662745 0.007843
0.247059 0.670588 0.000000
0.298039 0.662745 0.000000
0.337255 0.662745 0.003922
0.376471 0.662745 0.000000
0.419608 0.666667 0.003922
0.458824 0.666667 0.000000
0.494118 0.666667 0.000000
0.541176 0.666667 0.003922
0.584314 0.666667 0.011765
0.619608 0.666667 0.007843
0.670588 0.666667 0.007843
0.709804 0.670588 0.000000
0.749020 0.666667 0.003922
0.796078 0.666667 0.027451
0.847059 0.674510 0.094118
0.898039 0.678431 0.149020
0.949020 0.682353 0.200000
0.988235 0.682353 0.254902
1.000000 0.678431 0.286275
0.003922 0.705882 0.000000
0.035294 0.705882 0.011765
0.090196 0.705882 0.003922
0.125490 0.709804 0.011765
0.160784 0.709804 0.000000
0.207843 0.705882 0.007843
0.254902 0.705882 0.003922
0.294118 0.705882 0.000000
0.337255 0.709804 0.003922
0.376471 0.709804 0.000000
0.415686 0.705882 0.000000
0.458824 0.705882 0.003922
0.498039 0.705882 0.000000
0.545098 0.705882 0.000000
0.584314 0.705882 0.003922
0.627451 0.709804 0.007843
0.666667 0.709804 0.003922
0.709804 0.705882 0.015686
0.749020 0.705882 0.007843
0.788235 0.709804 0.000000
0.839216 0.709804 0.015686
0.886275 0.709804 0.109804
0.929412 0.721569 0.164706
0.980392 0.713725 0.215686
1.000000 0.717647 0.266667
0.007843 0.752941 0.000000
0.047059 0.749020 0.011765
0.078431 0.749020 0.003922
0.125490 0.752941 0.000000
0.172549 0.745098 0.011765
0.211765 0.749020 0.000000
0.250980 0.749020 0.000000
0.294118 0.752941 0.007843
0.333333 0.752941 0.007843
0.380392 0.752941 0.000000
0.415686 0.752941 0.000000
0.454902 0.749020 0.000000
0.505882 0.749020 0.007843
0.545098 0.752941 0.000000
0.584314 0.752941 0.000000
0.627451 0.749020 0.003922
0.666667 0.749020 0.000000
0.705882 0.749020 0.000000
0.745098 0.749020 0.000000
0.788235 0.752941 0.000000
0.827451 0.752941 0.003922
0.870588 0.749020 0.007843
0.921569 0.756863 0.090196
0.972549 0.752941 0.176471
0.988235 0.760784 0.235294
0.003922 0.792157 0.000000
0.050980 0.788235 0.000000
0.078431 0.792157 0.000000
0.121569 0.792157 0.000000
0.172549 0.792157 0.003922
0.207843 0.792157 0.000000
0.254902 0.792157 0.000000
0.290196 0.788235 0.000000
0.337255 0.796078 0.003922
0.372549 0.792157 0.000000
0.423529 0.792157 0.000000
0.462745 0.792157 0.007843
0.505882 0.792157 0.000000
0.541176 0.788235 0.000000
0.584314 0.788235 0.007843
0.623529 0.792157 0.003922
0.666667 0.788235 0.000000
0.705882 0.788235 0.000000
0.749020 0.796078 0.000000
0.788235 0.792157 0.000000
0.831373 0.784314 0.007843
0.866667 0.796078 0.000000
0.909804 0.800000 0.000000
0.960784 0.796078 0.090196
0.996078 0.788235 0.168627
0.000000 0.835294 0.000000
0.039216 0.835294 0.000000
0.086275 0.831373 0.000000
0.125490 0.831373 0.000000
0.164706 0.831373 0.000000
0.207843 0.839216 0.000000
0.247059 0.831373 0.000000
0.290196 0.835294 0.000000
0.329412 0.835294 0.000000
0.368627 0.835294 0.000000
0.419608 0.835294 0.003922
0.458824 0.835294 0.003922
0.501961 0.835294 0.000000
0.545098 0.839216 0.000000
0.580392 0.835294 0.000000
0.623529 0.831373 0.000000
0.674510 0.831373 0.003922
0.713725 0.831373 0.007843
0.752941 0.831373 0.000000
0.796078 0.839216 0.000000
0.839216 0.835294 0.003922
0.870588 0.831373 0.003922
0.917647 0.835294 0.007843
0.956863 0.835294 0.000000
0.992157 0.835294 0.078431
0.000000 0.866667 0.007843
0.043137 0.878431 0.000000
0.086275 0.874510 0.000000
0.125490 0.878431 0.003922
0.164706 0.870588 0.000000
0.211765 0.870588 0.007843
0.247059 0.878431 0.000000
0.286275 0.878431 0.000000
0.325490 0.874510 0.000000
0.376471 0.878431 0.003922
0.415686 0.878431 0.000000
0.458824 0.874510 0.000000
0.498039 0.874510 0.000000
0.545098 0.878431 0.003922
0.588235 0.870588 0.003922
0.623529 0.878431 0.000000
0.662745 0.878431 0.000000
0.709804 0.874510 0.007843
0.749020 0.874510 0.000000
0.796078 0.874510 0.007843
0.835294 0.878431 0.000000
0.874510 0.874510 0.003922
0.909804 0.870588 0.007843
0.968627 0.866667 0.000000
0.992157 0.882353 0.007843
0.000000 0.913725 0.000000
0.043137 0.921569 0.000000
0.090196 0.917647 0.000000
0.129412 0.913725 0.000000
0.160784 0.913725 0.000000
0.207843 0.913725 0.003922
0.247059 0.917647 0.000000
0.286275 0.917647 0.000000
0.329412 0.921569 0.000000
0.368627 0.921569 0.000000
0.415686 0.917647 0.003922
0.458824 0.921569 0.003922
0.498039 0.913725 0.000000
0.545098 0.913725 0.000000
0.576471 0.913725 0.007843
0.627451 0.917647 0.000000
0.666667 0.917647 0.000000
0.705882 0.917647 0.000000
0.749020 0.913725 0.000000
0.792157 0.917647 0.000000
0.831373 0.917647 0.003922
0.866667 0.917647 0.000000
0.913725 0.913725 0.000000
0.960784 0.913725 0.000000
0.992157 0.921569 0.003922
0.000000 0.952941 0.003922
0.043137 0.960784 0.000000
0.082353 0.960784 0.000000
0.125490 0.956863 0.003922
0.160784 0.952941 0.003922
0.203922 0.960784 0.000000
0.243137 0.956863 0.000000
0.294118 0.956863 0.003922
0.333333 0.960784 0.003922
0.380392 0.960784 0.003922
0.419608 0.960784 0.003922
0.462745 0.952941 0.000000
0.505882 0.956863 0.003922
0.533333 0.956863 0.000000
0.588235 0.960784 0.011765
0.627451 0.960784 0.007843
0.670588 0.960784 0.000000
0.705882 0.956863 0.000000
0.756863 0.960784 0.000000
0.796078 0.956863 0.000000
0.831373 0.952941 0.000000
0.874510 0.949020 0.000000
0.917647 0.956863 0.000000
0.960784 0.952941 0.007843
0.984314 0.964706 0.000000
0.000000 0.996078 0.007843
0.043137 1.000000 0.000000
0.082353 1.000000 0.000000
0.121569 1.000000 0.003922
0.160784 1.000000 0.000000
0.203922 1.000000 0.000000
0.247059 1.000000 0.000000
0.294118 1.000000 0.003922
0.329412 0.996078 0.000000
0.376471 1.000000 0.000000
0.419608 0.996078 0.000000
0.462745 1.000000 0.003922
0.501961 1.000000 0.000000
0.541176 1.000000 0.000000
0.584314 0.996078 0.003922
0.623529 0.996078 0.000000
0.670588 0.996078 0.007843
0.713725 1.000000 0.007843
0.752941 1.000000 0.000000
0.792157 1.000000 0.003922
0.839216 0.996078 0.000000
0.874510 0.996078 0.000000
0.917647 0.996078 0.000000
0.960784 1.000000 0.000000
0.992157 1.000000 0.011765
0.000000 0.000000 0.039216
0.043137 0.000000 0.043137
0.086275 0.000000 0.047059
0.125490 0.000000 0.043137
0.168627 0.000000 0.039216
0.207843 0.000000 0.047059
0.247059 0.000000 0.043137
0.298039 0.000000 0.050980
0.337255 0.000000 0.050980
0.376471 0.000000 0.054902
0.423529 0.000000 0.058824
0.462745 0.000000 0.054902
0.509804 0.000000 0.058824
0.556863 0.003922 0.066667
0.596078 0.000000 0.066667
0.639216 0.000000 0.074510
0.686275 0.000000 0.078431
0.729412 0.000000 0.082353
0.768627 0.000000 0.086275
0.815686 0.000000 0.101961
0.854902 0.000000 0.105882
0.894118 0.000000 0.098039
0.937255 0.000000 0.113725
0.984314 0.003922 0.145098
1.000000 0.000000 0.133333
0.000000 0.047059 0.039216
0.043137 0.043137 0.043137
0.082353 0.035294 0.050980
0.121569 0.043137 0.047059
0.156863 0.039216 0.039216
0.203922 0.043137 0.035294
0.243137 0.039216 0.047059
0.294118 0.031373 0.058824
0.333333 0.035294 0.050980
0.384314 0.035294 0.050980
0.423529 0.031373 0.062745
0.466667 0.031373 0.058824
0.509804 0.023529 0.054902
0.556863 0.023529 0.062745
0.596078 0.019608 0.082353
0.647059 0.007843 0.074510
0.686275 0.007843 0.086275
0.737255 0.007843 0.090196
0.772549 0.003922 0.098039
0.819608 0.003922 0.090196
0.854902 0.000000 0.105882
0.901961 0.007843 0.113725
0.945098 0.007843 0.133333
0.972549 0.011765 0.133333
1.000000 0.023529 0.149020
0.000000 0.082353 0.031373
0.043137 0.090196 0.050980
0.086275 0.086275 0.047059
0.121569 0.078431 0.054902
0.160784 0.082353 0.054902
0.211765 0.082353 0.054902
0.254902 0.078431 0.058824
0.298039 0.082353 0.062745
0.345098 0.082353 0.058824
0.384314 0.078431 0.062745
0.423529 0.070588 0.066667
0.466667 0.074510 0.066667
0.513725 0.074510 0.070588
0.552941 0.074510 0.070588
0.607843 0.066667 0.066667
0.647059 0.062745 0.078431
0.690196 0.058824 0.082353
0.733333 0.062745 0.094118
0.784314 0.062745 0.109804
0.823529 0.062745 0.105882
0.866667 0.066667 0.109804
0.905882 0.062745 0.133333
0.937255 0.066667 0.117647
0.980392 0.070588 0.133333
1.000000 0.070588 0.133333
0.000000 0.125490 0.043137
0.035294 0.117647 0.043137
0.078431 0.125490 0.047059
0.125490 0.121569 0.039216
0.176471 0.125490 0.050980
0.211765 0.121569 0.058824
0.250980 0.121569 0.062745
0.298039 0.117647 0.058824
0.337255 0.117647 0.058824
0.384314 0.121569 0.058824
0.423529 0.117647 0.066667
0.466667 0.113725 0.070588
0.513725 0.117647 0.078431
0.560784 0.121569 0.078431
0.600000 0.113725 0.082353
0.643137 0.117647 0.082353
0.690196 0.109804 0.094118
0.733333 0.105882 0.105882
0.772549 0.105882 0.109804
0.819608 0.113725 0.117647
0.862745 0.117647 0.117647
0.894118 0.117647 0.121569
0.941176 0.117647 0.129412
0.988235 0.113725 0.133333
1.000000 0.117647 0.145098
0.000000 0.168627 0.031373
0.043137 0.164706 0.043137
0.082353 0.164706 0.043137
0.125490 0.160784 0.039216
0.164706 0.164706 0.031373
0.203922 0.160784 0.043137
0.258824 0.164706 0.054902
0.298039 0.164706 0.066667
0.345098 0.160784 0.082353
0.384314 0.160784 0.086275
0.431373 0.164706 0.090196
0.470588 0.164706 0.086275
0.517647 0.160784 0.086275
0.560784 0.164706 0.094118
0.603922 0.160784 0.090196
0.647059 0.164706 0.094118
0.694118 0.160784 0.098039
0.737255 0.164706 0.105882
0.780392 0.160784 0.113725
0.819608 0.160784 0.125490
0.866667 0.156863 0.121569
0.901961 0.160784 0.137255
0.941176 0.160784 0.141176
0.980392 0.164706 0.149020
1.000000 0.168627 0.164706
0.000000 0.207843 0.043137
0.039216 0.207843 0.039216
0.082353 0.211765 0.043137
0.121569 0.211765 0.039216
0.164706 0.207843 0.043137
0.203922 0.207843 0.043137
0.250980 0.203922 0.047059
0.298039 0.211765 0.050980
0.341176 0.203922 0.078431
0.384314 0.207843 0.086275
0.431373 0.207843 0.094118
0.470588 0.207843 0.101961
0.517647 0.203922 0.098039
0.564706 0.211765 0.105882
0.611765 0.215686 0.105882
0.658824 0.211765 0.109804
0.701961 0.207843 0.121569
0.741176 0.203922 0.129412
0.792157 0.207843 0.129412
0.831373 0.207843 0.133333
0.874510 0.207843 0.141176
0.913725 0.207843 0.149020
0.952941 0.207843 0.145098
0.996078 0.211765 0.152941
0.992157 0.215686 0.180392
0.000000 0.250980 0.031373
0.043137 0.250980 0.047059
0.082353 0.247059 0.050980
0.125490 0.254902 0.047059
0.156863 0.247059 0.027451
0.207843 0.247059 0.039216
0.250980 0.250980 0.047059
0.298039 0.254902 0.035294
0.337255 0.247059 0.050980
0.384314 0.250980 0.074510
0.435294 0.247059 0.098039
0.482353 0.254902 0.109804
0.529412 0.250980 0.125490
0.576471 0.250980 0.117647
0.619608 0.254902 0.121569
0.658824 0.254902 0.125490
0.698039 0.254902 0.121569
0.745098 0.254902 0.137255
0.784314 0.254902 0.137255
0.835294 0.254902 0.145098
0.874510 0.254902 0.149020
0.917647 0.258824 0.156863
0.952941 0.250980 0.164706
0.996078 0.258824 0.160784
1.000000 0.258824 0.172549
0.000000 0.290196 0.035294
0.039216 0.294118 0.043137
0.086275 0.290196 0.031373
0.125490 0.286275 0.050980
0.168627 0.294118 0.031373
0.207843 0.294118 0.050980
0.247059 0.286275 0.039216
0.298039 0.294118 0.043137
0.333333 0.290196 0.039216
0.376471 0.290196 0.054902
0.427451 0.290196 0.078431
0.482353 0.294118 0.105882
0.529412 0.298039 0.125490
0.580392 0.298039 0.149020
0.623529 0.305882 0.137255
0.662745 0.301961 0.141176
0.709804 0.301961 0.149020
0.749020 0.301961 0.156863
0.800000 0.305882 0.149020
0.835294 0.298039 0.156863
0.874510 0.298039 0.168627
0.921569 0.305882 0.184314
0.956863 0.298039 0.192157
0.988235 0.301961 0.196078
1.000000 0.298039 0.207843
0.000000 0.337255 0.031373
0.043137 0.329412 0.043137
0.086275 0.337255 0.039216
0.129412 0.333333 0.039216
0.168627 0.333333 0.050980
0.207843 0.333333 0.047059
0.250980 0.337255 0.050980
0.294118 0.333333 0.047059
0.329412 0.333333 0.035294
0.380392 0.333333 0.043137
0.419608 0.329412 0.054902
0.470588 0.337255 0.086275
0.521569 0.341176 0.105882
0.580392 0.341176 0.129412
0.627451 0.345098 0.149020
0.678431 0.349020 0.164706
0.721569 0.349020 0.168627
0.764706 0.345098 0.164706
0.803922 0.345098 0.172549
0.847059 0.349020 0.188235
0.886275 0.345098 0.200000
0.917647 0.345098 0.184314
0.949020 0.345098 0.196078
0.996078 0.352941 0.215686
1.000000 0.345098 0.219608
0.000000 0.380392 0.047059
0.039216 0.372549 0.047059
0.082353 0.376471 0.050980
0.125490 0.376471 0.047059
0.164706 0.376471 0.047059
0.203922 0.376471 0.043137
0.247059 0.372549 0.039216
0.290196 0.376471 0.043137
0.333333 0.372549 0.035294
0.376471 0.376471 0.039216
0.415686 0.376471 0.035294
0.458824 0.372549 0.039216
0.521569 0.376471 0.098039
0.564706 0.380392 0.105882
0.619608 0.388235 0.129412
0.674510 0.392157 0.160784
0.717647 0.392157 0.180392
0.764706 0.396078 0.192157
0.811765 0.396078 0.200000
0.850980 0.396078 0.196078
0.886275 0.396078 0.215686
0.925490 0.396078 0.219608
0.960784 0.392157 0.215686
0.992157 0.392157 0.219608
1.000000 0.392157 0.235294
0.000000 0.415686 0.031373
0.039216 0.415686 0.035294
0.086275 0.415686 0.039216
0.125490 0.415686 0.035294
0.164706 0.415686 0.039216
0.207843 0.419608 0.043137
0.254902 0.415686 0.039216
0.294118 0.415686 0.047059
