src/LiveStudio.Agent/BuiltInAssets/ColorCards/v1/cube/001.cube
#Generated with IWLTBAP LUT Generator
#Website: http://luts.iwltbap.com
TITLE "Neutral-125"
#LUT size
LUT_3D_SIZE 5
#LUT data points
0.000000 0.000000 0.000000
0.250980 0.000000 0.003922
0.513725 0.000000 0.019608
0.776471 0.000000 0.066667
1.000000 0.000000 0.109804
0.000000 0.250980 0.000000
0.247059 0.247059 0.000000
0.533333 0.250980 0.094118
0.792157 0.254902 0.121569
1.000000 0.258824 0.164706
0.007843 0.498039 0.003922
0.247059 0.501961 0.000000
0.498039 0.501961 0.003922
0.796078 0.517647 0.164706
1.000000 0.529412 0.294118
0.007843 0.752941 0.000000
0.250980 0.749020 0.000000
0.505882 0.749020 0.007843
0.745098 0.749020 0.000000
0.988235 0.760784 0.235294
0.000000 0.996078 0.007843
0.247059 1.000000 0.000000
0.501961 1.000000 0.000000
0.752941 1.000000 0.000000
0.992157 1.000000 0.011765
0.003922 0.003922 0.254902
0.254902 0.000000 0.250980
0.505882 0.000000 0.250980
0.749020 0.003922 0.247059
0.996078 0.047059 0.274510
0.000000 0.247059 0.247059
0.247059 0.254902 0.250980
0.505882 0.254902 0.258824
0.764706 0.258824 0.278431
1.000000 0.270588 0.298039
0.003922 0.498039 0.258824
0.247059 0.501961 0.243137
0.498039 0.498039 0.247059
0.792157 0.533333 0.345098
1.000000 0.541176 0.403922
0.000000 0.745098 0.250980
0.254902 0.749020 0.254902
0.501961 0.745098 0.247059
0.752941 0.749020 0.250980
0.992157 0.760784 0.360784
0.000000 1.000000 0.250980
0.250980 1.000000 0.247059
0.505882 1.000000 0.247059
0.752941 1.000000 0.247059
1.000000 1.000000 0.250980
0.003922 0.000000 0.501961
0.254902 0.000000 0.501961
0.505882 0.000000 0.498039
0.745098 0.000000 0.494118
0.996078 0.000000 0.490196
0.003922 0.254902 0.505882
0.254902 0.247059 0.501961
0.494118 0.250980 0.498039
0.745098 0.250980 0.501961
0.996078 0.247059 0.509804
0.000000 0.501961 0.501961
0.247059 0.498039 0.494118
0.501961 0.501961 0.501961
0.760784 0.517647 0.521569
1.000000 0.537255 0.545098
0.000000 0.756863 0.509804
0.247059 0.752941 0.501961
0.501961 0.756863 0.505882
0.749020 0.749020 0.498039
0.996078 0.788235 0.615686
0.000000 1.000000 0.505882
0.250980 1.000000 0.494118
0.501961 0.996078 0.501961
0.752941 0.996078 0.498039
1.000000 1.000000 0.505882
0.000000 0.000000 0.749020
0.254902 0.000000 0.752941
0.498039 0.000000 0.749020
0.745098 0.003922 0.749020
1.000000 0.000000 0.752941
0.007843 0.247059 0.745098
0.247059 0.250980 0.749020
0.505882 0.250980 0.752941
0.745098 0.250980 0.745098
1.000000 0.250980 0.760784
0.003922 0.498039 0.737255
0.247059 0.498039 0.741176
0.501961 0.501961 0.745098
0.752941 0.498039 0.749020
0.996078 0.501961 0.752941
0.003922 0.749020 0.749020
0.247059 0.749020 0.752941
0.498039 0.749020 0.749020
0.752941 0.752941 0.752941
1.000000 0.776471 0.772549
0.000000 0.996078 0.745098
0.254902 1.000000 0.749020
0.498039 1.000000 0.752941
0.749020 1.000000 0.752941
0.996078 0.996078 0.745098
0.000000 0.000000 0.996078
0.247059 0.000000 0.996078
0.498039 0.000000 1.000000
0.749020 0.000000 0.996078
1.000000 0.003922 1.000000
0.003922 0.250980 1.000000
0.254902 0.250980 1.000000
0.498039 0.250980 1.000000
0.749020 0.250980 1.000000
1.000000 0.247059 1.000000
0.000000 0.501961 1.000000
0.250980 0.501961 0.996078
0.498039 0.501961 0.996078
0.745098 0.501961 1.000000
0.996078 0.501961 0.996078
0.000000 0.752941 1.000000
0.247059 0.749020 1.000000
0.498039 0.749020 1.000000
0.752941 0.752941 1.000000
1.000000 0.749020 1.000000
0.000000 0.996078 0.996078
0.254902 1.000000 1.000000
0.505882 1.000000 0.996078
0.756863 1.000000 0.996078
1.000000 1.000000 1.000000
