src/LiveStudio.Agent/BuiltInAssets/ColorCards/v1/cube/001.cube
#Generated with IWLTBAP LUT Generator
#Website: http://luts.iwltbap.com
TITLE "Neutral-125"
#LUT size
LUT_3D_SIZE 9
#LUT data points
0.000000 0.000000 0.000000
0.121569 0.000000 0.000000
0.250980 0.000000 0.003922
0.376471 0.000000 0.015686
0.513725 0.000000 0.019608
0.643137 0.000000 0.035294
0.776471 0.000000 0.066667
0.898039 0.000000 0.078431
1.000000 0.000000 0.109804
0.000000 0.129412 0.000000
0.125490 0.121569 0.011765
0.254902 0.121569 0.015686
0.384314 0.117647 0.027451
0.517647 0.113725 0.047059
0.650980 0.113725 0.050980
0.780392 0.109804 0.078431
0.898039 0.105882 0.090196
1.000000 0.113725 0.129412
0.000000 0.250980 0.000000
0.121569 0.247059 0.000000
0.247059 0.247059 0.000000
0.388235 0.247059 0.043137
0.533333 0.250980 0.094118
0.654902 0.250980 0.090196
0.792157 0.254902 0.121569
0.909804 0.250980 0.145098
1.000000 0.258824 0.164706
0.000000 0.376471 0.000000
0.121569 0.372549 0.000000
0.250980 0.376471 0.000000
0.372549 0.368627 0.003922
0.513725 0.376471 0.054902
0.674510 0.396078 0.145098
0.807843 0.392157 0.188235
0.925490 0.388235 0.207843
1.000000 0.392157 0.223529
0.007843 0.498039 0.003922
0.129412 0.501961 0.000000
0.247059 0.501961 0.000000
0.372549 0.501961 0.000000
0.498039 0.501961 0.003922
0.631373 0.505882 0.039216
0.796078 0.517647 0.164706
0.933333 0.533333 0.250980
1.000000 0.529412 0.294118
0.000000 0.619608 0.000000
0.121569 0.623529 0.000000
0.250980 0.619608 0.000000
0.372549 0.623529 0.007843
0.501961 0.627451 0.003922
0.627451 0.627451 0.000000
0.760784 0.631373 0.031373
0.905882 0.643137 0.200000
1.000000 0.643137 0.301961
0.007843 0.752941 0.000000
0.125490 0.752941 0.000000
0.250980 0.749020 0.000000
0.380392 0.752941 0.000000
0.505882 0.749020 0.007843
0.627451 0.749020 0.003922
0.745098 0.749020 0.000000
0.870588 0.749020 0.007843
0.988235 0.760784 0.235294
0.000000 0.866667 0.007843
0.125490 0.878431 0.003922
0.247059 0.878431 0.000000
0.376471 0.878431 0.003922
0.498039 0.874510 0.000000
0.623529 0.878431 0.000000
0.749020 0.874510 0.000000
0.874510 0.874510 0.003922
0.992157 0.882353 0.007843
0.000000 0.996078 0.007843
0.121569 1.000000 0.003922
0.247059 1.000000 0.000000
0.376471 1.000000 0.000000
0.501961 1.000000 0.000000
0.623529 0.996078 0.000000
0.752941 1.000000 0.000000
0.874510 0.996078 0.000000
0.992157 1.000000 0.011765
0.000000 0.003922 0.125490
0.125490 0.003922 0.129412
0.250980 0.003922 0.125490
0.372549 0.000000 0.125490
0.501961 0.003922 0.121569
0.635294 0.000000 0.145098
0.768627 0.000000 0.156863
0.898039 0.000000 0.176471
1.000000 0.003922 0.188235
0.000000 0.125490 0.121569
0.129412 0.125490 0.117647
0.243137 0.125490 0.125490
0.380392 0.129412 0.133333
0.505882 0.129412 0.137255
0.647059 0.121569 0.149020
0.768627 0.125490 0.160784
0.894118 0.125490 0.172549
1.000000 0.133333 0.203922
0.000000 0.247059 0.125490
0.129412 0.247059 0.137255
0.250980 0.250980 0.117647
0.384314 0.250980 0.145098
0.517647 0.258824 0.164706
0.654902 0.258824 0.180392
0.788235 0.254902 0.192157
0.909804 0.258824 0.203922
0.984314 0.262745 0.215686
0.000000 0.372549 0.121569
0.125490 0.380392 0.129412
0.250980 0.376471 0.129412
0.372549 0.372549 0.129412
0.513725 0.376471 0.149020
0.674510 0.396078 0.215686
0.803922 0.400000 0.231373
0.921569 0.396078 0.250980
1.000000 0.396078 0.274510
0.003922 0.494118 0.125490
0.125490 0.501961 0.121569
0.247059 0.498039 0.121569
0.376471 0.501961 0.121569
0.498039 0.498039 0.121569
0.635294 0.501961 0.149020
0.792157 0.521569 0.227451
0.937255 0.529412 0.313725
1.000000 0.533333 0.325490
0.000000 0.627451 0.121569
0.121569 0.627451 0.121569
0.247059 0.627451 0.121569
0.368627 0.623529 0.121569
0.498039 0.623529 0.125490
0.623529 0.627451 0.129412
0.752941 0.627451 0.145098
0.901961 0.647059 0.247059
1.000000 0.647059 0.360784
0.000000 0.749020 0.129412
0.125490 0.752941 0.117647
0.247059 0.749020 0.125490
0.376471 0.752941 0.129412
0.498039 0.749020 0.125490
0.623529 0.749020 0.125490
0.749020 0.749020 0.121569
0.866667 0.752941 0.117647
0.992157 0.764706 0.270588
0.000000 0.874510 0.113725
0.121569 0.882353 0.125490
0.258824 0.874510 0.117647
0.376471 0.874510 0.125490
0.498039 0.870588 0.117647
0.627451 0.874510 0.117647
0.752941 0.874510 0.129412
0.874510 0.874510 0.121569
0.996078 0.878431 0.125490
0.000000 1.000000 0.125490
0.117647 1.000000 0.121569
0.250980 1.000000 0.129412
0.376471 1.000000 0.133333
0.501961 1.000000 0.129412
0.623529 1.000000 0.121569
0.749020 1.000000 0.125490
0.870588 0.996078 0.121569
0.996078 1.000000 0.137255
0.003922 0.003922 0.254902
0.121569 0.003922 0.254902
0.254902 0.000000 0.250980
0.376471 0.000000 0.250980
0.505882 0.000000 0.250980
0.627451 0.000000 0.250980
0.749020 0.003922 0.247059
0.878431 0.015686 0.258824
0.996078 0.047059 0.274510
0.000000 0.133333 0.243137
0.125490 0.121569 0.247059
0.254902 0.121569 0.250980
0.380392 0.125490 0.250980
0.501961 0.121569 0.243137
0.623529 0.125490 0.243137
0.752941 0.129412 0.254902
0.886275 0.137255 0.270588
1.000000 0.141176 0.282353
0.000000 0.247059 0.247059
0.125490 0.247059 0.254902
0.247059 0.254902 0.250980
0.376471 0.250980 0.254902
0.505882 0.254902 0.258824
0.635294 0.258824 0.266667
0.764706 0.258824 0.278431
0.898039 0.266667 0.290196
1.000000 0.270588 0.298039
0.003922 0.376471 0.243137
0.125490 0.376471 0.243137
0.254902 0.376471 0.250980
0.372549 0.376471 0.250980
0.517647 0.384314 0.278431
0.658824 0.400000 0.313725
0.788235 0.400000 0.309804
0.913725 0.400000 0.329412
1.000000 0.407843 0.341176
0.003922 0.498039 0.258824
0.129412 0.501961 0.250980
0.247059 0.501961 0.243137
0.372549 0.498039 0.243137
0.498039 0.498039 0.247059
0.631373 0.505882 0.266667
0.792157 0.533333 0.345098
0.925490 0.541176 0.388235
1.000000 0.541176 0.403922
0.003922 0.631373 0.254902
0.125490 0.627451 0.254902
0.250980 0.627451 0.247059
0.376471 0.627451 0.250980
0.501961 0.627451 0.247059
0.627451 0.627451 0.250980
0.749020 0.627451 0.270588
0.909804 0.650980 0.360784
0.996078 0.662745 0.439216
0.000000 0.745098 0.250980
0.125490 0.749020 0.254902
0.254902 0.749020 0.254902
0.376471 0.749020 0.247059
0.501961 0.745098 0.247059
0.627451 0.749020 0.243137
0.752941 0.749020 0.250980
0.874510 0.756863 0.247059
0.992157 0.760784 0.360784
0.003922 0.870588 0.250980
0.129412 0.870588 0.258824
0.254902 0.874510 0.258824
0.380392 0.874510 0.250980
0.498039 0.874510 0.247059
0.623529 0.878431 0.243137
0.749020 0.874510 0.250980
0.874510 0.874510 0.247059
1.000000 0.874510 0.247059
0.000000 1.000000 0.250980
0.121569 1.000000 0.247059
0.250980 1.000000 0.247059
0.380392 1.000000 0.254902
0.505882 1.000000 0.247059
0.627451 1.000000 0.247059
0.752941 1.000000 0.247059
0.878431 1.000000 0.247059
1.000000 1.000000 0.250980
0.000000 0.000000 0.376471
0.121569 0.000000 0.376471
0.250980 0.000000 0.376471
0.372549 0.000000 0.376471
0.501961 0.000000 0.380392
0.619608 0.000000 0.372549
0.749020 0.000000 0.376471
0.878431 0.000000 0.376471
1.000000 0.000000 0.368627
0.000000 0.129412 0.368627
0.113725 0.129412 0.368627
0.247059 0.121569 0.376471
0.376471 0.121569 0.380392
0.501961 0.125490 0.376471
0.627451 0.121569 0.372549
0.752941 0.125490 0.376471
0.870588 0.125490 0.368627
1.000000 0.125490 0.372549
0.000000 0.247059 0.376471
0.125490 0.254902 0.384314
0.254902 0.250980 0.376471
0.372549 0.250980 0.372549
0.498039 0.250980 0.372549
0.619608 0.247059 0.372549
0.752941 0.254902 0.372549
0.874510 0.258824 0.380392
0.992157 0.266667 0.392157
0.000000 0.376471 0.372549
0.117647 0.376471 0.372549
0.254902 0.380392 0.376471
0.372549 0.380392 0.376471
0.498039 0.380392 0.380392
0.627451 0.384314 0.388235
0.764706 0.396078 0.400000
0.890196 0.396078 0.411765
1.000000 0.407843 0.427451
0.000000 0.501961 0.372549
0.125490 0.498039 0.380392
0.250980 0.498039 0.376471
0.376471 0.498039 0.372549
0.501961 0.498039 0.376471
0.650980 0.517647 0.411765
0.796078 0.541176 0.454902
0.917647 0.545098 0.474510
1.000000 0.549020 0.478431
0.000000 0.627451 0.376471
0.121569 0.627451 0.376471
0.250980 0.627451 0.376471
0.372549 0.627451 0.376471
0.501961 0.627451 0.380392
0.631373 0.627451 0.376471
0.764706 0.627451 0.400000
0.905882 0.658824 0.486275
1.000000 0.686275 0.556863
0.000000 0.749020 0.384314
0.129412 0.756863 0.372549
0.243137 0.745098 0.372549
0.376471 0.752941 0.372549
0.498039 0.749020 0.372549
0.627451 0.752941 0.372549
0.749020 0.749020 0.372549
0.874510 0.752941 0.396078
1.000000 0.772549 0.482353
0.003922 0.866667 0.380392
0.125490 0.870588 0.376471
0.250980 0.874510 0.380392
0.380392 0.874510 0.380392
0.501961 0.874510 0.372549
0.627451 0.870588 0.372549
0.749020 0.878431 0.368627
0.874510 0.878431 0.380392
0.992157 0.874510 0.364706
0.000000 0.996078 0.368627
0.117647 0.996078 0.372549
0.254902 1.000000 0.380392
0.380392 1.000000 0.376471
0.505882 1.000000 0.376471
0.623529 1.000000 0.376471
0.749020 1.000000 0.376471
0.878431 1.000000 0.380392
0.996078 1.000000 0.372549
0.003922 0.000000 0.501961
0.121569 0.000000 0.498039
0.254902 0.000000 0.501961
0.376471 0.000000 0.501961
0.505882 0.000000 0.498039
0.623529 0.000000 0.501961
0.745098 0.000000 0.494118
0.866667 0.003922 0.498039
0.996078 0.000000 0.490196
0.000000 0.129412 0.501961
0.133333 0.125490 0.513725
0.247059 0.121569 0.501961
0.376471 0.125490 0.501961
0.498039 0.125490 0.494118
0.627451 0.125490 0.505882
0.752941 0.125490 0.501961
0.866667 0.125490 0.494118
1.000000 0.121569 0.490196
0.003922 0.254902 0.505882
0.133333 0.247059 0.505882
0.254902 0.247059 0.501961
0.376471 0.250980 0.498039
0.494118 0.250980 0.498039
0.623529 0.247059 0.494118
0.745098 0.250980 0.501961
0.878431 0.250980 0.501961
0.996078 0.247059 0.509804
0.000000 0.372549 0.498039
0.121569 0.372549 0.509804
0.254902 0.376471 0.498039
0.376471 0.372549 0.498039
0.501961 0.368627 0.498039
0.627451 0.372549 0.498039
0.752941 0.372549 0.494118
0.874510 0.376471 0.494118
0.996078 0.372549 0.498039
0.000000 0.501961 0.501961
0.125490 0.501961 0.498039
0.247059 0.498039 0.494118
0.376471 0.501961 0.498039
0.501961 0.501961 0.501961
0.627451 0.509804 0.509804
0.760784 0.517647 0.521569
0.886275 0.525490 0.537255
1.000000 0.537255 0.545098
0.000000 0.623529 0.498039
0.121569 0.623529 0.494118
0.250980 0.623529 0.498039
0.372549 0.619608 0.498039
0.501961 0.623529 0.498039
0.623529 0.627451 0.505882
0.768627 0.647059 0.537255
0.909804 0.686275 0.611765
1.000000 0.686275 0.619608
0.000000 0.756863 0.509804
0.121569 0.752941 0.490196
0.247059 0.752941 0.501961
0.376471 0.752941 0.505882
0.501961 0.756863 0.505882
0.627451 0.752941 0.505882
0.749020 0.749020 0.498039
0.878431 0.756863 0.533333
0.996078 0.788235 0.615686
0.000000 0.874510 0.498039
0.125490 0.874510 0.501961
0.243137 0.874510 0.498039
0.372549 0.874510 0.494118
0.501961 0.874510 0.505882
0.619608 0.878431 0.494118
0.741176 0.874510 0.494118
0.874510 0.874510 0.498039
1.000000 0.874510 0.521569
0.000000 1.000000 0.505882
0.121569 0.996078 0.498039
0.250980 1.000000 0.494118
0.372549 1.000000 0.498039
0.501961 0.996078 0.501961
0.623529 1.000000 0.498039
0.752941 0.996078 0.498039
0.874510 1.000000 0.494118
1.000000 1.000000 0.505882
0.000000 0.000000 0.627451
0.121569 0.003922 0.623529
0.254902 0.003922 0.627451
0.376471 0.000000 0.627451
0.501961 0.000000 0.631373
0.623529 0.003922 0.627451
0.745098 0.000000 0.619608
0.878431 0.000000 0.623529
0.996078 0.000000 0.639216
0.000000 0.121569 0.619608
0.125490 0.133333 0.615686
0.250980 0.121569 0.631373
0.376471 0.121569 0.623529
0.498039 0.117647 0.623529
0.631373 0.125490 0.623529
0.749020 0.125490 0.627451
0.874510 0.125490 0.631373
1.000000 0.125490 0.623529
0.015686 0.243137 0.631373
0.121569 0.258824 0.627451
0.254902 0.250980 0.619608
0.376471 0.250980 0.631373
0.498039 0.247059 0.623529
0.627451 0.254902 0.623529
0.752941 0.250980 0.623529
0.874510 0.247059 0.623529
0.996078 0.250980 0.627451
0.003922 0.376471 0.627451
0.125490 0.376471 0.627451
0.250980 0.372549 0.627451
0.376471 0.376471 0.627451
0.501961 0.376471 0.623529
0.627451 0.372549 0.623529
0.749020 0.372549 0.623529
0.878431 0.372549 0.627451
1.000000 0.376471 0.627451
0.000000 0.505882 0.627451
0.117647 0.501961 0.615686
0.254902 0.501961 0.631373
0.380392 0.501961 0.623529
0.501961 0.498039 0.623529
0.627451 0.494118 0.623529
0.752941 0.498039 0.623529
0.874510 0.501961 0.635294
0.996078 0.505882 0.623529
0.000000 0.623529 0.623529
0.121569 0.623529 0.619608
0.250980 0.627451 0.623529
0.376471 0.627451 0.627451
0.501961 0.623529 0.631373
0.623529 0.623529 0.623529
0.760784 0.635294 0.639216
0.882353 0.647059 0.647059
1.000000 0.654902 0.662745
0.000000 0.749020 0.619608
0.125490 0.752941 0.619608
0.250980 0.749020 0.631373
0.376471 0.749020 0.623529
0.501961 0.749020 0.627451
0.627451 0.749020 0.627451
0.745098 0.749020 0.627451
0.894118 0.776471 0.674510
1.000000 0.807843 0.749020
0.000000 0.878431 0.635294
0.129412 0.874510 0.623529
0.250980 0.874510 0.623529
0.372549 0.878431 0.627451
0.498039 0.874510 0.627451
0.623529 0.878431 0.627451
0.749020 0.874510 0.619608
0.870588 0.874510 0.615686
1.000000 0.878431 0.639216
0.000000 1.000000 0.623529
0.121569 1.000000 0.623529
0.250980 1.000000 0.627451
0.376471 1.000000 0.627451
0.498039 1.000000 0.619608
0.627451 1.000000 0.623529
0.749020 1.000000 0.623529
0.878431 0.996078 0.619608
0.996078 1.000000 0.631373
0.000000 0.000000 0.749020
0.121569 0.000000 0.745098
0.254902 0.000000 0.752941
0.372549 0.000000 0.752941
0.498039 0.000000 0.749020
0.627451 0.003922 0.752941
0.745098 0.003922 0.749020
0.874510 0.000000 0.749020
1.000000 0.000000 0.752941
0.000000 0.121569 0.749020
0.117647 0.125490 0.752941
0.250980 0.125490 0.756863
0.376471 0.125490 0.749020
0.501961 0.125490 0.752941
0.627451 0.125490 0.749020
0.752941 0.125490 0.752941
0.870588 0.125490 0.745098
1.000000 0.125490 0.749020
0.007843 0.247059 0.745098
0.121569 0.254902 0.749020
0.247059 0.250980 0.749020
0.376471 0.250980 0.749020
0.505882 0.250980 0.752941
0.627451 0.247059 0.752941
0.745098 0.250980 0.745098
0.870588 0.247059 0.749020
1.000000 0.250980 0.760784
0.003922 0.372549 0.749020
0.121569 0.372549 0.752941
0.247059 0.376471 0.749020
0.376471 0.376471 0.752941
0.498039 0.372549 0.752941
0.619608 0.380392 0.752941
0.749020 0.372549 0.752941
0.878431 0.376471 0.756863
1.000000 0.372549 0.749020
0.003922 0.498039 0.737255
0.129412 0.505882 0.745098
0.247059 0.498039 0.741176
0.376471 0.498039 0.749020
0.501961 0.501961 0.745098
0.623529 0.498039 0.745098
0.752941 0.498039 0.749020
0.878431 0.501961 0.749020
0.996078 0.501961 0.752941
0.000000 0.623529 0.749020
0.121569 0.627451 0.752941
0.250980 0.623529 0.749020
0.372549 0.627451 0.752941
0.501961 0.619608 0.752941
0.623529 0.627451 0.749020
0.745098 0.623529 0.749020
0.874510 0.627451 0.749020
1.000000 0.627451 0.752941
0.003922 0.749020 0.749020
0.121569 0.749020 0.749020
0.247059 0.749020 0.752941
0.376471 0.752941 0.749020
0.498039 0.749020 0.749020
0.627451 0.749020 0.756863
0.752941 0.752941 0.752941
0.882353 0.764706 0.772549
1.000000 0.776471 0.772549
0.000000 0.878431 0.752941
0.125490 0.874510 0.745098
0.243137 0.874510 0.745098
0.372549 0.874510 0.745098
0.501961 0.874510 0.749020
0.627451 0.874510 0.752941
0.752941 0.874510 0.749020
0.874510 0.870588 0.749020
1.000000 0.890196 0.796078
0.000000 0.996078 0.745098
0.117647 1.000000 0.741176
0.254902 1.000000 0.749020
0.372549 1.000000 0.749020
0.498039 1.000000 0.752941
0.627451 1.000000 0.749020
0.749020 1.000000 0.752941
0.878431 0.996078 0.752941
0.996078 0.996078 0.745098
0.000000 0.000000 0.874510
0.121569 0.003922 0.874510
0.247059 0.003922 0.878431
0.372549 0.000000 0.878431
0.498039 0.000000 0.870588
0.623529 0.000000 0.878431
0.745098 0.000000 0.878431
0.870588 0.000000 0.874510
1.000000 0.000000 0.878431
0.000000 0.129412 0.878431
0.121569 0.125490 0.866667
0.247059 0.125490 0.870588
0.372549 0.125490 0.878431
0.501961 0.129412 0.882353
0.623529 0.125490 0.874510
0.752941 0.129412 0.878431
0.874510 0.125490 0.878431
1.000000 0.121569 0.874510
0.000000 0.247059 0.866667
0.125490 0.254902 0.870588
0.250980 0.250980 0.870588
0.372549 0.247059 0.870588
0.501961 0.250980 0.874510
0.627451 0.250980 0.874510
0.756863 0.254902 0.878431
0.878431 0.250980 0.870588
0.996078 0.250980 0.878431
0.003922 0.376471 0.878431
0.129412 0.380392 0.874510
0.254902 0.376471 0.874510
0.376471 0.372549 0.874510
0.501961 0.376471 0.874510
0.619608 0.376471 0.874510
0.752941 0.376471 0.870588
0.878431 0.372549 0.870588
1.000000 0.376471 0.878431
0.000000 0.498039 0.870588
0.125490 0.505882 0.878431
0.247059 0.498039 0.878431
0.368627 0.498039 0.870588
0.498039 0.498039 0.874510
0.623529 0.498039 0.878431
0.752941 0.501961 0.878431
0.878431 0.501961 0.882353
1.000000 0.498039 0.870588
0.000000 0.623529 0.878431
0.125490 0.627451 0.874510
0.254902 0.627451 0.878431
0.376471 0.627451 0.878431
0.505882 0.623529 0.874510
0.627451 0.627451 0.878431
0.752941 0.627451 0.874510
0.878431 0.623529 0.874510
1.000000 0.623529 0.874510
0.000000 0.749020 0.870588
0.125490 0.756863 0.870588
0.250980 0.749020 0.874510
0.380392 0.752941 0.878431
0.501961 0.749020 0.878431
0.627451 0.749020 0.870588
0.752941 0.749020 0.874510
0.878431 0.749020 0.870588
1.000000 0.752941 0.874510
0.000000 0.878431 0.874510
0.121569 0.878431 0.874510
0.250980 0.870588 0.874510
0.372549 0.874510 0.878431
0.501961 0.878431 0.874510
0.623529 0.874510 0.870588
0.749020 0.874510 0.870588
0.878431 0.878431 0.878431
1.000000 0.886275 0.894118
0.000000 1.000000 0.874510
0.125490 1.000000 0.878431
0.250980 1.000000 0.870588
0.376471 1.000000 0.874510
0.498039 1.000000 0.870588
0.627451 1.000000 0.874510
0.752941 1.000000 0.870588
0.874510 0.996078 0.874510
1.000000 1.000000 0.882353
0.000000 0.000000 0.996078
0.125490 0.003922 1.000000
0.247059 0.000000 0.996078
0.376471 0.003922 1.000000
0.498039 0.000000 1.000000
0.627451 0.000000 0.996078
0.749020 0.000000 0.996078
0.870588 0.003922 1.000000
1.000000 0.003922 1.000000
0.000000 0.129412 1.000000
0.117647 0.125490 0.996078
0.243137 0.125490 0.996078
0.380392 0.125490 1.000000
0.498039 0.129412 0.996078
0.623529 0.129412 1.000000
0.749020 0.129412 0.996078
0.874510 0.129412 1.000000
0.996078 0.125490 1.000000
0.003922 0.250980 1.000000
0.129412 0.247059 1.000000
0.254902 0.250980 1.000000
0.376471 0.247059 0.996078
0.498039 0.250980 1.000000
0.627451 0.247059 0.996078
0.749020 0.250980 1.000000
0.874510 0.250980 0.992157
1.000000 0.247059 1.000000
0.003922 0.372549 1.000000
0.129412 0.372549 0.996078
0.247059 0.372549 1.000000
0.376471 0.376471 1.000000
0.501961 0.376471 1.000000
0.627451 0.376471 1.000000
0.749020 0.372549 0.996078
0.878431 0.376471 1.000000
1.000000 0.376471 1.000000
0.000000 0.501961 1.000000
0.129412 0.501961 1.000000
0.250980 0.501961 0.996078
0.376471 0.498039 0.996078
0.498039 0.501961 0.996078
0.623529 0.501961 1.000000
0.745098 0.501961 1.000000
0.870588 0.498039 1.000000
0.996078 0.501961 0.996078
0.000000 0.627451 1.000000
0.121569 0.627451 0.996078
0.247059 0.627451 1.000000
0.372549 0.623529 1.000000
0.498039 0.627451 1.000000
0.623529 0.623529 1.000000
0.749020 0.627451 0.996078
0.874510 0.623529 1.000000
1.000000 0.623529 1.000000
0.000000 0.752941 1.000000
0.125490 0.749020 1.000000
0.247059 0.749020 1.000000
0.376471 0.749020 1.000000
0.498039 0.749020 1.000000
0.627451 0.749020 1.000000
0.752941 0.752941 1.000000
0.874510 0.749020 1.000000
1.000000 0.749020 1.000000
0.000000 0.874510 0.996078
0.125490 0.874510 0.988235
0.250980 0.874510 1.000000
0.372549 0.870588 0.996078
0.501961 0.874510 1.000000
0.627451 0.874510 0.996078
0.745098 0.874510 0.996078
0.878431 0.874510 1.000000
1.000000 0.870588 1.000000
0.000000 0.996078 0.996078
0.125490 1.000000 0.996078
0.254902 1.000000 1.000000
0.376471 0.996078 1.000000
0.505882 1.000000 0.996078
0.623529 1.000000 0.996078
0.756863 1.000000 0.996078
0.882353 1.000000 1.000000
1.000000 1.000000 1.000000
