src/LiveStudio.Agent/BuiltInAssets/ColorCards/v1/cube/003.cube
TITLE "Generated by Resolve"
LUT_3D_SIZE 65
0 0 0
0 0 0
0 0 0
0 0 0
0 0 0
0 0 0
0 0 0
0 0 0
0 0 0
0 0 0
0 0 0
0.0106661 0.00180056 0.00291447
0.0238804 0.00680552 0.00914015
0.0460975 0.0144503 0.0177005
0.0709392 0.0213474 0.0244297
0.0972 0.027512 0.0294652
0.124575 0.0336156 0.033463
0.152468 0.0393683 0.0363622
0.180438 0.0444343 0.0381323
0.20827 0.0487526 0.0389258
0.235401 0.0525521 0.0392004
0.262547 0.0563058 0.0391394
0.289631 0.0602731 0.0389105
0.316579 0.0652018 0.0388495
0.342977 0.0704509 0.0387427
0.369268 0.0756085 0.038529
0.395209 0.0809949 0.0385138
0.420798 0.0868849 0.0388342
0.444923 0.0931106 0.0399786
0.467704 0.0995346 0.0417029
0.488594 0.105669 0.0444953
0.508598 0.111879 0.0477607
0.527367 0.118379 0.051545
0.545251 0.125277 0.0558328
0.562692 0.133242 0.0611276
0.578897 0.141176 0.0667582
0.593713 0.148806 0.0725719
0.607324 0.156252 0.078584
0.619745 0.163149 0.0843366
0.632029 0.169818 0.0900587
0.644068 0.176242 0.0955825
0.656031 0.182544 0.101122
0.667384 0.188327 0.106249
0.67837 0.193957 0.11136
0.688823 0.199359 0.116335
0.699321 0.204913 0.121447
0.709895 0.210788 0.126848
0.720592 0.216754 0.132311
0.731289 0.222919 0.137987
0.741878 0.229023 0.143618
0.74995 0.233219 0.147509
0.757641 0.237034 0.15108
0.765133 0.240803 0.154543
0.772351 0.244556 0.157931
0.779553 0.248325 0.161364
0.786725 0.252049 0.164736
0.793606 0.255604 0.167956
0.80032 0.259068 0.171069
0.806989 0.262516 0.174212
0.811963 0.263813 0.175418
0.814282 0.263661 0.175433
0.816526 0.263508 0.175448
0.817929 0.263371 0.175448
0.819333 0.263218 0.175448
0.820722 0.263066 0.175448
0 0 0
0 0 0
0 0 0
0 0 0
0 0 0
0 0 0
0 0 0
0 0 0
0 0 0
0 0 0
0 0 0
0.0117037 0.00268559 0.00407416
0.0251011 0.00766003 0.00991836
0.0478828 0.0154421 0.0184634
0.0728313 0.0223087 0.0250095
0.0992905 0.0285344 0.0299077
0.126665 0.034638 0.033753
0.154635 0.0404212 0.0365301
0.182376 0.0454566 0.0381781
0.210086 0.0497444 0.0388647
0.23711 0.0535439 0.0390784
0.264302 0.0573434 0.0389715
0.291356 0.0613413 0.0386969
0.318029 0.0662699 0.0386053
0.34432 0.0715496 0.038468
0.370687 0.0767529 0.0382391
0.396338 0.0821546 0.0382239
0.42182 0.0880751 0.0385443
0.445823 0.0943313 0.0397192
0.46865 0.100847 0.0414893
0.489479 0.107027 0.0443275
0.509346 0.113268 0.0476387
0.527916 0.119753 0.0514229
0.545678 0.12668 0.055787
0.56289 0.134615 0.0610819
0.57908 0.142626 0.066804
0.593835 0.150271 0.0726482
0.607416 0.157717 0.0786603
0.61976 0.164569 0.0843671
0.63212 0.171283 0.090135
0.644144 0.177722 0.0956588
0.656123 0.184024 0.101198
0.66746 0.189792 0.106325
0.678431 0.195407 0.111421
0.688899 0.200793 0.116381
0.699397 0.206348 0.121492
0.709957 0.212238 0.126894
0.720653 0.218204 0.132372
0.731334 0.224369 0.138048
0.74197 0.230488 0.143694
0.74995 0.234623 0.147524
0.757641 0.238437 0.15108
0.765133 0.242206 0.154543
0.772396 0.246006 0.157977
0.779568 0.249729 0.161364
0.78674 0.253483 0.164782
0.793591 0.257008 0.167971
0.800336 0.260487 0.171099
0.807034 0.263996 0.174304
0.811933 0.265217 0.175433
0.814252 0.26508 0.175448
0.816495 0.264927 0.175463
0.817884 0.264775 0.175463
0.819287 0.264622 0.175479
0.820676 0.264469 0.175463
0 0 0
0 0 0
0 0 0
0 0 0
0 0 0
0 0 0
0 0 0
0 0 0
0 0 0
0 0 0
0.000289921 0 0
0.0127565 0.00404364 0.00520333
0.026627 0.00891127 0.0109865
0.0495308 0.0166781 0.0192874
0.0746777 0.023621 0.0256809
0.101091 0.0298009 0.0303349
0.128527 0.0359808 0.0340429
0.156329 0.0417639 0.0366369
0.184054 0.0468452 0.0381628
0.211749 0.0511788 0.0387579
0.238514 0.054963 0.03888
0.265629 0.0587625 0.0386969
0.292561 0.0627909 0.0383764
0.31928 0.0677501 0.0382239
0.345205 0.0730297 0.038056
0.371557 0.0783093 0.0378119
0.397208 0.0837415 0.0377661
0.422522 0.0897078 0.0380865
0.446265 0.0959335 0.0392309
0.46894 0.10248 0.041001
0.489647 0.108705 0.0438239
0.509392 0.114977 0.0471351
0.527916 0.121523 0.0509651
0.545541 0.12842 0.0553292
0.562615 0.136385 0.0606699
0.578668 0.144427 0.066453
0.593362 0.152102 0.0723278
0.607004 0.159564 0.0783246
0.619348 0.166415 0.0840314
0.631754 0.173175 0.0898451
0.643732 0.179568 0.0953231
0.655756 0.185916 0.100893
0.667109 0.191669 0.10602
0.678096 0.197269 0.111116
0.688563 0.202655 0.11606
0.699062 0.208194 0.121172
0.709712 0.21413 0.126619
0.720302 0.22005 0.132036
0.731014 0.22623 0.137728
0.741711 0.23241 0.143435
0.749706 0.236545 0.147265
0.757382 0.24036 0.15082
0.764874 0.244114 0.154299
0.772152 0.247913 0.157733
0.779355 0.251667 0.161181
0.786526 0.255375 0.164599
0.793423 0.258976 0.167865
0.800183 0.262501 0.171054
0.806882 0.265965 0.174243
0.81178 0.267231 0.175448
0.814176 0.267079 0.175463
0.816434 0.266926 0.175479
0.817823 0.266773 0.175479
0.819226 0.266621 0.175479
0.82063 0.266468 0.175479
0 0 0
0 0 0
0 0 0
0 0 0
0 0 0
0 0 0
0 0 0
0 0 0
0 0 0
0 0 0
0.00135805 0 0
0.0138247 0.00535592 0.00637827
0.0280919 0.0102693 0.0120851
0.0504311 0.017792 0.019913
0.0757305 0.0248417 0.0261692
0.101946 0.0309911 0.0306096
0.129366 0.037232 0.0341802
0.157183 0.0430762 0.0366522
0.184817 0.0482338 0.0380865
0.212207 0.0525673 0.0385748
0.239033 0.0564279 0.0386206
0.265934 0.0602121 0.0383459
0.292714 0.0642405 0.0379797
0.319402 0.0691539 0.0377508
0.34519 0.0744793 0.0375677
0.371435 0.0798199 0.0372931
0.396994 0.0852674 0.0372015
0.422248 0.0912795 0.0375067
0.446128 0.0975967 0.0385901
0.468574 0.104158 0.0403449
0.489204 0.110445 0.0431067
0.508919 0.116808 0.0464179
0.527306 0.123339 0.050248
0.544808 0.13019 0.0545663
0.561852 0.138216 0.0599832
0.577691 0.146258 0.0657664
0.592371 0.153964 0.0716716
0.60618 0.161517 0.0776989
0.618585 0.168414 0.0834516
0.63093 0.175128 0.0892042
0.642985 0.181582 0.0947433
0.654902 0.1879 0.100252
0.666346 0.193668 0.105409
0.677363 0.199283 0.110491
0.687907 0.2047 0.115496
0.698421 0.210239 0.120577
0.708965 0.216114 0.125963
0.719615 0.222049 0.131426
0.730404 0.228305 0.137179
0.741115 0.234516 0.142885
0.749142 0.238697 0.146761
0.756909 0.242542 0.150347
0.764401 0.246296 0.153841
0.771695 0.250095 0.157305
0.778851 0.253819 0.160739
0.786053 0.257557 0.164233
0.792935 0.261173 0.167514
0.79971 0.264729 0.170779
0.806485 0.268269 0.17406
0.811505 0.269657 0.175418
0.813993 0.269505 0.175433
0.816342 0.269352 0.175448
0.817731 0.269184 0.175463
0.819135 0.269047 0.175463
0.820523 0.26891 0.175463
0 0 0
0 0 0
0 0 0
0 0 0
0 0 0
0 0 0
0 0 0
0 0 0
0 0 0
0 0 0
0.00296025 0.00158694 0.00120546
0.0157626 0.00764477 0.0083772
0.0303044 0.0125277 0.0138094
0.0518502 0.0196536 0.0208743
0.0771954 0.0268406 0.0269169
0.103334 0.0330053 0.0310369
0.130373 0.0392615 0.0343328
0.157931 0.0451514 0.0365911
0.185306 0.0504463 0.0378882
0.212741 0.054902 0.0382544
0.239384 0.0588083 0.0381781
0.266178 0.0625772 0.0377661
0.2925 0.0665904 0.0373236
0.318975 0.0713512 0.0369726
0.34464 0.0767224 0.036759
0.370413 0.0820478 0.0364538
0.395789 0.0874495 0.0363012
0.420996 0.0935531 0.0365911
0.444648 0.0998093 0.0375219
0.466957 0.106386 0.0392309
0.487663 0.112795 0.041886
0.507317 0.119234 0.0451667
0.525643 0.125795 0.0489967
0.543114 0.132616 0.0532845
0.559792 0.140536 0.0586404
0.575631 0.148714 0.0645457
0.59028 0.15642 0.0704356
0.604257 0.164034 0.0764172
0.616846 0.171054 0.0822614
0.629267 0.177874 0.0880446
0.641367 0.184405 0.0936294
0.6533 0.190707 0.0991531
0.664775 0.19649 0.104326
0.675929 0.202167 0.109453
0.686503 0.207599 0.114473
0.697032 0.213092 0.119509
0.707576 0.218952 0.124895
0.718166 0.224765 0.130282
0.729 0.230991 0.136049
0.739895 0.237247 0.141863
0.748028 0.241581 0.145892
0.755917 0.245472 0.149554
0.763439 0.24918 0.153094
0.770764 0.252934 0.156588
0.777966 0.256672 0.160113
0.785168 0.26038 0.163638
0.792157 0.264057 0.167041
0.798947 0.267613 0.170336
0.805768 0.271168 0.173709
0.811032 0.272892 0.175387
0.813703 0.272725 0.175402
0.816205 0.272572 0.175418
0.817594 0.272419 0.175418
0.818998 0.272251 0.175433
0.820386 0.272114 0.175433
0 0 0
0 0 0
0 0 0
0 0 0
0 0 0
0 0 0
0 0 0
0 0 0
0 0 0
0 0 0
0.00427253 0.00428778 0.00373846
0.0178225 0.0102693 0.0105592
0.0326085 0.0151522 0.015671
0.0532998 0.0218051 0.0218814
0.0788128 0.0292058 0.0277104
0.104692 0.0353857 0.0314794
0.131243 0.0416114 0.0344549
0.158495 0.0475471 0.0364538
0.185763 0.0530404 0.0376287
0.212924 0.0575723 0.0378576
0.239445 0.0615702 0.0376287
0.266041 0.0653239 0.0370642
0.292424 0.069398 0.0365301
0.318288 0.07393 0.0360571
0.343633 0.0792859 0.0357977
0.36907 0.0846418 0.0354925
0.393988 0.0899214 0.0352483
0.418982 0.0960555 0.0354925
0.442573 0.102266 0.0362554
0.464652 0.108873 0.0378882
0.485328 0.115328 0.0403601
0.504799 0.121736 0.0435645
0.523079 0.128313 0.047364
0.540627 0.13518 0.051667
0.557168 0.143114 0.0570382
0.572732 0.151324 0.0629282
0.587594 0.159167 0.0688945
0.601907 0.166888 0.0748913
0.614527 0.174014 0.0807507
0.627131 0.181033 0.0866255
0.63917 0.187503 0.0921645
0.651255 0.193942 0.0977798
0.66273 0.199725 0.102968
0.674098 0.205493 0.108171
0.684718 0.211017 0.113252
0.695201 0.216449 0.118227
0.70576 0.222248 0.123598
0.716381 0.228061 0.129015
0.72726 0.234195 0.134768
0.738186 0.240421 0.140597
0.746548 0.244862 0.144808
0.754635 0.248875 0.148638
0.762234 0.252628 0.1523
0.769635 0.256321 0.155886
0.776837 0.260044 0.159457
0.784039 0.263737 0.163027
0.791058 0.267384 0.166491
0.797925 0.271 0.169909
0.804791 0.274601 0.173342
0.810407 0.276753 0.175463
0.813382 0.276661 0.175525
0.816114 0.276539 0.17557
0.817517 0.276402 0.175601
0.818921 0.276265 0.175616
0.82034 0.276127 0.175631
0 0 0
0 0 0
0 0 0
0 0 0
0 0 0
0 0 0
0 0 0
0 0 0
0 0 0
0 0.00260929 0.000579843
0.00660716 0.00776684 0.00701915
0.0217288 0.0144656 0.0140383
0.0394903 0.0207828 0.0199893
0.0626535 0.0284581 0.026154
0.0902113 0.0366522 0.0314794
0.116945 0.0433661 0.034638
0.143679 0.049546 0.0367285
0.17055 0.0552224 0.0379034
0.196887 0.0601968 0.0383307
0.22356 0.0645457 0.0380713
0.249393 0.068452 0.0375219
0.275257 0.0722667 0.0367742
0.300191 0.0763561 0.0361334
0.324819 0.0806592 0.0355077
0.348638 0.0855116 0.0351263
0.372702 0.0905318 0.0347448
0.396582 0.0955367 0.0344549
0.420249 0.101228 0.0346685
0.442634 0.106783 0.0352331
0.463416 0.112718 0.0366827
0.483513 0.118807 0.0388647
0.5028 0.125246 0.0420996
0.521096 0.131914 0.0459602
0.538338 0.138766 0.0503548
0.554574 0.146639 0.0556802
0.570047 0.155062 0.0617533
0.584894 0.162875 0.0676585
0.599527 0.170718 0.0736706
0.612314 0.177951 0.0795911
0.624918 0.185046 0.0854658
0.637095 0.191608 0.0910964
0.649042 0.197971 0.0966049
0.6607 0.203861 0.1019
0.672282 0.209751 0.107195
0.682857 0.215274 0.112261
0.693446 0.220768 0.117311
0.704021 0.226474 0.122621
0.714488 0.232151 0.127916
0.725383 0.238132 0.133623
0.736309 0.244205 0.139422
0.744961 0.248844 0.143893
0.753338 0.252979 0.147951
0.760937 0.256718 0.151644
0.768383 0.260441 0.155291
0.775586 0.264088 0.158862
0.782788 0.267765 0.162448
0.789883 0.271458 0.166003
0.796796 0.274998 0.169467
0.803708 0.27863 0.172961
0.80975 0.281254 0.17554
0.813031 0.281209 0.175692
0.816007 0.281163 0.175814
0.817441 0.28101 0.17586
0.818891 0.280888 0.175921
0.820325 0.280781 0.175967
0 0 0
0 0 0
0 0 0
0 0 0
0 0 0
0 0 0
0 0.000137331 0
0 0.00144961 0
0 0.00369268 0.000488289
0.000518807 0.00665293 0.00444038
0.0107576 0.0124666 0.0111238
0.0278019 0.0203861 0.0187076
0.0487373 0.0283513 0.0251774
0.0742046 0.0368658 0.0307774
0.103105 0.0454719 0.03505
0.13022 0.0525673 0.0374151
0.15671 0.0586404 0.0386511
0.183139 0.0639506 0.0390326
0.208453 0.0682536 0.0387579
0.234699 0.0723888 0.038056
0.260349 0.0763104 0.0371862
0.285771 0.0804303 0.0363622
0.310002 0.0849317 0.0357061
0.333639 0.0894484 0.0350805
0.356451 0.0941024 0.0346532
0.379812 0.0991989 0.0343328
0.403082 0.104372 0.0341802
0.425757 0.11017 0.0346227
0.447196 0.115816 0.0354162
0.466835 0.121492 0.037232
0.485847 0.127214 0.0395819
0.503944 0.132891 0.0428168
0.521141 0.138872 0.0464942
0.537545 0.145174 0.0507515
0.553216 0.152865 0.0561074
0.568185 0.16112 0.0621653
0.583093 0.169009 0.0681468
0.598032 0.176944 0.0741741
0.610819 0.184253 0.0801556
0.623575 0.191485 0.0861677
0.635645 0.19791 0.0917678
0.647684 0.204303 0.0973678
0.659312 0.210224 0.102647
0.670954 0.216037 0.107866
0.681559 0.221469 0.11284
0.691997 0.226795 0.117708
0.70251 0.232212 0.122789
0.712993 0.23772 0.127932
0.723705 0.243366 0.133379
0.734508 0.249104 0.138979
0.74342 0.253758 0.143572
0.752026 0.257877 0.147707
0.75964 0.261524 0.151385
0.767193 0.265248 0.155062
0.77438 0.268818 0.158587
0.781582 0.272374 0.162112
0.788678 0.275944 0.165591
0.795651 0.2795 0.1691
0.80264 0.283085 0.17261
0.809079 0.286091 0.175586
0.81265 0.286137 0.175845
0.815885 0.286122 0.176074
0.817365 0.286015 0.176165
0.818845 0.285893 0.176257
0.82031 0.285756 0.176333
0 0.00234989 0
0 0.00260929 0
0 0.00276188 0
0 0.00283818 0
0 0.00315862 0
0 0.00381476 0
0 0.00492866 0.000610361
0 0.00633249 0.00238041
0 0.00827039 0.00491341
0.00306706 0.0110018 0.00856031
0.0155795 0.0182193 0.0158236
0.0349432 0.0277867 0.0239567
0.0593576 0.037705 0.0306706
0.0876631 0.0473182 0.0354772
0.11664 0.055787 0.0383154
0.144259 0.0627146 0.0395819
0.170642 0.0684367 0.0398871
0.196719 0.0734417 0.0395972
0.22237 0.0777752 0.0388342
0.248096 0.0822003 0.0379034
0.273579 0.0865644 0.0368811
0.298375 0.0910506 0.0359808
0.321614 0.0955825 0.0352636
0.344381 0.100221 0.034638
0.366476 0.105058 0.0343328
0.388617 0.110048 0.0341955
0.410971 0.115389 0.0343481
0.432395 0.121141 0.0350805
0.452628 0.126909 0.0361944
0.471061 0.132311 0.038407
0.489052 0.13785 0.0411536
0.506371 0.14342 0.0448768
0.522683 0.149325 0.0489509
0.538277 0.15555 0.0535286
0.553185 0.163012 0.0590372
0.567788 0.170733 0.0648356
0.582559 0.178424 0.0707103
0.597375 0.186007 0.0765545
0.610101 0.193118 0.0824292
0.62269 0.200183 0.088304
0.63473 0.206394 0.093843
0.646815 0.212573 0.0994125
0.658503 0.218463 0.104662
0.670054 0.224247 0.109804
0.680613 0.229511 0.114626
0.691081 0.234836 0.119478
0.701411 0.240009 0.124269
0.711818 0.245274 0.129213
0.722438 0.250599 0.134386
0.733135 0.256062 0.139696
0.742153 0.260624 0.144213
0.750942 0.264668 0.148333
0.758526 0.268193 0.151904
0.76611 0.271778 0.155505
0.773251 0.275166 0.158923
0.780438 0.27866 0.162402
0.787564 0.28217 0.165896
0.794476 0.285573 0.169329
0.801434 0.289113 0.172824
0.808194 0.292439 0.17615
0.812253 0.292729 0.17673
0.815869 0.292943 0.177218
0.817441 0.292851 0.177401
0.819013 0.292729 0.177554
0.820539 0.292576 0.177676
0 0.012314 0.00773632
0 0.012665 0.00810254
0 0.0127871 0.00825513
0 0.0128023 0.00831617
0 0.0132448 0.00881971
0 0.0137484 0.00939956
0 0.0145876 0.0103456
0.000442512 0.0158694 0.0117342
0.00370794 0.0181277 0.0140688
0.0103151 0.0219577 0.018143
0.0244907 0.0295872 0.0245975
0.046067 0.0396277 0.0313878
0.0726787 0.0499886 0.0365759
0.102617 0.0597696 0.0397498
0.130556 0.0673686 0.0409857
0.158129 0.0737469 0.0411231
0.184482 0.0789197 0.0405737
0.210315 0.0835431 0.0396735
0.23624 0.0880293 0.0384985
0.26186 0.093019 0.0374304
0.286748 0.098024 0.0364385
0.310811 0.103014 0.0355688
0.333532 0.107698 0.0348669
0.355398 0.112261 0.0343023
0.377127 0.11754 0.0342565
0.398474 0.122881 0.0345159
0.419455 0.128298 0.0352178
0.439582 0.133928 0.0364843
0.458549 0.139513 0.0381628
0.47628 0.145098 0.041062
0.4934 0.150652 0.044419
0.509483 0.155962 0.0483406
0.524742 0.161715 0.0527504
0.539315 0.16788 0.0577401
0.554009 0.175097 0.0632639
0.568551 0.182376 0.068864
0.583062 0.1897 0.0745708
0.597665 0.197086 0.0803693
0.610346 0.203891 0.0861524
0.622812 0.210575 0.0919509
0.634852 0.216724 0.0974746
0.646845 0.222797 0.102983
0.658579 0.228733 0.108263
0.670146 0.234455 0.11339
0.680613 0.239567 0.118029
0.690898 0.244602 0.122621
0.701183 0.249531 0.127184
0.711345 0.254398 0.131746
0.721782 0.259388 0.136507
0.732311 0.264424 0.14139
0.741329 0.26865 0.145571
0.750179 0.272663 0.149569
0.757763 0.276005 0.152972
0.765301 0.279301 0.156374
0.772366 0.282567 0.15967
0.779477 0.285893 0.163012
0.786542 0.289174 0.166354
0.793408 0.292515 0.169757
0.800275 0.295888 0.173159
0.807111 0.299306 0.176593
0.811795 0.300099 0.177737
0.815869 0.300633 0.178607
0.817563 0.300572 0.178912
0.819242 0.300465 0.179187
0.82089 0.30042 0.179461
0 0.0295872 0.022446
0 0.0300755 0.0228733
0 0.0299077 0.0227665
0 0.0294499 0.022446
0.000411994 0.0294804 0.0225528
0.00158694 0.0293126 0.0225223
0.0034638 0.0296025 0.0228885
0.00598154 0.030396 0.023743
0.0101015 0.0328985 0.0260319
0.0189059 0.0370184 0.0294804
0.0346838 0.0446174 0.0344549
0.0576638 0.0539864 0.0389715
0.0855116 0.0636759 0.0420691
0.116091 0.0728008 0.043595
0.144427 0.0798657 0.0436561
0.172351 0.0862745 0.0430762
0.199207 0.0919509 0.0420844
0.225696 0.0971389 0.0407263
0.251408 0.102068 0.0392309
0.277028 0.107347 0.0378729
0.301366 0.112581 0.0367742
0.324422 0.117784 0.0360113
0.346197 0.122606 0.0355077
0.367407 0.127459 0.0352789
0.38819 0.132723 0.0356146
0.408484 0.138064 0.0363012
0.428214 0.143648 0.0376287
0.446906 0.149126 0.0394903
0.464378 0.154345 0.0417487
0.481102 0.159808 0.045182
0.497261 0.16524 0.0492103
0.5122 0.170397 0.0534066
0.526741 0.175891 0.0579843
0.540871 0.181628 0.0630045
0.555322 0.188464 0.0684062
0.570016 0.195544 0.0739452
0.584375 0.202625 0.0795605
0.598611 0.209583 0.0851759
0.611246 0.216037 0.0908675
0.623575 0.222324 0.0965591
0.635538 0.228367 0.102068
0.647501 0.234302 0.10753
0.659159 0.240162 0.112764
0.670695 0.246021 0.117952
0.681132 0.25098 0.122469
0.691402 0.255848 0.126925
0.701579 0.260624 0.131319
0.711604 0.265202 0.135592
0.72192 0.269871 0.140047
0.732311 0.274388 0.144488
0.741466 0.278447 0.14847
0.750347 0.282353 0.152316
0.757839 0.285588 0.155535
0.765332 0.288777 0.158785
0.77232 0.291905 0.161929
0.779355 0.295094 0.165133
0.786358 0.298192 0.168292
0.79321 0.301503 0.171664
0.800015 0.304768 0.175006
0.806806 0.307973 0.178347
0.811856 0.309117 0.179751
0.816175 0.309819 0.180789
0.817945 0.309789 0.181125
0.819699 0.309712 0.18146
0.821393 0.309667 0.181781
0.00166323 0.054902 0.039765
0.00218204 0.0552834 0.0400549
0.00276188 0.0551461 0.0399481
0.00340276 0.0546883 0.0396735
0.00471504 0.0544442 0.0395666
0.00633249 0.0540475 0.0393683
0.00872816 0.0541085 0.0394903
0.0118868 0.0547189 0.0399939
0.0185092 0.057557 0.0419318
0.0295567 0.0608072 0.0440528
0.0464332 0.0654307 0.0459297
0.0696117 0.0713207 0.0468299
0.0979782 0.0787213 0.0471962
0.127855 0.0862135 0.0470588
0.157168 0.0929274 0.0460822
0.18584 0.099794 0.0450752
0.213123 0.106279 0.043946
0.240131 0.112154 0.0422522
0.265888 0.117662 0.0405432
0.290776 0.123095 0.0390326
0.314809 0.128557 0.0379034
0.336873 0.133974 0.0373388
0.357885 0.139132 0.0371405
0.3785 0.144457 0.0374456
0.398245 0.149645 0.0382696
0.417594 0.154864 0.0395209
0.435981 0.160403 0.0415961
0.453666 0.165957 0.0442817
0.469978 0.171359 0.0476234
0.485557 0.176776 0.0516213
0.500648 0.18204 0.0560006
0.515358 0.18706 0.0605631
0.529732 0.192233 0.065156
0.543709 0.197513 0.0699168
0.558038 0.203876 0.0750744
0.572763 0.210666 0.0804913
0.586862 0.217319 0.0860304
0.600595 0.224094 0.0918593
0.613138 0.230289 0.0974746
0.625467 0.236316 0.103044
0.637278 0.242084 0.10837
0.649058 0.247868 0.11368
0.660624 0.253727 0.118898
0.672023 0.259617 0.124117
0.682383 0.264225 0.128405
0.692638 0.26891 0.132738
0.702693 0.273289 0.136828
0.712734 0.277577 0.140887
0.722774 0.281682 0.144884
0.733059 0.285924 0.14902
0.742153 0.289601 0.152636
0.751019 0.293339 0.156268
0.758358 0.29633 0.159228
0.765728 0.299443 0.162249
0.772641 0.302327 0.165148
0.779583 0.305272 0.168078
0.786511 0.308171 0.170977
0.793286 0.31136 0.174197
0.800015 0.314488 0.177401
0.806745 0.31754 0.180591
0.812085 0.318929 0.182193
0.816571 0.319783 0.183307
0.818418 0.319799 0.183673
0.820264 0.319783 0.18407
0.822019 0.319799 0.184451
0.00486763 0.0812238 0.0565499
0.00547799 0.0816968 0.0568551
0.0061799 0.0814679 0.056672
0.00691234 0.0808118 0.0562142
0.00842298 0.080354 0.0558633
0.0102693 0.0796063 0.055314
0.0130159 0.0794232 0.0551308
0.0162814 0.0796063 0.0551614
0.0241703 0.0830396 0.0569619
0.0363012 0.0860456 0.0581674
0.0546731 0.0889143 0.0583963
0.0797131 0.0918288 0.0569924
0.108812 0.0969711 0.0551766
0.139132 0.103349 0.0538338
0.169436 0.110231 0.0523537
0.19881 0.117189 0.050721
0.226001 0.123339 0.0489967
0.253483 0.129213 0.0466163
0.278614 0.13489 0.0446632
0.302922 0.140688 0.0430915
0.326009 0.14641 0.0420844
0.347677 0.15198 0.0415961
0.368078 0.157061 0.0415656
0.388205 0.162463 0.0424353
0.407034 0.167788 0.0438849
0.425269 0.173266 0.0458381
0.442298 0.178668 0.0484321
0.458747 0.184085 0.0516213
0.474235 0.189456 0.0556191
0.489342 0.194583 0.0597086
0.504051 0.199512 0.0638743
0.518608 0.20441 0.0683146
0.532753 0.209232 0.0727245
0.546746 0.214069 0.0773022
0.560967 0.219959 0.0822461
0.575311 0.226062 0.0873884
0.589212 0.232517 0.0929274
0.602579 0.239002 0.0988632
0.615015 0.244907 0.104356
0.627359 0.250645 0.109789
0.639109 0.256321 0.115038
0.650721 0.261936 0.12018
0.662211 0.26772 0.125368
0.673442 0.273533 0.130571
0.683833 0.27808 0.134829
0.694072 0.282475 0.138964
0.704097 0.28658 0.142885
0.714046 0.290517 0.146685
0.72398 0.29427 0.150408
0.734096 0.298222 0.154314
0.743221 0.301732 0.157778
0.75201 0.305257 0.161196
0.759228 0.30811 0.164004
0.766461 0.311055 0.166873
0.773388 0.313863 0.169635
0.78027 0.316655 0.172381
0.787167 0.319402 0.175097
0.793851 0.322545 0.17821
0.800488 0.325658 0.181369
0.807187 0.328801 0.184543
0.812634 0.330175 0.186114
0.817243 0.331075 0.187213
0.819196 0.331151 0.187579
0.821103 0.331121 0.1879
0.822873 0.331121 0.188205
0.00700389 0.110887 0.0728466
0.00772107 0.111254 0.0730297
0.00852979 0.110887 0.0727855
0.0093843 0.11017 0.0723125
0.0110781 0.108934 0.071519
0.0131685 0.107607 0.0706493
0.0162966 0.10721 0.0702831
0.0200351 0.107134 0.0700999
0.0281987 0.110353 0.0715496
0.0406348 0.114061 0.0727703
0.0599069 0.11635 0.0722972
0.0880751 0.115908 0.0690318
0.118364 0.118425 0.0650492
0.149645 0.122911 0.0618601
0.180438 0.129274 0.0594797
0.21059 0.136385 0.0572518
0.238849 0.142535 0.054902
0.265995 0.148409 0.0522621
0.291157 0.154253 0.0502174
0.31487 0.160296 0.0488441
0.336965 0.166094 0.048188
0.358251 0.171725 0.0480812
0.378164 0.17702 0.0485237
0.397436 0.182498 0.0500801
0.41532 0.18793 0.0522316
0.432181 0.193317 0.0548257
0.448066 0.19855 0.0579232
0.463752 0.203586 0.0611124
0.478889 0.20853 0.0648508
0.493553 0.213245 0.0686198
0.507881 0.217731 0.0725261
0.522042 0.222171 0.0765698
0.536034 0.22678 0.0807507
0.550118 0.231373 0.0852827
0.564126 0.236606 0.0899519
0.577707 0.242176 0.0950637
0.591333 0.24828 0.100587
0.604547 0.254429 0.106432
0.617044 0.260105 0.111818
0.629374 0.265568 0.116991
0.640986 0.271 0.122026
0.652445 0.276478 0.127047
0.663844 0.282139 0.132174
0.675029 0.287892 0.137392
0.68545 0.292348 0.141634
0.695811 0.296635 0.145769
0.70576 0.30045 0.149477
0.715648 0.304219 0.15317
0.725582 0.307851 0.156847
0.735546 0.311528 0.160571
0.744656 0.31487 0.163973
0.753445 0.318257 0.1673
0.760494 0.320867 0.169863
0.76762 0.323613 0.172549
0.774411 0.326314 0.175189
