src/LiveStudio.Agent/BuiltInAssets/ColorCards/v1/cube/003.cube
TITLE "Generated by Resolve"
LUT_3D_SIZE 9
0 0 0
0 0 0
0.124575 0.0336156 0.033463
0.342977 0.0704509 0.0387427
0.527367 0.118379 0.051545
0.644068 0.176242 0.0955825
0.731289 0.222919 0.137987
0.793606 0.255604 0.167956
0.820722 0.263066 0.175448
0 0.00234989 0
0 0.00827039 0.00491341
0.170642 0.0684367 0.0398871
0.366476 0.105058 0.0343328
0.522683 0.149325 0.0489509
0.63473 0.206394 0.093843
0.722438 0.250599 0.134386
0.787564 0.28217 0.165896
0.820539 0.292576 0.177676
0.0122835 0.204089 0.114565
0.036408 0.200122 0.111009
0.26273 0.204211 0.0811627
0.431189 0.247562 0.0851911
0.549172 0.282963 0.11075
0.650446 0.322728 0.150378
0.734157 0.354116 0.181781
0.792599 0.37319 0.201266
0.827634 0.382834 0.211215
0.0713817 0.399252 0.217029
0.0914778 0.392737 0.211658
0.256977 0.403754 0.213657
0.447822 0.388983 0.184176
0.565423 0.41387 0.194034
0.661707 0.442084 0.215656
0.743847 0.468605 0.242054
0.801129 0.483192 0.259541
0.837827 0.490608 0.269444
0.124529 0.538476 0.309346
0.143023 0.534493 0.304906
0.245319 0.539925 0.307988
0.440208 0.544045 0.303227
0.56965 0.530861 0.277119
0.668635 0.546075 0.286885
0.746853 0.563272 0.301808
0.807294 0.575616 0.314366
0.845609 0.582498 0.321752
0.173297 0.642222 0.384207
0.190951 0.639124 0.380545
0.261357 0.639506 0.380072
0.414679 0.646311 0.383749
0.563226 0.643992 0.371588
0.668345 0.635279 0.35024
0.746471 0.643519 0.35819
0.810941 0.65478 0.369451
0.8542 0.662623 0.377005
0.213581 0.733928 0.448722
0.23125 0.731441 0.445228
0.285908 0.729564 0.442222
0.41091 0.732143 0.441535
0.53817 0.740749 0.450874
0.660197 0.735332 0.431327
0.742931 0.72694 0.412039
0.813443 0.731609 0.418738
0.862348 0.73843 0.426795
0.249241 0.819806 0.501305
0.265263 0.81796 0.498909
0.313726 0.816083 0.496284
0.418021 0.818952 0.497871
0.535225 0.828702 0.508675
0.649561 0.837751 0.518959
0.740795 0.83328 0.502968
0.816007 0.820706 0.477089
0.869734 0.821164 0.47866
0.27483 0.881621 0.530678
0.288075 0.880705 0.529152
0.329427 0.879072 0.526909
0.41503 0.88191 0.528817
0.527657 0.89131 0.537743
0.634775 0.901976 0.553048
0.732998 0.910475 0.557488
0.812421 0.906249 0.538521
0.874235 0.897017 0.51313
0 0 0
0 0 0
0.123217 0.0325017 0.0506294
0.344503 0.0694743 0.0677653
0.528954 0.117861 0.0966812
0.643137 0.17464 0.140856
0.729381 0.222202 0.181628
0.791638 0.253941 0.208179
0.819181 0.261158 0.212406
0 0.00477607 0.00852979
0 0.00981155 0.0152438
0.167971 0.0671092 0.0603952
0.36524 0.103563 0.0612497
0.521401 0.147845 0.0863813
0.633158 0.20473 0.132235
0.720775 0.249119 0.17116
0.786175 0.280522 0.199084
0.819471 0.291096 0.208667
0.00779736 0.201099 0.16054
0.031342 0.195758 0.153246
0.25449 0.20235 0.123095
0.427634 0.24448 0.118776
0.545144 0.279393 0.145083
0.646403 0.318776 0.183139
0.730861 0.351095 0.214542
0.790677 0.370611 0.233799
0.826596 0.380911 0.243519
0.0606699 0.392721 0.258625
0.0813764 0.386084 0.251041
0.23917 0.399527 0.252125
0.441184 0.384405 0.219547
0.560464 0.409689 0.228565
0.657023 0.437812 0.248646
0.739879 0.464576 0.273548
0.797986 0.479484 0.290028
0.835767 0.487694 0.300389
0.113268 0.532601 0.346151
0.132174 0.528374 0.340719
0.227832 0.535561 0.343969
0.429877 0.539055 0.337209
0.564004 0.526116 0.310124
0.663798 0.542306 0.320729
0.743587 0.560174 0.336156
0.804669 0.572503 0.347173
0.843153 0.579019 0.352926
0.164813 0.638926 0.421286
0.182528 0.635904 0.417044
0.250202 0.636637 0.415702
0.401953 0.64419 0.420066
0.5579 0.641627 0.407004
0.665141 0.633494 0.386404
0.744167 0.641855 0.394934
0.809308 0.653559 0.406821
0.852934 0.661509 0.413306
0.207797 0.732204 0.486244
0.225162 0.729473 0.482612
0.278264 0.727687 0.478904
0.399252 0.731884 0.480751
0.531975 0.739635 0.487953
0.657145 0.734661 0.469123
0.741238 0.72639 0.449577
0.812634 0.731304 0.457557
0.861799 0.738399 0.465278
0.245106 0.81886 0.538094
0.261006 0.817136 0.535882
0.308049 0.815167 0.533074
0.408911 0.819089 0.536126
0.529061 0.827771 0.545266
0.646128 0.836667 0.555261
0.738888 0.832822 0.540002
0.814817 0.820218 0.513954
0.869001 0.821027 0.516472
0.270634 0.881239 0.567971
0.283848 0.880293 0.56643
0.324605 0.878599 0.563699
0.407782 0.881987 0.566278
0.522103 0.890669 0.574197
0.630808 0.901183 0.588922
0.730632 0.90988 0.593271
0.811017 0.906233 0.575418
0.873442 0.897047 0.549691
0 0.00163272 0.0317235
0.00703441 0.0207065 0.0871901
0.128878 0.0686656 0.207187
0.370352 0.108049 0.255039
0.533471 0.149081 0.281483
0.64947 0.189639 0.296696
0.735302 0.221103 0.305623
0.794949 0.247471 0.315969
0.820752 0.254627 0.315496
0.00198367 0.0563821 0.148745
0.0175174 0.0616159 0.164004
0.13608 0.0983139 0.22237
0.372351 0.132174 0.23444
0.526589 0.169253 0.252216
0.640085 0.210971 0.267536
0.724498 0.246494 0.281926
0.786694 0.275151 0.297414
0.818463 0.286046 0.301885
0 0.215717 0.320272
0.0180362 0.209354 0.310811
0.17261 0.242451 0.318257
0.412253 0.257755 0.272755
0.542489 0.283238 0.28014
0.644923 0.317403 0.297978
0.727871 0.350439 0.315633
0.787747 0.372412 0.327886
0.822477 0.383078 0.333013
0.0302892 0.396735 0.39704
0.0512551 0.389639 0.386114
0.168032 0.405249 0.381231
0.41825 0.397345 0.348394
0.548241 0.418082 0.348638
0.650614 0.443626 0.359731
0.736492 0.46981 0.375586
0.796216 0.483986 0.381231
0.832807 0.490486 0.381933
0.0924086 0.531762 0.451438
0.112367 0.527184 0.443122
0.19379 0.532097 0.438758
0.39556 0.539864 0.429114
0.552728 0.530587 0.405905
0.655818 0.545388 0.413367
0.740047 0.562814 0.425422
0.803662 0.575265 0.433082
0.842985 0.581888 0.435279
0.149126 0.637385 0.508125
0.167514 0.634455 0.5019
0.231113 0.633494 0.49398
0.358526 0.645411 0.502022
0.544762 0.641032 0.479774
0.657877 0.634867 0.462089
0.739864 0.643259 0.469932
0.807675 0.655665 0.480537
0.852857 0.663478 0.484779
0.196292 0.730053 0.557809
0.213382 0.727321 0.552865
0.265278 0.724819 0.545373
0.365377 0.733303 0.552651
0.513756 0.738247 0.552285
0.649622 0.734478 0.533516
0.737331 0.726757 0.515618
0.811231 0.732677 0.524056
0.860914 0.740017 0.529427
0.237644 0.817716 0.603067
0.253223 0.815946 0.59939
0.298314 0.81355 0.593729
0.387594 0.820081 0.599832
0.513726 0.826841 0.604059
0.637201 0.835004 0.610559
0.734585 0.832959 0.596155
0.812634 0.82034 0.568246
0.867796 0.821729 0.572183
0.264088 0.880369 0.624918
0.277272 0.879423 0.622568
0.316213 0.877913 0.618708
0.392401 0.882887 0.622583
0.508934 0.890639 0.627497
0.622003 0.900298 0.639841
0.725612 0.909239 0.644068
0.807858 0.907088 0.628428
0.872465 0.898177 0.601846
0.0052491 0.0734264 0.274586
0.0254215 0.0957351 0.35259
0.10956 0.141009 0.462104
0.299611 0.179904 0.475212
0.496406 0.202914 0.467491
0.619638 0.244495 0.495018
0.714412 0.272618 0.511955
0.783993 0.292988 0.523659
0.815244 0.296788 0.522164
0 0.132753 0.390188
0.0175479 0.13901 0.412299
0.102754 0.170214 0.464073
0.289494 0.202197 0.457343
0.483726 0.225605 0.450156
0.610178 0.264561 0.474006
0.706966 0.292058 0.489738
0.779965 0.310277 0.498665
0.817212 0.316701 0.499977
0 0.267185 0.516289
0.0150607 0.260258 0.50721
0.117662 0.282506 0.526055
0.295857 0.311589 0.503166
0.500328 0.321828 0.479164
0.622843 0.346349 0.488243
0.719356 0.366903 0.494133
0.786694 0.379721 0.497612
0.825223 0.385733 0.49723
0.0270542 0.400839 0.565469
0.0459602 0.393332 0.555657
0.139544 0.409323 0.567041
0.311833 0.440467 0.56907
0.52343 0.437446 0.525567
0.639765 0.452262 0.521324
0.732311 0.473045 0.529442
0.795804 0.485328 0.534157
0.834028 0.491341 0.534936
0.0661173 0.539254 0.621378
0.084947 0.534936 0.613367
0.162402 0.537423 0.605356
0.302785 0.55491 0.599649
0.526314 0.549111 0.565637
0.641978 0.559716 0.568215
0.73228 0.575113 0.573831
0.800824 0.585534 0.577508
0.843473 0.591302 0.577722
0.11783 0.640726 0.654627
0.137469 0.63769 0.647166
0.202152 0.636057 0.631632
0.319814 0.647593 0.629374
0.512627 0.647044 0.604715
0.644541 0.643229 0.590936
0.732296 0.651713 0.599008
0.804791 0.663935 0.605127
0.852338 0.670848 0.606699
0.172 0.731411 0.680476
0.190494 0.728634 0.674083
0.244831 0.72546 0.659968
0.342489 0.732921 0.659373
0.471122 0.742763 0.663844
0.635172 0.736049 0.633234
0.730571 0.731304 0.622782
0.807385 0.738582 0.633082
0.85951 0.745724 0.636835
0.222232 0.819959 0.712016
0.23978 0.817899 0.706767
0.285908 0.814801 0.697215
0.369421 0.820783 0.699428
0.475517 0.832242 0.711482
0.617395 0.834546 0.704952
0.72607 0.833967 0.689647
0.808408 0.823163 0.665293
0.866911 0.826856 0.674739
0.253758 0.881758 0.722042
0.267659 0.880613 0.718837
0.306645 0.878737 0.71252
0.379171 0.88336 0.714763
0.476402 0.895735 0.728908
0.602167 0.900725 0.730983
0.715129 0.909712 0.730205
0.802609 0.91014 0.717418
0.871473 0.902495 0.690211
0.00852979 0.156878 0.558541
0.0385901 0.170321 0.600168
0.116457 0.20621 0.669902
0.23975 0.243442 0.686946
0.412253 0.272648 0.663645
0.598398 0.280598 0.64007
0.696498 0.305623 0.654078
0.766857 0.32604 0.67216
0.801678 0.330983 0.674449
0.00605783 0.208179 0.615442
0.0326848 0.211154 0.62681
0.106706 0.236622 0.662715
0.226963 0.268177 0.671519
0.396872 0.293507 0.64593
0.586221 0.301122 0.622873
0.686732 0.325948 0.636469
0.75964 0.346731 0.655222
0.802029 0.355016 0.662394
0.0243687 0.327214 0.689693
0.0450141 0.321233 0.683238
0.12369 0.333852 0.696925
0.242542 0.358007 0.701778
0.40238 0.379385 0.671214
0.588266 0.382849 0.6448
0.6907 0.402914 0.655024
0.764477 0.417105 0.666621
0.810407 0.423911 0.671962
0.04477 0.43856 0.727794
0.0630655 0.432288 0.719402
0.140673 0.441444 0.728481
0.264286 0.464942 0.748531
0.419837 0.481224 0.72134
0.599329 0.484581 0.693614
0.707454 0.498375 0.696941
0.782956 0.506737 0.699535
0.827649 0.510018 0.69955
0.0766918 0.536828 0.760678
0.0952468 0.532647 0.75314
0.163714 0.535943 0.753536
0.279866 0.55671 0.774166
0.430564 0.576638 0.771832
0.612421 0.575128 0.734539
0.717601 0.58349 0.73106
0.794064 0.590829 0.730175
0.841398 0.595514 0.730175
0.108644 0.640116 0.813626
0.128206 0.636988 0.806455
0.183841 0.63563 0.796902
0.293507 0.649042 0.801831
0.42356 0.665095 0.796826
0.615091 0.659968 0.758007
0.717784 0.664668 0.76022
0.79765 0.674647 0.763577
0.849119 0.681941 0.767224
0.148241 0.733974 0.843992
0.167086 0.730877 0.837873
0.217136 0.727871 0.82652
0.315541 0.736294 0.819562
0.431022 0.749111 0.813916
0.60177 0.744183 0.779995
0.718212 0.742611 0.772107
0.800931 0.749706 0.783841
0.857435 0.756893 0.786511
0.199298 0.82417 0.863935
0.217975 0.821805 0.858717
0.263874 0.819455 0.84828
0.350484 0.825116 0.840055
0.452949 0.836789 0.843915
0.578439 0.841031 0.842924
0.712825 0.839384 0.814435
0.803159 0.832166 0.798611
0.86656 0.838514 0.813581
0.22977 0.88632 0.86154
0.246433 0.885054 0.857298
0.287144 0.883421 0.848051
0.363821 0.887709 0.842206
0.459983 0.901961 0.850736
0.569726 0.909041 0.859297
0.699199 0.913146 0.846403
0.79556 0.916991 0.834791
0.872068 0.912932 0.814298
0.0319524 0.223148 0.754818
0.0700389 0.235615 0.780682
0.143572 0.265339 0.827253
0.24921 0.295308 0.843076
0.368185 0.323079 0.838041
0.551553 0.335546 0.80032
0.676951 0.337896 0.788342
0.75407 0.348394 0.793988
0.797406 0.354696 0.799298
0.0396582 0.273869 0.783902
0.0678569 0.275227 0.789517
0.134325 0.296788 0.823392
0.235889 0.321401 0.833722
0.350942 0.346349 0.828397
0.524193 0.359991 0.795346
0.66598 0.359976 0.775387
0.745296 0.369253 0.780011
0.796658 0.377279 0.787747
0.0583658 0.380896 0.852064
0.0798047 0.37583 0.846983
0.148592 0.385367 0.860975
0.252125 0.400305 0.860471
0.363958 0.419699 0.852201
0.51429 0.432685 0.820508
0.666545 0.429633 0.794476
0.748272 0.43592 0.794217
0.802106 0.443687 0.801877
0.0771191 0.480507 0.895415
0.0951095 0.475929 0.889158
0.159884 0.477775 0.890761
0.272923 0.49308 0.907469
0.386206 0.507515 0.900298
0.523934 0.520378 0.867704
0.676387 0.517189 0.838666
0.760555 0.52311 0.839857
0.813672 0.528679 0.847318
0.0990921 0.562036 0.918944
0.116274 0.558373 0.913359
0.177676 0.559853 0.912902
0.28397 0.574273 0.92845
0.403433 0.588632 0.935088
0.531075 0.601114 0.915831
0.681483 0.600366 0.889693
0.772869 0.608301 0.892882
0.828855 0.613611 0.897002
0.128801 0.640879 0.940063
0.145434 0.638071 0.93547
0.199207 0.636301 0.929747
0.302983 0.648981 0.941604
0.422202 0.663691 0.951202
0.543328 0.678248 0.948363
0.685832 0.678492 0.928664
0.783291 0.685069 0.92929
0.843687 0.689845 0.927626
0.169039 0.723766 0.960052
0.185657 0.721386 0.956359
0.230152 0.71957 0.950896
0.324376 0.728511 0.955596
0.434119 0.742519 0.962127
0.543893 0.758083 0.963378
0.693126 0.756909 0.944793
0.789395 0.760967 0.945769
0.853849 0.767285 0.943084
0.224918 0.817533 0.983017
0.242145 0.815488 0.979721
0.283192 0.813947 0.975052
0.361578 0.819303 0.974289
0.459113 0.832609 0.976257
0.563287 0.844938 0.972549
0.690761 0.845243 0.962051
0.794369 0.843076 0.951339
0.863661 0.85034 0.959152
0.246723 0.879469 0.983185
0.262211 0.878569 0.98056
0.29929 0.877852 0.975326
0.370977 0.883757 0.971054
0.465827 0.900191 0.9729
0.572305 0.911543 0.971283
0.684596 0.918227 0.972229
0.787243 0.927153 0.966705
0.874907 0.928023 0.949676
0.0644083 0.277501 0.904326
0.100572 0.28751 0.926375
0.168658 0.308782 0.962753
0.261982 0.32987 0.97438
0.373205 0.351614 0.970871
0.510475 0.36939 0.953811
0.65185 0.37084 0.922988
0.740795 0.374655 0.915938
0.792615 0.377523 0.914839
0.0688945 0.32105 0.924086
0.0961318 0.321447 0.927855
0.159136 0.338033 0.955627
0.249241 0.356588 0.966598
0.358846 0.376013 0.962646
0.491417 0.391836 0.943603
0.641505 0.393805 0.90631
0.730694 0.396735 0.900557
0.791379 0.400366 0.90074
0.0878767 0.416999 0.979751
0.108507 0.413153 0.975647
0.171725 0.418631 0.985443
0.264683 0.430167 0.986068
0.371267 0.445777 0.981262
0.483146 0.461509 0.968231
0.632639 0.46273 0.930404
0.729915 0.460883 0.916136
0.79559 0.46305 0.914244
0.109331 0.50518 1
0.125795 0.501228 1
0.193118 0.502556 1
0.296376 0.513024 1
0.401968 0.526009 1
0.500237 0.540993 1
0.629343 0.547402 0.979492
0.740627 0.543206 0.962036
0.806073 0.546334 0.96202
0.128893 0.579919 1
0.148775 0.577356 1
0.207935 0.577142 1
0.322728 0.588464 1
0.433173 0.59826 1
0.527123 0.609766 1
0.636179 0.620432 1
0.751125 0.621073 1
0.817044 0.6271 1
0.170489 0.651667 1
0.190677 0.648768 1
0.242832 0.647608 1
0.344793 0.656031 1
0.454582 0.66714 1
0.554055 0.678584 1
0.654169 0.689708 1
0.765972 0.695293 1
0.833509 0.704387 1
0.203738 0.719875 1
0.225025 0.71722 1
0.272496 0.71577 1
0.368063 0.723339 1
0.470954 0.734707 1
0.573846 0.74873 1
0.676936 0.762371 1
0.780621 0.768673 1
0.850675 0.775952 1
0.244358 0.80528 1
0.267414 0.802731 1
0.310903 0.801694 1
0.391135 0.806806 1
0.493507 0.817929 1
0.59295 0.831327 1
0.694011 0.845472 1
0.797131 0.850324 1
0.870954 0.859998 1
0.246998 0.877073 1
0.268574 0.875792 1
0.307378 0.875731 1
0.380987 0.881941 1
0.484398 0.895354 1
0.590661 0.90898 1
0.693538 0.921477 1
0.794583 0.9308 1
0.886671 0.943236 1
0.0931868 0.311894 1
0.129885 0.319249 1
0.202014 0.334417 1
0.28867 0.350439 1
0.391424 0.370047 1
0.514687 0.381918 1
0.612329 0.396414 1
0.711284 0.398199 1
0.779248 0.397696 1
0.097734 0.350195 1
0.124178 0.350301 1
0.189853 0.362356 1
0.271595 0.375921 1
0.375204 0.393988 1
0.494453 0.405905 1
0.598199 0.419028 1
0.702525 0.419089 1
0.780606 0.41883 1
0.1243 0.434607 1
0.143633 0.431067 1
0.20705 0.437766 1
0.293111 0.446097 1
0.392432 0.460395 1
0.493675 0.47216 1
0.599054 0.481773 1
0.697887 0.481605 1
0.782956 0.479591 1
0.148699 0.523659 1
0.165194 0.520226 1
0.223392 0.518624 1
0.321813 0.527291 1
0.423255 0.537453 1
0.51577 0.548806 1
0.617212 0.555566 1
0.707362 0.559853 1
0.791913 0.559014 1
0.167742 0.597223 1
0.18677 0.594354 1
0.24448 0.593835 1
0.337819 0.600488 1
0.445411 0.608728 1
0.536934 0.616175 1
0.633066 0.624689 1
0.728405 0.632227 1
0.807065 0.634577 1
0.188586 0.664393 1
0.210529 0.661784 1
0.260319 0.659586 1
0.359365 0.668269 1
0.462852 0.677333 1
0.559655 0.685267 1
0.650111 0.694118 1
0.750591 0.702647 1
0.826688 0.708125 1
0.224063 0.731731 1
0.246067 0.72903 1
0.292149 0.727245 1
0.380438 0.733303 1
0.479484 0.743664 1
0.577417 0.75491 1
0.673411 0.765347 1
0.76875 0.773632 1
0.847089 0.782116 1
0.258335 0.80676 1
0.28304 0.804303 1
0.327703 0.803189 1
0.407324 0.806455 1
0.504295 0.8159 1
0.601892 0.828946 1
0.698497 0.844404 1
0.794598 0.857816 1
0.876707 0.869169 1
0.258946 0.871046 1
0.284596 0.869139 1
0.325826 0.868574 1
0.39939 0.872541 1
0.496284 0.886717 1
0.597223 0.904112 1
0.696513 0.922896 1
0.799786 0.943084 1
0.901686 0.963241 1
0.133669 0.33579 1
0.167727 0.341131 1
0.234058 0.35404 1
0.306523 0.366049 1
0.406546 0.383352 1
0.528771 0.391348 1
0.622797 0.400351 1
0.694133 0.409689 1
0.754406 0.4121 1
0.136904 0.370764 1
0.162173 0.370779 1
0.225818 0.382773 1
0.298558 0.394385 1
0.394278 0.40914 1
0.512703 0.416846 1
0.611017 0.424842 1
0.683742 0.433249 1
0.753704 0.43624 1
0.15555 0.453376 1
0.174456 0.450141 1
0.235569 0.456321 1
0.311894 0.462196 1
0.408255 0.474845 1
0.508324 0.484062 1
0.611292 0.486046 1
0.683604 0.491234 1
0.754757 0.493904 1
0.173907 0.536416 1
0.190799 0.533928 1
0.250095 0.533242 1
0.328771 0.538598 1
0.427359 0.549157 1
0.517906 0.558404 1
0.619959 0.560433 1
0.697597 0.565621 1
0.769894 0.569162 1
0.187167 0.606409 1
0.207492 0.604822 1
0.261677 0.604715 1
0.348821 0.609918 1
0.445228 0.618173 1
0.534615 0.625772 1
0.627726 0.630243 1
0.715892 0.636774 1
0.786572 0.641688 1
0.209583 0.675486 1
0.231846 0.673335 1
0.278126 0.670939 1
0.360601 0.676081 1
0.457771 0.684215 1
0.552773 0.691829 1
0.642161 0.699596 1
0.737881 0.707866 1
0.807706 0.712947 1
0.227604 0.737057 1
0.251133 0.735363 1
0.293462 0.73402 1
0.372641 0.738933 1
0.470298 0.749599 1
0.56556 0.758511 1
0.660273 0.766751 1
0.753185 0.776226 1
0.830137 0.78378 1
0.251865 0.809216 1
0.276814 0.807767 1
0.319356 0.806897 1
0.394293 0.810224 1
0.487877 0.819989 1
0.582422 0.831983 1
0.680827 0.844709 1
0.779187 0.859388 1
0.866575 0.86949 1
0.257771 0.86598 1
0.281941 0.864271 1
0.318959 0.863249 1
0.38558 0.86627 1
0.47863 0.878218 1
0.575769 0.893721 1
0.678859 0.912825 1
0.783276 0.943999 1
0.903944 0.981262 1
