src/LiveStudio.Agent/BuiltInAssets/ColorCards/v1/cube/003.cube
TITLE "Generated by Resolve"
LUT_3D_SIZE 5
0 0 0
0.124575 0.0336156 0.033463
0.527367 0.118379 0.051545
0.731289 0.222919 0.137987
0.820722 0.263066 0.175448
0.0122835 0.204089 0.114565
0.26273 0.204211 0.0811627
0.549172 0.282963 0.11075
0.734157 0.354116 0.181781
0.827634 0.382834 0.211215
0.124529 0.538476 0.309346
0.245319 0.539925 0.307988
0.56965 0.530861 0.277119
0.746853 0.563272 0.301808
0.845609 0.582498 0.321752
0.213581 0.733928 0.448722
0.285908 0.729564 0.442222
0.53817 0.740749 0.450874
0.742931 0.72694 0.412039
0.862348 0.73843 0.426795
0.27483 0.881621 0.530678
0.329427 0.879072 0.526909
0.527657 0.89131 0.537743
0.732998 0.910475 0.557488
0.874235 0.897017 0.51313
0 0.00163272 0.0317235
0.128878 0.0686656 0.207187
0.533471 0.149081 0.281483
0.735302 0.221103 0.305623
0.820752 0.254627 0.315496
0 0.215717 0.320272
0.17261 0.242451 0.318257
0.542489 0.283238 0.28014
0.727871 0.350439 0.315633
0.822477 0.383078 0.333013
0.0924086 0.531762 0.451438
0.19379 0.532097 0.438758
0.552728 0.530587 0.405905
0.740047 0.562814 0.425422
0.842985 0.581888 0.435279
0.196292 0.730053 0.557809
0.265278 0.724819 0.545373
0.513756 0.738247 0.552285
0.737331 0.726757 0.515618
0.860914 0.740017 0.529427
0.264088 0.880369 0.624918
0.316213 0.877913 0.618708
0.508934 0.890639 0.627497
0.725612 0.909239 0.644068
0.872465 0.898177 0.601846
0.00852979 0.156878 0.558541
0.116457 0.20621 0.669902
0.412253 0.272648 0.663645
0.696498 0.305623 0.654078
0.801678 0.330983 0.674449
0.0243687 0.327214 0.689693
0.12369 0.333852 0.696925
0.40238 0.379385 0.671214
0.6907 0.402914 0.655024
0.810407 0.423911 0.671962
0.0766918 0.536828 0.760678
0.163714 0.535943 0.753536
0.430564 0.576638 0.771832
0.717601 0.58349 0.73106
0.841398 0.595514 0.730175
0.148241 0.733974 0.843992
0.217136 0.727871 0.82652
0.431022 0.749111 0.813916
0.718212 0.742611 0.772107
0.857435 0.756893 0.786511
0.22977 0.88632 0.86154
0.287144 0.883421 0.848051
0.459983 0.901961 0.850736
0.699199 0.913146 0.846403
0.872068 0.912932 0.814298
0.0644083 0.277501 0.904326
0.168658 0.308782 0.962753
0.373205 0.351614 0.970871
0.65185 0.37084 0.922988
0.792615 0.377523 0.914839
0.0878767 0.416999 0.979751
0.171725 0.418631 0.985443
0.371267 0.445777 0.981262
0.632639 0.46273 0.930404
0.79559 0.46305 0.914244
0.128893 0.579919 1
0.207935 0.577142 1
0.433173 0.59826 1
0.636179 0.620432 1
0.817044 0.6271 1
0.203738 0.719875 1
0.272496 0.71577 1
0.470954 0.734707 1
0.676936 0.762371 1
0.850675 0.775952 1
0.246998 0.877073 1
0.307378 0.875731 1
0.484398 0.895354 1
0.693538 0.921477 1
0.886671 0.943236 1
0.133669 0.33579 1
0.234058 0.35404 1
0.406546 0.383352 1
0.622797 0.400351 1
0.754406 0.4121 1
0.15555 0.453376 1
0.235569 0.456321 1
0.408255 0.474845 1
0.611292 0.486046 1
0.754757 0.493904 1
0.187167 0.606409 1
0.261677 0.604715 1
0.445228 0.618173 1
0.627726 0.630243 1
0.786572 0.641688 1
0.227604 0.737057 1
0.293462 0.73402 1
0.470298 0.749599 1
0.660273 0.766751 1
0.830137 0.78378 1
0.257771 0.86598 1
0.318959 0.863249 1
0.47863 0.878218 1
0.678859 0.912825 1
0.903944 0.981262 1
