src/LiveStudio.Agent/BuiltInAssets/ColorCards/v1/cube/004.cube
TITLE "Generated by Resolve"
LUT_3D_SIZE 9
9.15541e-05 9.15541e-05 0.000183108
0.196826 0.0337682 0
0.414267 0.0567941 0
0.590845 0.0757458 0
0.749737 0.105837 0
0.878706 0.126177 0
0.970016 0.139635 0
1 0.144152 0
1 0.14966 0
0 0.124453 0.00587472
0.13138 0.115038 0.000228885
0.359411 0.129809 0
0.551278 0.130617 0
0.719615 0.144472 0
0.859419 0.15903 0
0.960281 0.168231 0
1 0.170291 0
1 0.172961 0
0 0.294667 0.0230106
0.0892805 0.285786 0.0191196
0.302983 0.276234 0.0117647
0.487495 0.275929 0
0.663752 0.268864 0
0.821363 0.271763 0
0.93695 0.266499 0
0.996704 0.25919 0
1 0.255375 0
0 0.447166 0.0367132
0.0676127 0.437812 0.0317235
0.248951 0.433402 0.0318608
0.448157 0.42121 0.0240024
0.609583 0.41416 0.016144
0.765057 0.412512 0
0.904906 0.4056 0
0.989212 0.3935 0
1 0.385824 0
0 0.574762 0.0473335
0.0528572 0.56762 0.0429847
0.213993 0.561502 0.0416114
0.405859 0.554681 0.0396429
0.575174 0.54548 0.0343023
0.726009 0.538994 0.0333104
0.867216 0.536782 0.00698863
0.974197 0.528756 0
1 0.520073 0
0 0.693996 0.0590982
0.0442664 0.687358 0.0550546
0.18587 0.678782 0.0500801
0.358755 0.676783 0.0558175
0.54139 0.666377 0.0480201
0.695689 0.659083 0.0449531
0.835569 0.65301 0.0439918
0.951278 0.646281 0.0223545
1 0.640177 0.00123598
0 0.814679 0.069749
0.0383307 0.808286 0.0660868
0.161501 0.798291 0.0595712
0.331258 0.79472 0.0625772
0.491829 0.792691 0.0675822
0.664256 0.779919 0.0565194
0.805646 0.772961 0.0542306
0.932815 0.766186 0.0515602
1 0.7579 0.045716
0 0.918105 0.0670634
0.0267948 0.914763 0.0649577
0.134844 0.909361 0.0609903
0.29984 0.907332 0.0623484
0.462242 0.910842 0.0717327
0.624643 0.905516 0.0717021
0.776501 0.897948 0.0649577
0.913146 0.891417 0.0636606
0.997162 0.88333 0.0588235
0 0.985107 0.0573129
0.0183261 0.982971 0.0553292
0.10988 0.978988 0.0513161
0.268376 0.97731 0.0501869
0.434607 0.983658 0.0593271
0.594018 0.983337 0.0665599
0.751369 0.979629 0.0564126
0.889601 0.979187 0.0570077
0.985656 0.977417 0.0554208
0 0.00015259 0.125261
0.14789 0.00479133 0.128435
0.379416 0.0284276 0.101915
0.572351 0.0314794 0.0953689
0.736004 0.0796826 0.102617
0.869535 0.117449 0.100649
0.964874 0.139147 0.0973831
1 0.144854 0.0973831
1 0.150454 0.101335
0 0.123461 0.12166
0.118349 0.115633 0.112902
0.355825 0.136141 0.0788281
0.54052 0.143618 0.0824598
0.706859 0.158801 0.0850843
0.847471 0.172946 0.0754559
0.950668 0.181445 0.0656291
0.996094 0.183932 0.062562
1 0.187091 0.0649729
0 0.293034 0.115724
0.0865797 0.283513 0.108095
0.299275 0.273564 0.0958267
0.49366 0.273213 0.0661326
0.671138 0.268116 0.0633402
0.822477 0.272969 0.0552682
0.934615 0.26949 0.0432441
0.994003 0.263508 0.0361944
1 0.260548 0.0356756
0 0.445029 0.114885
0.0650492 0.435645 0.107622
0.245457 0.431373 0.105287
0.445304 0.419059 0.0955825
0.610193 0.4121 0.0794842
0.772885 0.409659 0.0566567
0.910277 0.402441 0.0403601
0.989456 0.391272 0.0290837
1 0.384695 0.0271
0 0.573251 0.116701
0.050782 0.56611 0.111269
0.211048 0.559853 0.108614
0.402808 0.553033 0.105898
0.572854 0.543938 0.0997787
0.725536 0.537194 0.0959793
0.870634 0.534661 0.0614939
0.978912 0.525612 0.0360418
1 0.51667 0.0273594
0 0.692561 0.123552
0.0427405 0.686 0.118944
0.183215 0.677256 0.113298
0.356191 0.675364 0.118257
0.538918 0.665049 0.110109
0.693721 0.657771 0.106218
0.834684 0.65153 0.102907
0.952361 0.644755 0.0740215
1 0.637705 0.0487984
0 0.813321 0.130678
0.0370031 0.806928 0.126543
0.159182 0.796994 0.119387
0.328756 0.793484 0.121599
0.489601 0.791379 0.125902
0.662257 0.77879 0.114351
0.803754 0.771832 0.111284
0.932067 0.764874 0.106554
1 0.756344 0.0970016
0 0.917388 0.124804
0.025803 0.914031 0.122148
0.132937 0.908675 0.117556
0.297597 0.906355 0.11812
0.460197 0.90988 0.126711
0.622705 0.904616 0.126268
0.774853 0.896773 0.118654
0.911788 0.89041 0.116594
0.996704 0.8822 0.109957
0 0.984695 0.111727
0.0176852 0.982589 0.109041
0.108125 0.978668 0.104524
0.266163 0.976944 0.102571
0.432593 0.983124 0.111009
0.591959 0.983001 0.117845
0.749584 0.979385 0.106889
0.887938 0.978866 0.106737
0.985168 0.97702 0.104494
0 0.00540169 0.274372
0.11577 0.0117342 0.305104
0.336492 0.0150607 0.290929
0.525032 0.0294194 0.283391
0.699229 0.0414282 0.291676
0.849882 0.0551308 0.285985
0.959762 0.0598764 0.274708
1 0.0598917 0.271504
1 0.0615091 0.27747
0 0.124605 0.286961
0.101045 0.118929 0.283619
0.311604 0.114992 0.268406
0.51165 0.116823 0.257633
0.692332 0.111162 0.258854
0.843839 0.112001 0.240131
0.95491 0.110475 0.219226
1 0.117189 0.218784
1 0.115053 0.223972
0 0.291615 0.276143
0.0829786 0.281483 0.267033
0.280278 0.276081 0.260243
0.486198 0.279728 0.234073
0.652384 0.28986 0.232975
0.804562 0.299016 0.226459
0.92047 0.295872 0.21622
0.983734 0.289204 0.209094
1 0.28217 0.20853
0 0.443595 0.261891
0.0648203 0.434226 0.252689
0.238071 0.430686 0.249058
0.441779 0.417517 0.234012
0.614481 0.410803 0.20795
0.777569 0.411292 0.194003
0.909773 0.406882 0.183337
0.984756 0.398199 0.175143
1 0.393668 0.178164
0 0.57174 0.248676
0.0506447 0.564569 0.241123
0.208652 0.557626 0.234455
0.397986 0.551324 0.228702
0.569924 0.541527 0.217823
0.725902 0.534157 0.204822
0.876112 0.531853 0.172854
0.982422 0.522805 0.152148
1 0.514839 0.14873
0 0.689982 0.239994
0.0415351 0.683528 0.233417
0.178851 0.674525 0.224277
0.35198 0.672404 0.225925
0.534813 0.662425 0.21532
0.690257 0.655024 0.208682
0.832975 0.648539 0.200748
0.953704 0.641947 0.168826
1 0.634073 0.146365
0 0.810361 0.235981
0.0350805 0.804135 0.230274
0.155077 0.794339 0.220493
0.324498 0.790433 0.219928
0.485466 0.788556 0.221881
0.658457 0.776013 0.207904
0.80029 0.769162 0.202594
0.930465 0.762112 0.194949
1 0.752758 0.182162
0 0.916075 0.2215
0.0243534 0.912703 0.217411
0.129335 0.906859 0.210346
0.293446 0.904234 0.20853
0.456397 0.907591 0.215625
0.618692 0.902251 0.214359
0.771801 0.894057 0.20502
0.909026 0.887495 0.202228
0.995544 0.879072 0.194949
0 0.983536 0.201282
0.0169528 0.981414 0.197818
0.104585 0.977417 0.192157
0.261677 0.975479 0.189029
0.428717 0.981659 0.196582
0.58793 0.981811 0.203815
0.746181 0.978058 0.19263
0.884733 0.977432 0.19234
0.984115 0.976257 0.190173
0 0.0115816 0.427115
0.111406 0.0176242 0.455985
0.283925 0.0265202 0.473503
0.497749 0.020798 0.457038
0.663706 0.0206455 0.454643
0.810742 0.0496834 0.457237
0.928069 0.0603189 0.460853
0.99971 0.0632792 0.467018
1 0.0651865 0.481559
0 0.124895 0.443427
0.0914321 0.119753 0.447593
0.267948 0.124392 0.451057
0.474586 0.110643 0.434333
0.644816 0.10071 0.433722
0.803494 0.117556 0.436439
0.926757 0.114656 0.437293
1 0.110979 0.439139
1 0.108293 0.449943
0 0.290211 0.446372
0.0760052 0.279835 0.437568
0.255222 0.280858 0.436149
0.453422 0.268894 0.422797
0.632425 0.256992 0.422568
0.799756 0.256275 0.413626
0.926131 0.239506 0.399329
1 0.222583 0.389746
1 0.213428 0.395224
0 0.442359 0.430533
0.0615549 0.433036 0.42153
0.232074 0.429023 0.417227
0.421881 0.421454 0.409125
0.604135 0.415229 0.392081
0.760021 0.421988 0.384024
0.892073 0.42565 0.371756
0.971603 0.421195 0.359991
1 0.414511 0.358816
0 0.569924 0.410895
0.0507057 0.563027 0.403189
0.205859 0.555673 0.395148
0.380224 0.553735 0.394156
0.56437 0.541131 0.377905
0.728557 0.534524 0.354284
0.877485 0.53521 0.33492
0.974166 0.532708 0.321843
1 0.527779 0.324117
0 0.688655 0.392416
0.0447242 0.682246 0.385504
0.17908 0.672984 0.374823
0.351232 0.670817 0.374578
0.529274 0.662196 0.364019
0.687221 0.653773 0.353445
0.833906 0.646052 0.339773
0.95642 0.641276 0.305348
1 0.634226 0.292576
0 0.80885 0.37847
0.0381018 0.802625 0.372198
0.156069 0.792599 0.360983
0.323171 0.788357 0.358358
0.482185 0.786694 0.359243
0.654917 0.77406 0.343511
0.797177 0.766964 0.336065
0.929915 0.759365 0.324666
1 0.748913 0.306386
0 0.916274 0.358053
0.0262913 0.91281 0.353399
0.129335 0.906249 0.34493
0.290608 0.902937 0.341253
0.453147 0.905776 0.346227
0.614298 0.89987 0.343938
0.768368 0.890898 0.331228
0.905928 0.884047 0.325887
0.994614 0.875776 0.314672
0 0.983413 0.333562
0.016556 0.981201 0.329
0.103349 0.97705 0.321096
0.257725 0.974304 0.315129
0.424765 0.98024 0.320165
0.583291 0.980789 0.325185
0.742168 0.976974 0.310979
0.880995 0.976242 0.307866
0.984039 0.976654 0.305119
0 0.0183871 0.573968
0.109545 0.0220645 0.59852
0.269001 0.0319829 0.634836
0.445396 0.0469062 0.636957
0.639002 0.0320745 0.62269
0.788067 0.0317693 0.617533
0.902632 0.0273899 0.622324
0.991272 0.0393683 0.630854
1 0.0421454 0.647654
0 0.126833 0.5906
0.0878767 0.121096 0.594247
0.248768 0.126177 0.617746
0.422339 0.133013 0.617517
0.616403 0.112139 0.597559
0.772396 0.105165 0.593179
0.896315 0.0919051 0.601892
0.991974 0.103288 0.610971
1 0.0994583 0.629801
0 0.288075 0.608438
0.0683299 0.277974 0.600977
0.242847 0.278035 0.603021
0.412863 0.281758 0.602914
0.598337 0.26363 0.584451
0.757336 0.251347 0.582177
0.895109 0.240009 0.587381
0.992569 0.228656 0.58883
1 0.216571 0.600443
0 0.440192 0.597116
0.0547951 0.431327 0.588327
0.223102 0.425971 0.582971
0.394308 0.427024 0.583505
0.574456 0.413825 0.568734
0.744808 0.39736 0.572595
0.894636 0.388891 0.567269
0.992935 0.375174 0.557351
1 0.364904 0.561944
0 0.567666 0.575692
0.0478981 0.560861 0.568307
0.199145 0.553262 0.559594
0.371984 0.551644 0.558846
0.545022 0.543999 0.549813
0.723125 0.535241 0.532784
0.869108 0.535866 0.522469
0.97203 0.531838 0.511559
1 0.522896 0.509957
0 0.686793 0.554147
0.0445106 0.680598 0.547601
0.17496 0.671427 0.53698
0.347356 0.668956 0.535744
0.506203 0.666346 0.533791
0.679637 0.653696 0.517296
0.83447 0.647272 0.494926
0.95642 0.642405 0.47747
1 0.637217 0.475181
0 0.807858 0.5355
0.040177 0.801907 0.529442
0.155169 0.792157 0.518761
0.321096 0.787488 0.51458
0.478004 0.786267 0.514809
0.647288 0.77525 0.501991
0.794095 0.766873 0.492073
0.931472 0.758114 0.477256
1 0.74873 0.45481
0 0.917021 0.512428
0.0304265 0.913375 0.507713
0.132723 0.907149 0.499245
0.29102 0.903304 0.493462
0.453696 0.904799 0.495232
0.613306 0.898756 0.494087
0.765927 0.890517 0.479652
0.90367 0.883711 0.472038
0.995773 0.875181 0.458793
0 0.984985 0.486793
0.0197299 0.982879 0.482292
0.108965 0.978775 0.473762
0.259983 0.975509 0.465782
0.424491 0.981155 0.467826
0.584939 0.97998 0.470268
0.739651 0.97789 0.456992
0.878264 0.977295 0.45098
0.986923 0.97998 0.448951
0 0.0202487 0.712062
0.106035 0.0245518 0.732174
0.263996 0.0364233 0.761669
0.440818 0.0523995 0.764797
0.604013 0.0634775 0.762493
0.773358 0.0484779 0.754955
0.884932 0.0447547 0.752483
0.976257 0.0400549 0.755306
1 0.0372625 0.765728
0 0.129961 0.725444
0.0850538 0.123964 0.726467
0.240681 0.130419 0.74902
0.416983 0.137545 0.749142
0.574624 0.145495 0.746944
0.752865 0.122438 0.738186
0.874495 0.112474 0.735439
0.968338 0.100893 0.740444
1 0.0926986 0.753643
0 0.290684 0.74995
0.0660868 0.280308 0.743526
0.2383 0.279118 0.744259
0.413138 0.281941 0.740032
0.564767 0.286046 0.737102
0.73312 0.265705 0.729625
0.866102 0.250385 0.728511
0.965316 0.231342 0.734295
1 0.215381 0.746868
0 0.439445 0.749233
0.0520638 0.430457 0.743313
0.22179 0.423133 0.735485
0.398215 0.423239 0.730602
0.55053 0.424567 0.726818
0.71342 0.410376 0.72047
0.856825 0.397177 0.722896
0.966598 0.376532 0.731701
1 0.360601 0.74284
0 0.565759 0.736873
0.0472877 0.559014 0.731411
0.19469 0.550866 0.723705
0.374334 0.548424 0.718471
0.529778 0.547234 0.71397
0.690044 0.537499 0.707805
0.848707 0.523491 0.714168
0.967102 0.50782 0.718471
1 0.498863 0.720882
0 0.684688 0.72134
0.0417182 0.678538 0.715511
0.167987 0.669261 0.705425
0.341527 0.666514 0.703044
0.501823 0.664286 0.699886
0.660319 0.656855 0.692195
0.832715 0.643717 0.679774
0.960876 0.633265 0.665095
1 0.624155 0.661326
0 0.80502 0.702358
0.0371557 0.799069 0.696483
0.149676 0.789563 0.685954
0.314885 0.784268 0.680705
0.474205 0.782879 0.680613
0.622675 0.779599 0.677241
0.785534 0.76611 0.660258
0.929824 0.7579 0.636133
1 0.749615 0.625467
0 0.917113 0.677729
0.0291295 0.913146 0.672602
0.129549 0.906432 0.663462
0.28661 0.901762 0.656382
0.450355 0.902953 0.656901
0.608835 0.897032 0.653468
0.758602 0.889708 0.642573
0.8981 0.882216 0.632441
0.994171 0.872709 0.616114
0 0.984848 0.649714
0.0190127 0.982773 0.644678
0.107332 0.978698 0.635309
0.256428 0.975265 0.625559
0.420874 0.980896 0.626703
0.584298 0.979232 0.624491
0.736889 0.977279 0.616861
0.875486 0.977508 0.609384
0.990005 0.983871 0.601968
0 0.019028 0.818097
0.100557 0.0222324 0.836515
0.257496 0.0335088 0.866209
0.433997 0.0493324 0.872114
0.595789 0.0623941 0.871946
0.768551 0.0466468 0.866163
0.880446 0.0439155 0.862562
0.967712 0.0401007 0.860533
1 0.037232 0.863935
0 0.12372 0.833768
0.0795453 0.116838 0.834592
0.232944 0.123751 0.857496
0.408377 0.131228 0.861402
0.566979 0.140795 0.861036
0.745342 0.120378 0.85481
0.867887 0.11342 0.850874
0.956664 0.104967 0.848951
1 0.0972915 0.853269
0 0.284413 0.863035
0.0610819 0.273854 0.857679
0.228946 0.273365 0.861326
0.405264 0.276753 0.859098
0.558175 0.282338 0.857832
0.719127 0.270924 0.852918
0.853864 0.256596 0.847349
0.947738 0.243137 0.844221
1 0.229099 0.849546
0 0.43563 0.869688
0.0496376 0.427115 0.865171
0.216373 0.420264 0.858564
0.393973 0.420676 0.854185
0.547143 0.422614 0.850828
0.691341 0.42179 0.847257
0.839948 0.407782 0.84155
0.942214 0.394995 0.840131
1 0.380133 0.848707
0 0.563394 0.860319
0.0524605 0.556725 0.855329
0.198352 0.548211 0.848142
0.378485 0.5458 0.842924
0.533242 0.544747 0.838758
0.673808 0.544182 0.835157
0.821759 0.534997 0.83035
0.936965 0.523537 0.832074
1 0.509255 0.843549
0 0.680735 0.847288
0.0597086 0.674662 0.842725
0.18201 0.665721 0.835523
0.360265 0.661036 0.829572
0.517235 0.658244 0.824842
0.659068 0.656367 0.820813
0.801968 0.64979 0.816342
0.935195 0.637369 0.823072
1 0.623133 0.831998
0.0087129 0.797665 0.833829
0.0660868 0.79205 0.829496
0.172686 0.782788 0.822339
0.339727 0.775555 0.815702
0.500542 0.77174 0.810681
0.644327 0.768948 0.80647
0.783154 0.764187 0.802075
0.931182 0.754116 0.797299
1 0.744045 0.79263
0.00680552 0.909209 0.818433
0.0618601 0.905303 0.814862
0.15816 0.898833 0.808621
0.313466 0.892576 0.802396
0.480827 0.889174 0.797543
0.627527 0.886107 0.793271
0.764263 0.883009 0.789258
0.898146 0.878096 0.785122
0.993622 0.869459 0.771359
0 0.979324 0.799619
0.0407263 0.977676 0.79617
0.127123 0.974426 0.790249
0.267872 0.971847 0.783948
0.440803 0.973022 0.779538
0.59411 0.974243 0.775265
0.738476 0.975067 0.771267
0.874174 0.978225 0.762722
0.993973 0.988647 0.744823
0 0.0169223 0.91223
0.0948959 0.0195773 0.92871
0.25098 0.0306859 0.958953
0.42707 0.0463264 0.965927
0.588373 0.0606699 0.966125
0.76379 0.04448 0.96022
0.87747 0.0418555 0.956725
0.963623 0.0383001 0.952773
1 0.0360113 0.951934
0 0.117678 0.925109
0.0740063 0.110552 0.924971
0.226108 0.117525 0.948714
0.400595 0.125536 0.954818
0.560525 0.135912 0.95465
0.739574 0.116655 0.948577
0.864179 0.109651 0.944732
0.952285 0.102541 0.940566
1 0.0978103 0.939971
0 0.278386 0.955642
0.0560311 0.268025 0.949798
0.219745 0.26746 0.954757
0.397787 0.270787 0.952453
0.551736 0.276356 0.951293
0.712139 0.265904 0.94725
0.849241 0.251072 0.942626
0.942641 0.239384 0.937545
1 0.229801 0.936233
0 0.430564 0.963226
0.0444648 0.422217 0.958999
0.208011 0.414771 0.953262
0.386633 0.415137 0.950393
0.540871 0.417258 0.948699
0.684138 0.417472 0.947051
0.835142 0.402823 0.942763
0.936309 0.392401 0.938094
1 0.382818 0.937301
0 0.559274 0.958511
0.0485542 0.552575 0.954787
0.189761 0.543694 0.949096
0.370871 0.541421 0.945495
0.526879 0.540444 0.943145
0.667796 0.540276 0.94136
0.815274 0.532052 0.938445
0.928664 0.523796 0.934707
1 0.514977 0.934905
0 0.676814 0.95198
0.0562142 0.670939 0.948501
0.17583 0.662013 0.943069
0.353902 0.657404 0.938888
0.512245 0.654749 0.936065
0.654917 0.653361 0.933989
0.792721 0.649912 0.931975
0.920623 0.642084 0.928756
0.998199 0.632639 0.930694
0.00927749 0.794232 0.945129
0.0664073 0.788571 0.941939
0.171481 0.779614 0.936721
0.337026 0.772564 0.931991
0.498207 0.768978 0.928801
0.64239 0.766445 0.926497
0.776532 0.764752 0.924483
0.910582 0.759289 0.921798
0.997192 0.7467 0.92665
0.016022 0.907805 0.936873
0.0709697 0.903914 0.934264
0.166064 0.897261 0.929625
0.319417 0.889906 0.924926
0.485267 0.885908 0.921157
0.631983 0.882277 0.917281
0.766995 0.879774 0.913787
0.898268 0.87686 0.910536
0.998749 0.865476 0.907256
0.00630198 0.978317 0.923232
0.0577096 0.976394 0.920531
0.147295 0.972427 0.914366
0.289067 0.968444 0.908003
0.458351 0.968048 0.902983
0.608377 0.969146 0.899062
0.747509 0.97116 0.89543
0.877379 0.979995 0.886061
0.998306 0.993286 0.871519
0 0.0160372 0.967178
0.0916457 0.0183413 0.983291
0.247288 0.0292668 1
0.422797 0.0447852 1
0.583917 0.0598001 1
0.760525 0.0435492 1
0.875547 0.0409857 1
0.961654 0.0373541 1
1 0.0352178 1
0 0.114488 0.98291
0.0706493 0.107317 0.98294
0.222004 0.11397 1
0.395621 0.122148 1
0.556573 0.132982 1
0.735607 0.114473 1
0.861601 0.107485 1
0.950271 0.100984 1
1 0.09691 1
0 0.274983 1
0.0527504 0.264515 1
0.213672 0.263859 1
0.392447 0.267094 1
0.547356 0.272541 1
0.707225 0.262837 1
0.846006 0.247532 1
0.940276 0.235828 1
1 0.227451 1
0 0.427329 1
0.0409705 0.419028 1
0.201785 0.411246 1
0.381186 0.411566 1
0.536355 0.413687 1
0.678996 0.414557 1
0.831418 0.399359 1
0.933791 0.388891 1
1 0.380804 1
0 0.556313 1
0.0456397 0.549706 1
0.183337 0.540551 1
0.365194 0.53814 1
0.522118 0.537209 1
0.66302 0.53695 1
0.810788 0.528908 1
0.926055 0.520684 1
0.998947 0.513527 1
0 0.673869 1
0.0530556 0.668086 1
0.170367 0.659068 1
0.347768 0.654215 1
0.506996 0.651621 1
0.649866 0.650095 1
0.787701 0.646906 1
0.917388 0.639002 1
0.994629 0.632288 1
0.00657664 0.79089 1
0.0631266 0.785351 1
0.165866 0.776318 1
0.330251 0.769131 1
0.492592 0.765408 1
0.636973 0.762905 1
0.771832 0.761151 1
0.906294 0.75584 1
0.991821 0.748852 1
0.0140841 0.905425 1
0.0683757 0.901427 1
0.16144 0.894423 1
0.312779 0.886534 1
0.479393 0.8822 1
0.626383 0.878614 1
0.761959 0.875959 1
0.893004 0.87335 1
0.993484 0.867704 1
0.00419623 0.976562 1
0.0550851 0.974685 1
0.144076 0.970703 1
0.28333 0.966659 1
0.452995 0.966308 1
0.604166 0.967269 0.998886
0.743832 0.971374 0.99823
0.872786 0.984283 0.998734
0.998886 0.997406 0.999756
