src/LiveStudio.Agent/BuiltInAssets/ColorCards/v1/cube/004.cube
TITLE "Generated by Resolve"
LUT_3D_SIZE 5
9.15541e-05 9.15541e-05 0.000183108
0.414267 0.0567941 0
0.749737 0.105837 0
0.970016 0.139635 0
1 0.14966 0
0 0.294667 0.0230106
0.302983 0.276234 0.0117647
0.663752 0.268864 0
0.93695 0.266499 0
1 0.255375 0
0 0.574762 0.0473335
0.213993 0.561502 0.0416114
0.575174 0.54548 0.0343023
0.867216 0.536782 0.00698863
1 0.520073 0
0 0.814679 0.069749
0.161501 0.798291 0.0595712
0.491829 0.792691 0.0675822
0.805646 0.772961 0.0542306
1 0.7579 0.045716
0 0.985107 0.0573129
0.10988 0.978988 0.0513161
0.434607 0.983658 0.0593271
0.751369 0.979629 0.0564126
0.985656 0.977417 0.0554208
0 0.00540169 0.274372
0.336492 0.0150607 0.290929
0.699229 0.0414282 0.291676
0.959762 0.0598764 0.274708
1 0.0615091 0.27747
0 0.291615 0.276143
0.280278 0.276081 0.260243
0.652384 0.28986 0.232975
0.92047 0.295872 0.21622
1 0.28217 0.20853
0 0.57174 0.248676
0.208652 0.557626 0.234455
0.569924 0.541527 0.217823
0.876112 0.531853 0.172854
1 0.514839 0.14873
0 0.810361 0.235981
0.155077 0.794339 0.220493
0.485466 0.788556 0.221881
0.80029 0.769162 0.202594
1 0.752758 0.182162
0 0.983536 0.201282
0.104585 0.977417 0.192157
0.428717 0.981659 0.196582
0.746181 0.978058 0.19263
0.984115 0.976257 0.190173
0 0.0183871 0.573968
0.269001 0.0319829 0.634836
0.639002 0.0320745 0.62269
0.902632 0.0273899 0.622324
1 0.0421454 0.647654
0 0.288075 0.608438
0.242847 0.278035 0.603021
0.598337 0.26363 0.584451
0.895109 0.240009 0.587381
1 0.216571 0.600443
0 0.567666 0.575692
0.199145 0.553262 0.559594
0.545022 0.543999 0.549813
0.869108 0.535866 0.522469
1 0.522896 0.509957
0 0.807858 0.5355
0.155169 0.792157 0.518761
0.478004 0.786267 0.514809
0.794095 0.766873 0.492073
1 0.74873 0.45481
0 0.984985 0.486793
0.108965 0.978775 0.473762
0.424491 0.981155 0.467826
0.739651 0.97789 0.456992
0.986923 0.97998 0.448951
0 0.019028 0.818097
0.257496 0.0335088 0.866209
0.595789 0.0623941 0.871946
0.880446 0.0439155 0.862562
1 0.037232 0.863935
0 0.284413 0.863035
0.228946 0.273365 0.861326
0.558175 0.282338 0.857832
0.853864 0.256596 0.847349
1 0.229099 0.849546
0 0.563394 0.860319
0.198352 0.548211 0.848142
0.533242 0.544747 0.838758
0.821759 0.534997 0.83035
1 0.509255 0.843549
0.0087129 0.797665 0.833829
0.172686 0.782788 0.822339
0.500542 0.77174 0.810681
0.783154 0.764187 0.802075
1 0.744045 0.79263
0 0.979324 0.799619
0.127123 0.974426 0.790249
0.440803 0.973022 0.779538
0.738476 0.975067 0.771267
0.993973 0.988647 0.744823
0 0.0160372 0.967178
0.247288 0.0292668 1
0.583917 0.0598001 1
0.875547 0.0409857 1
1 0.0352178 1
0 0.274983 1
0.213672 0.263859 1
0.547356 0.272541 1
0.846006 0.247532 1
1 0.227451 1
0 0.556313 1
0.183337 0.540551 1
0.522118 0.537209 1
0.810788 0.528908 1
0.998947 0.513527 1
0.00657664 0.79089 1
0.165866 0.776318 1
0.492592 0.765408 1
0.771832 0.761151 1
0.991821 0.748852 1
0.00419623 0.976562 1
0.144076 0.970703 1
0.452995 0.966308 1
0.743832 0.971374 0.99823
0.998886 0.997406 0.999756
