src/LiveStudio.Agent/BuiltInAssets/ColorCards/v1/cube/004.cube
TITLE "Generated by Resolve"
LUT_3D_SIZE 33
9.15541e-05 9.15541e-05 0.000183108
0.0257572 0.00361639 0.000488289
0.0733959 0.0112459 0.000213626
0.134051 0.0222171 0
0.196826 0.0337682 0
0.256031 0.0423133 0
0.312306 0.0473945 0
0.364767 0.0519265 0
0.414267 0.0567941 0
0.460655 0.0618906 0
0.505074 0.0671092 0
0.548424 0.0716106 0
0.590845 0.0757458 0
0.632395 0.0822309 0
0.674052 0.0907759 0
0.713115 0.0987411 0
0.749737 0.105837 0
0.783917 0.111452 0
0.817456 0.116701 0
0.850965 0.122011 0
0.878706 0.126177 0
0.903349 0.129854 0
0.927825 0.133501 0
0.952316 0.137194 0
0.970016 0.139635 0
0.979324 0.14052 0
0.987793 0.141421 0
0.996262 0.142779 0
1 0.144152 0
1 0.145525 0
1 0.146899 0
1 0.148272 0
1 0.14966 0
0 0.0166476 0
0.0176394 0.0161593 0
0.0609598 0.0200809 0
0.122377 0.0294804 0
0.186557 0.0405585 0
0.247105 0.0496681 0
0.304479 0.054612 0
0.357687 0.0591592 0
0.407782 0.0638437 0
0.454978 0.0684672 0
0.499855 0.0731212 0
0.543587 0.0770581 0
0.586404 0.0806744 0
0.628153 0.0862287 0
0.670222 0.0944991 0
0.709606 0.102403 0
0.746456 0.109514 0
0.780896 0.115221 0
0.814466 0.120409 0
0.848081 0.125658 0
0.876554 0.129931 0
0.90132 0.133593 0
0.925795 0.137179 0
0.950347 0.140856 0
0.968963 0.143481 0
0.978775 0.144457 0
0.987259 0.145296 0
0.995727 0.14667 0
1 0.148028 0
1 0.149386 0
1 0.150759 0
1 0.152117 0
1 0.15349 0
0 0.0489509 0.00047303
0.0141604 0.0469978 0
0.0473487 0.0451362 0
0.0995499 0.0493172 0
0.164309 0.0573739 0
0.228336 0.0656443 0
0.28896 0.0705882 0
0.343908 0.0751965 0
0.395453 0.0786145 0
0.444007 0.0816205 0
0.489799 0.0849622 0
0.534112 0.0876936 0
0.577508 0.0902266 0
0.619898 0.0940871 0
0.662287 0.101167 0
0.702876 0.108476 0
0.74023 0.115282 0
0.775402 0.120943 0
0.809125 0.125917 0
0.843076 0.130877 0
0.872938 0.135119 0
0.897932 0.138582 0
0.922576 0.141939 0
0.947188 0.145357 0
0.967315 0.148028 0
0.977981 0.148959 0
0.98645 0.149523 0
0.994919 0.150652 0
1 0.151766 0
1 0.153063 0
1 0.154406 0
1 0.155764 0
1 0.157122 0
0 0.0849317 0.00247196
0.0118257 0.0829633 0.00151064
0.0408637 0.0802777 0.000259403
0.0874037 0.0789044 0
0.143923 0.083711 0
0.20502 0.0901808 0
0.266651 0.0955825 0
0.325216 0.0989395 0
0.37882 0.101076 0
0.429099 0.102861 0
0.475944 0.104494 0
0.521202 0.106142 0
0.564797 0.107256 0
0.607675 0.109133 0
0.650126 0.114214 0
0.691951 0.12079 0
0.730373 0.127016 0
0.766567 0.132342 0
0.800809 0.13666 0
0.835081 0.14081 0
0.867033 0.144747 0
0.89276 0.147677 0
0.917571 0.150515 0
0.942367 0.153521 0
0.96463 0.15613 0
0.977142 0.157107 0
0.985611 0.157366 0
0.994095 0.158129 0
1 0.158923 0
1 0.159747 0
1 0.160784 0
1 0.161898 0
1 0.163012 0
0 0.124453 0.00587472
0.00991836 0.122225 0.00495918
0.0350042 0.119326 0.00367742
0.0773938 0.116548 0.00222782
0.13138 0.115038 0.000228885
0.188434 0.119707 0
0.245777 0.125078 0
0.303624 0.128267 0
0.359411 0.129809 0
0.411978 0.130434 0
0.460533 0.130648 0
0.50695 0.130648 0
0.551278 0.130617 0
0.594903 0.130922 0
0.637385 0.133791 0
0.680079 0.139025 0
0.719615 0.144472 0
0.75639 0.149203 0
0.791516 0.152682 0
0.825711 0.155779 0
0.859419 0.15903 0
0.886503 0.16141 0
0.911467 0.163577 0
0.936263 0.165835 0
0.960281 0.168231 0
0.97612 0.16939 0
0.984634 0.169314 0
0.993133 0.169726 0
1 0.170291 0
1 0.170886 0
1 0.171466 0
1 0.172183 0
1 0.172961 0
0 0.16817 0.0102693
0.00828565 0.16614 0.00939956
0.0301823 0.163226 0.00798047
0.0682383 0.1608 0.00695811
0.119509 0.157305 0.00538643
0.176455 0.156222 0.00292973
0.231785 0.159609 0
0.286259 0.163302 0
0.339803 0.164782 0
0.392691 0.165148 0
0.442817 0.16463 0
0.490486 0.163348 0
0.5364 0.162005 0
0.581201 0.160815 0
0.624399 0.16141 0
0.667414 0.165087 0
0.708064 0.169207 0
0.745876 0.173205 0
0.782376 0.176059 0
0.816541 0.177478 0
0.851026 0.179385 0
0.880171 0.180789 0
0.905241 0.181888 0
0.930037 0.183108 0
0.954849 0.184588 0
0.974929 0.185611 0
0.983551 0.184741 0
0.992065 0.184543 0
1 0.184741 0
1 0.184955 0
1 0.185168 0
1 0.185397 0
1 0.185885 0
0 0.212177 0.0149081
0.00694286 0.210056 0.0140841
0.0261997 0.206714 0.0124819
0.0608835 0.204471 0.0115358
0.107378 0.20238 0.0107118
0.163775 0.198245 0.00883497
0.22031 0.197543 0.00584421
0.274174 0.200015 0.00248722
0.325078 0.202152 0
0.375387 0.203128 0
0.424811 0.202625 0
0.472557 0.201221 0
0.519371 0.199115 0
0.56492 0.196735 0
0.609323 0.194934 0
0.652979 0.196689 0
0.695308 0.199573 0
0.734127 0.202609 0
0.772473 0.205798 0
0.807492 0.206332 0
0.842084 0.206531 0
0.873838 0.20676 0
0.899367 0.206653 0
0.924208 0.206714 0
0.94902 0.207065 0
0.973449 0.207553 0
0.98233 0.205768 0
0.990875 0.204547 0
0.999405 0.204273 0
1 0.204028 0
1 0.2038 0
1 0.203601 0
1 0.203418 0
0 0.253788 0.019028
0.00616464 0.252003 0.0182803
0.0233921 0.248737 0.0166171
0.0549783 0.246235 0.0154879
0.0970321 0.244953 0.0153201
0.150149 0.242252 0.0141756
0.207904 0.238209 0.0121462
0.262684 0.237659 0.00875868
0.313848 0.239414 0.00523384
0.362402 0.240543 0.000747692
0.409903 0.240925 0
0.45626 0.239902 0
0.502403 0.238193 0
0.547494 0.23534 0
0.592447 0.232471 0
0.636561 0.231632 0
0.680461 0.233265 0
0.720745 0.234913 0
0.759854 0.23743 0
0.797131 0.238499 0
0.832303 0.238087 0
0.865797 0.237537 0
0.893248 0.236515 0
0.918334 0.235828 0
0.943297 0.235218 0
0.9682 0.234699 0
0.980987 0.232654 0
0.989578 0.230488 0
0.998154 0.229801 0
1 0.229068 0
1 0.228443 0
1 0.227756 0
1 0.227192 0
0 0.294667 0.0230106
0.00561532 0.29308 0.0223087
0.0212253 0.289937 0.0207523
0.0501259 0.287007 0.0193484
0.0892805 0.285786 0.0191196
0.137407 0.284627 0.018967
0.193942 0.281086 0.0171664
0.25095 0.276692 0.0150759
0.302983 0.276234 0.0117647
0.351751 0.277073 0.0083772
0.398779 0.276875 0.00523384
0.44329 0.276921 0
0.487495 0.275929 0
0.531411 0.273762 0
0.575555 0.270878 0
0.619532 0.268757 0
0.663752 0.268864 0
0.705928 0.269749 0
0.74522 0.270878 0
0.784558 0.272068 0
0.821363 0.271763 0
0.855955 0.270512 0
0.886015 0.26923 0
0.911742 0.267781 0
0.93695 0.266499 0
0.962036 0.26537 0
0.978988 0.263264 0
0.988067 0.260243 0
0.996704 0.25919 0
1 0.258167 0
1 0.257176 0
1 0.256306 0
1 0.255375 0
0 0.335241 0.0270237
0.00509651 0.333761 0.0263981
0.01944 0.330831 0.024918
0.0460059 0.327413 0.0232242
0.0831769 0.325383 0.0225071
0.127733 0.324697 0.0227207
0.179858 0.322759 0.0220951
0.236957 0.318608 0.0199741
0.291844 0.314672 0.0179904
0.341527 0.313817 0.0148165
0.388449 0.313695 0.01178
0.433387 0.312627 0.00993362
0.475853 0.312215 0.00436408
0.518151 0.310918 0.000122072
0.560845 0.309087 0
0.603754 0.306752 0
0.646998 0.305547 0
0.689952 0.305791 0
0.729839 0.306111 0
0.769741 0.306844 0
0.808637 0.306905 0
0.844633 0.305257 0
0.877195 0.30341 0
0.904326 0.301534 0
0.929778 0.299611 0
0.955169 0.297948 0
0.976211 0.295842 0
0.986358 0.292638 0
0.995041 0.290867 0
1 0.289509 0
1 0.288289 0
1 0.286992 0
1 0.285817 0
0 0.373922 0.0305333
0.00453193 0.37258 0.0299992
0.0177005 0.369985 0.0286717
0.0423285 0.366705 0.0269017
0.0775158 0.364111 0.025742
0.120241 0.363195 0.0258183
0.168002 0.362661 0.0261997
0.221973 0.359731 0.024918
0.278965 0.355489 0.0225528
0.331167 0.351873 0.0205997
0.37882 0.3505 0.0178836
0.423346 0.34995 0.0154421
0.46627 0.348592 0.013901
0.507866 0.347127 0.0100252
0.548699 0.346075 0.00492866
0.590265 0.344305 0.00187686
0.631983 0.34255 0
0.674708 0.342412 0
0.714961 0.342229 0
0.754406 0.342397 0
0.794461 0.342657 0
0.831937 0.341329 0
0.866194 0.33901 0
0.896223 0.33666 0
0.922087 0.334356 0
0.947631 0.332219 0
0.972488 0.33022 0
0.984466 0.326757 0
0.993225 0.324086 0
1 0.32253 0
1 0.321004 0
1 0.319509 0
1 0.318029 0
0 0.411246 0.0337072
0.00396735 0.41004 0.0332036
0.016083 0.407538 0.0319524
0.0388495 0.40441 0.0302434
0.0721904 0.401572 0.0287938
0.113344 0.400137 0.0284886
0.159121 0.399817 0.0291142
0.208591 0.398718 0.0291752
0.264103 0.395148 0.0272374
0.319081 0.390829 0.0247807
0.36878 0.387701 0.0231785
0.414359 0.386267 0.0210574
0.456886 0.385214 0.0191043
0.498375 0.383673 0.0179141
0.539422 0.381521 0.0167544
0.579278 0.380331 0.0103761
0.619486 0.378927 0.00616464
0.661097 0.378393 0.00205997
0.701228 0.377935 0
0.739879 0.37792 0
0.779339 0.377798 0
0.818875 0.377264 0
0.853803 0.375067 0
0.886442 0.372671 0
0.913756 0.370047 0
0.939544 0.367483 0
0.96524 0.365118 0
0.982391 0.362051 0
0.991257 0.358511 0
1 0.356756 0
1 0.35494 0
1 0.353262 0
1 0.351614 0
0 0.447166 0.0367132
0.00344854 0.446067 0.0362554
0.0150454 0.443839 0.0350347
0.0363012 0.440879 0.0333562
0.0676127 0.437812 0.0317235
0.106844 0.43592 0.0310826
0.151888 0.43537 0.0316167
0.198291 0.435172 0.0324102
0.248951 0.433402 0.0318608
0.30486 0.429221 0.0293126
0.357488 0.425452 0.0270848
0.404791 0.42266 0.0256199
0.448157 0.42121 0.0240024
0.489189 0.419898 0.0225376
0.529778 0.417945 0.0218357
0.570016 0.415518 0.021622
0.609583 0.41416 0.016144
0.649195 0.413382 0.0100404
0.68925 0.413153 0.00494392
0.726879 0.412787 0.000915541
0.765057 0.412512 0
0.804776 0.412406 0
0.841688 0.410864 0
0.875044 0.408301 0
0.904906 0.4056 0
0.930861 0.402853 0
0.956649 0.400244 0
0.978073 0.397269 0
0.989212 0.3935 0
0.998062 0.391424 0
1 0.389502 0
1 0.387701 0
1 0.385824 0
0 0.4813 0.0396735
0.00294499 0.480323 0.0392615
0.0141299 0.478126 0.038056
0.034287 0.475395 0.0364233
0.0636301 0.47248 0.034699
0.100877 0.470207 0.0336004
0.144732 0.469352 0.0338903
0.190509 0.46923 0.0348821
0.236942 0.468788 0.035584
0.289433 0.466056 0.0341955
0.344228 0.461982 0.0313878
0.394446 0.45861 0.0292821
0.439261 0.456306 0.0280919
0.48069 0.454597 0.0269017
0.520989 0.453193 0.0258488
0.560601 0.451301 0.0253452
0.600412 0.448997 0.0252384
0.639612 0.447318 0.0220493
0.67866 0.446998 0.0143587
0.715984 0.446723 0.00857557
0.752712 0.446433 0.00383001
0.791135 0.446296 0
0.829313 0.445624 0
0.863447 0.443503 0
0.89575 0.440879 0
0.922255 0.438102 0
0.947951 0.435279 0
0.972595 0.432609 0
0.98706 0.428992 0
0.995972 0.426123 0
1 0.42414 0
1 0.422156 0
1 0.420203 0
0 0.513436 0.0423438
0.00239567 0.512596 0.0419928
0.0130007 0.51075 0.0408789
0.0321965 0.508217 0.0393072
0.0598154 0.505562 0.0375982
0.0953689 0.503029 0.0361639
0.137789 0.50164 0.0360266
0.183261 0.501106 0.0368658
0.228336 0.500862 0.037995
0.275853 0.499702 0.0382696
0.329473 0.496559 0.0360723
0.382254 0.492958 0.0332799
0.429679 0.490211 0.0315709
0.472221 0.487999 0.030518
0.512596 0.486427 0.0294957
0.552087 0.484794 0.0287938
0.591562 0.48307 0.0284123
0.630365 0.481178 0.0282444
0.669917 0.478965 0.0276951
0.706859 0.478843 0.019028
0.742321 0.478569 0.0124666
0.779232 0.478355 0.00682078
0.817334 0.478172 0.00190738
0.852644 0.477043 0
0.885863 0.474891 0
0.914015 0.472511 0
0.939559 0.469764 0
0.965179 0.467094 0
0.984955 0.464057 0
0.993912 0.460716 0
1 0.458747 0
1 0.456825 0
1 0.454704 0
0 0.544472 0.0449073
0.00184634 0.543618 0.0445869
0.0118105 0.541939 0.0435492
0.0300298 0.539513 0.0420081
0.0561685 0.537011 0.0403906
0.0901045 0.534463 0.0387427
0.130999 0.532647 0.0381018
0.17612 0.531838 0.0386816
0.221088 0.531472 0.0397955
0.26598 0.530953 0.0409705
0.31487 0.529229 0.0406348
0.368154 0.52578 0.0378576
0.418616 0.522622 0.035172
0.46302 0.520119 0.0335851
0.504372 0.518029 0.0326543
0.544091 0.516258 0.0318151
0.58323 0.514611 0.0312505
0.621561 0.513024 0.0310063
0.660349 0.511284 0.0307317
0.69868 0.509453 0.0304265
0.73402 0.508904 0.0242161
0.769314 0.508797 0.0167391
0.8065 0.508583 0.0102388
0.842817 0.508217 0.00440986
0.875807 0.506584 0
0.906188 0.504646 0
0.931899 0.502327 0
0.957122 0.499916 0
0.980148 0.497292 0
0.991943 0.493843 0
1 0.492012 0
1 0.49012 0
1 0.488228 0
0 0.574762 0.0473335
0.00131228 0.57406 0.0470588
0.0106661 0.572412 0.0460365
0.0280919 0.570092 0.0445716
0.0528572 0.56762 0.0429847
0.085481 0.565118 0.0412451
0.125063 0.563043 0.0401617
0.169039 0.561929 0.0404517
0.213993 0.561502 0.0416114
0.258335 0.561257 0.043122
0.303304 0.560616 0.0443427
0.353613 0.558206 0.0428931
0.405859 0.554681 0.0396429
0.453101 0.551675 0.0371252
0.495781 0.549218 0.0357519
0.536126 0.547234 0.0349279
0.575174 0.54548 0.0343023
0.613382 0.543954 0.0339818
0.651759 0.54229 0.0337072
0.689799 0.540658 0.033463
0.726009 0.538994 0.0333104
0.761196 0.53782 0.0301213
0.797177 0.537804 0.0213169
0.833707 0.53785 0.0139467
0.867216 0.536782 0.00698863
0.898421 0.535119 0.000167849
0.925155 0.533196 0
0.949966 0.530892 0
0.974197 0.528756 0
0.990036 0.525841 0
0.998856 0.523583 0
1 0.521828 0
1 0.520073 0
0 0.6047 0.0500038
0.000793469 0.603967 0.0497597
0.00947585 0.602289 0.0487678
0.026276 0.600015 0.0472572
0.0499275 0.597772 0.0456855
0.0809644 0.595346 0.0438849
0.119051 0.593103 0.0424659
0.162051 0.591714 0.0424506
0.207156 0.59115 0.0436408
0.25127 0.590799 0.0452888
0.295094 0.590524 0.0469978
0.340841 0.589532 0.0474861
0.391592 0.586572 0.0450752
0.441749 0.583093 0.0417029
0.486625 0.580331 0.0395666
0.527825 0.578256 0.0383612
0.567361 0.576394 0.0375677
0.605768 0.574777 0.0371099
0.643763 0.573007 0.0368505
0.68159 0.57145 0.0366674
0.717754 0.56997 0.0365148
0.752911 0.568338 0.0363317
0.789258 0.566705 0.0362402
0.825147 0.566827 0.0264897
0.859464 0.566278 0.0178531
0.891081 0.564828 0.00967422
0.919249 0.563104 0.00260929
0.943557 0.56112 0
0.968063 0.559106 0
0.988373 0.556619 0
0.997162 0.55404 0
1 0.552361 0
1 0.550668 0
0 0.634379 0.0530861
0.000289921 0.633768 0.0528572
0.00840772 0.632227 0.0519417
0.0248112 0.629831 0.0503243
0.0476997 0.627665 0.0487526
0.0771038 0.625238 0.046952
0.113634 0.622782 0.0452735
0.155505 0.621149 0.0447852
0.200092 0.620371 0.0457313
0.244251 0.620035 0.047303
0.288136 0.619776 0.049134
0.331304 0.619318 0.0507057
0.377707 0.617609 0.0503243
0.428214 0.614374 0.0470283
0.476188 0.611124 0.0439002
0.519081 0.608606 0.0419623
0.559304 0.606592 0.0408179
0.597971 0.604837 0.0403143
0.636088 0.603235 0.0399481
0.673869 0.601785 0.0397192
0.710048 0.600366 0.0395819
0.745098 0.598886 0.0393683
0.780438 0.597498 0.0393225
0.816907 0.59585 0.0391852
0.852064 0.595361 0.0319524
0.884169 0.594293 0.0219272
0.913695 0.59292 0.013077
0.937926 0.591134 0.00601205
0.961852 0.58912 0
0.985702 0.58706 0
0.995758 0.584314 0
1 0.582681 0
1 0.581033 0
0 0.663966 0.0561379
0 0.66334 0.0559396
0.00764477 0.661891 0.0551003
0.0234379 0.659602 0.0535286
0.0458228 0.657435 0.0519875
0.0734417 0.655009 0.0502785
0.108598 0.652476 0.0484321
0.149172 0.650477 0.0473793
0.192966 0.649393 0.0478676
0.237217 0.648829 0.0492256
0.280949 0.648432 0.0509041
0.323781 0.648035 0.0526131
0.366567 0.647303 0.0537881
0.413916 0.645182 0.0523384
0.464149 0.641749 0.0487984
0.509331 0.638697 0.0459907
0.550668 0.636408 0.0444038
0.590173 0.634379 0.043534
0.628412 0.632776 0.0428931
0.666407 0.631266 0.0425879
0.702907 0.629892 0.0424506
0.737789 0.628443 0.0421607
0.772381 0.6271 0.0419318
0.808103 0.625635 0.0417792
0.844114 0.623957 0.0416571
0.877653 0.622431 0.0373236
0.908171 0.6215 0.0261692
0.93283 0.62002 0.0175326
0.956237 0.618341 0.00996414
0.97995 0.616617 0.00285344
0.994492 0.61416 0
1 0.61268 0
1 0.611154 0
0 0.693996 0.0590982
0 0.69337 0.0588846
0.00720226 0.691905 0.0580453
0.0222782 0.689586 0.0565805
0.0442664 0.687358 0.0550546
0.0698558 0.685039 0.0534829
0.103853 0.68249 0.0515908
0.14316 0.680171 0.0501106
0.18587 0.678782 0.0500801
0.229969 0.678065 0.0512093
0.273671 0.677501 0.0526589
0.316808 0.677119 0.0542306
0.358755 0.676783 0.0558175
0.401785 0.675776 0.0563668
0.450019 0.672923 0.0539101
0.497993 0.669245 0.0503548
0.54139 0.666377 0.0480201
0.58172 0.664149 0.0466621
0.620325 0.662242 0.0457618
0.658885 0.6607 0.045243
0.695689 0.659083 0.0449531
0.730587 0.657542 0.0446784
0.764736 0.656092 0.0444343
0.799908 0.654551 0.0442206
0.835569 0.65301 0.0439918
0.870222 0.651301 0.0435798
0.902159 0.648936 0.0421607
0.928328 0.647639 0.0313878
0.951278 0.646281 0.0223545
0.974411 0.644816 0.0141299
0.992569 0.642863 0.00749218
1 0.641367 0.00393683
1 0.640177 0.00123598
0 0.724208 0.0619669
0 0.723583 0.0617685
0.00675975 0.722255 0.0609751
0.0214084 0.720073 0.0595712
0.0428626 0.717784 0.0580606
0.0664988 0.715572 0.0565652
0.0991836 0.712886 0.0547341
0.137819 0.710338 0.0530098
0.179294 0.708583 0.0523995
0.222751 0.707805 0.0531777
0.26656 0.707332 0.0545205
0.309789 0.706935 0.0560159
0.351904 0.706569 0.057557
0.393164 0.706172 0.0590219
0.436484 0.704723 0.058793
0.484642 0.701213 0.0555886
0.530617 0.69752 0.0521706
0.57261 0.69485 0.0500191
0.61207 0.692638 0.0487984
0.650782 0.690791 0.0481117
0.68838 0.689006 0.0474708
0.723629 0.687419 0.0471351
0.757565 0.685893 0.0469215
0.792096 0.684504 0.0467231
0.827726 0.68307 0.0465858
0.862486 0.681422 0.0463111
0.894972 0.679271 0.0452277
0.923476 0.67657 0.0434882
0.947158 0.674464 0.0385443
0.969711 0.672984 0.0284581
0.990112 0.671351 0.0199283
1 0.669718 0.0148928
1 0.668666 0.0117494
0 0.754223 0.064622
0 0.753597 0.0644236
0.00621042 0.752285 0.0636912
0.0204013 0.750179 0.0623026
0.0415656 0.747982 0.0608225
0.0637827 0.745846 0.0594034
0.0948653 0.743328 0.0577096
0.132998 0.74078 0.0558785
0.173022 0.738735 0.0547341
0.215686 0.737606 0.0550851
0.259403 0.737057 0.0563516
0.302846 0.736599 0.0578012
0.345205 0.736187 0.0593118
0.386099 0.735821 0.0608835
0.426383 0.73521 0.062089
0.470741 0.733135 0.0609903
0.518105 0.729397 0.0572518
0.562539 0.726146 0.0540475
0.603098 0.72372 0.0522774
0.642267 0.721645 0.0512703
0.680797 0.7196 0.0504311
0.71664 0.717891 0.0497749
0.750851 0.716411 0.0495155
0.784894 0.714946 0.0493172
0.820157 0.713405 0.0492103
0.854963 0.711971 0.049012
0.88806 0.710185 0.048249
0.917754 0.707897 0.0466773
0.942367 0.705226 0.0449073
0.965469 0.702632 0.0431525
0.987503 0.700557 0.0364691
1 0.698985 0.0292058
1 0.697993 0.025452
0 0.783902 0.0670787
0 0.783291 0.0668803
0.00560006 0.782101 0.0662089
0.0191348 0.780011 0.0648661
0.0399176 0.777859 0.0634012
0.0618448 0.775601 0.0620127
0.0906844 0.77322 0.0604105
0.127825 0.770748 0.0585794
0.166979 0.76849 0.0570687
0.208759 0.76704 0.0569772
0.252155 0.766247 0.0580758
0.295781 0.765713 0.0594492
0.338293 0.765332 0.0609445
0.379355 0.764874 0.062501
0.419059 0.764477 0.0641642
0.45922 0.763668 0.0650187
0.504387 0.760937 0.0627451
0.550805 0.757229 0.0587472
0.593454 0.754284 0.0560006
0.633524 0.752026 0.0544289
0.67277 0.750027 0.053315
0.709438 0.748272 0.0526436
0.744137 0.746731 0.0521859
0.777935 0.745281 0.0519417
0.812711 0.743648 0.0517586
0.847379 0.742229 0.051545
0.881178 0.740642 0.051133
0.912154 0.738537 0.0499428
0.937484 0.736263 0.0483406
0.960433 0.733761 0.0465858
0.983459 0.731136 0.04477
1 0.728817 0.0430457
1 0.727459 0.0423133
0 0.814679 0.069749
0 0.813947 0.0695354
0.005066 0.812696 0.068864
0.0179904 0.81059 0.0675669
0.0383307 0.808286 0.0660868
0.0602121 0.805966 0.0646677
0.0872358 0.803555 0.0631266
0.122805 0.800992 0.061326
0.161501 0.798291 0.0595712
0.202121 0.796475 0.0589303
0.244862 0.795483 0.0597238
0.288548 0.795026 0.0611429
0.331258 0.79472 0.0625772
0.372625 0.79443 0.0641184
0.41236 0.794186 0.0658427
0.45095 0.793927 0.0674754
0.491829 0.792691 0.0675822
0.537255 0.789212 0.0643168
0.582788 0.785199 0.0603342
0.624247 0.782238 0.057969
0.664256 0.779919 0.0565194
0.701991 0.77789 0.0555734
0.737163 0.77612 0.0548257
0.771054 0.774487 0.0544137
0.805646 0.772961 0.0542306
0.840345 0.771511 0.0539712
0.874327 0.770062 0.0537881
0.906203 0.768185 0.0529793
0.932815 0.766186 0.0515602
0.955749 0.763867 0.0499123
0.978454 0.761547 0.048188
1 0.759014 0.0463722
1 0.7579 0.045716
0 0.844831 0.0717784
0 0.844221 0.0715953
0.00453193 0.843122 0.0710765
0.0166781 0.84123 0.0699474
0.0362249 0.838895 0.0685588
0.0581216 0.836698 0.067155
0.0835737 0.834363 0.0657054
0.117571 0.831846 0.0639963
0.156268 0.829267 0.0622568
0.195773 0.827115 0.0612039
0.23772 0.825986 0.0616312
0.281147 0.825589 0.0629435
0.324147 0.825193 0.0644236
0.365698 0.824948 0.0659342
0.405783 0.824781 0.0675669
0.444312 0.824628 0.0693065
0.482597 0.824216 0.0707256
0.524224 0.822156 0.0697795
0.570184 0.818006 0.0658274
0.613931 0.814069 0.0621653
0.654948 0.8112 0.0599985
0.693904 0.808789 0.0586557
0.729747 0.806867 0.0576638
0.764202 0.805112 0.0571145
0.798383 0.803372 0.0568399
0.833356 0.801755 0.0565957
0.867506 0.800305 0.0563516
0.900099 0.79855 0.0557717
0.928008 0.796429 0.0545815
0.951446 0.79411 0.0530556
0.973922 0.791775 0.0514076
0.996353 0.789456 0.0497597
1 0.788281 0.049012
0 0.872419 0.0714885
0 0.871794 0.0713664
0.00404364 0.870863 0.0709697
0.0151522 0.869169 0.0700542
0.0332952 0.86714 0.0689097
0.0550088 0.865156 0.0677348
0.0789349 0.863111 0.0665446
0.111391 0.860975 0.0652018
0.149813 0.858824 0.0637522
0.188846 0.856809 0.0626535
0.230121 0.855772 0.0628367
0.273457 0.855467 0.0640421
0.31696 0.855299 0.0656901
0.358679 0.855161 0.0674144
0.39913 0.855039 0.0691386
0.437873 0.854932 0.0709087
0.475944 0.854566 0.0726482
0.514717 0.853697 0.0738537
0.557641 0.850828 0.0718395
0.602579 0.846738 0.0673991
0.645014 0.843351 0.0641184
0.685191 0.840635 0.062211
0.722347 0.838453 0.0609293
0.757076 0.836622 0.0602579
0.790875 0.834897 0.0597391
0.826459 0.833219 0.0593118
0.860655 0.831785 0.0590372
0.893874 0.83006 0.0586557
0.923308 0.828275 0.0575875
0.947158 0.826078 0.0561532
0.969406 0.823819 0.0546273
0.991806 0.821332 0.0529641
1 0.820127 0.0521553
0 0.897154 0.0696422
0 0.896666 0.0695354
0.00355535 0.895903 0.0692149
0.0135348 0.894545 0.0683909
0.0299535 0.892836 0.0673686
0.051194 0.891218 0.0663615
0.0738384 0.889601 0.0653697
0.104433 0.887999 0.064271
0.142412 0.886122 0.0630808
