src/LiveStudio.Agent/BuiltInAssets/ColorCards/v1/cube/1.增透美白.cube
TITLE "Generated by Resolve"
LUT_3D_SIZE 9
0 0 0
0.122515 0 0
0.294591 0 0
0.457603 0 0
0.613657 0 0
0.76463 0 0
0.91014 0 0
1 0 0
1 0 0
0 0.120974 0
0.110536 0.114549 0
0.27361 0.112474 0
0.43151 0.110948 0
0.584878 0.110124 0
0.734203 0.110033 0
0.87863 0.110979 0
1 0.112764 0
1 0.114641 0
0 0.280766 0
0.0992142 0.272053 0
0.260929 0.268513 0
0.417899 0.265995 0
0.570581 0.264408 0
0.71931 0.263661 0
0.863172 0.263966 0
1 0.265034 0
1 0.266133 0
0 0.433921 0
0.0885634 0.424506 0
0.249744 0.420294 0
0.406104 0.417121 0
0.558114 0.414801 0
0.706096 0.41323 0
0.84921 0.412711 0
0.988418 0.413062 0
1 0.41352 0
0 0.583307 0
0.079408 0.573129 0
0.239857 0.568078 0
0.395499 0.564111 0
0.546853 0.56109 0
0.694286 0.558907 0
0.836881 0.557794 0
0.975494 0.557488 0
1 0.557275 0
0 0.728664 0
0.0712291 0.717815 0
0.23122 0.712169 0
0.386313 0.707576 0
0.537057 0.703899 0
0.683848 0.700999 0
0.825727 0.699107 0
0.963561 0.697978 0
1 0.69691 0
0 0.870207 0
0.0653086 0.858686 0
0.224674 0.852277 0
0.379034 0.846891 0
0.529 0.842374 0
0.674998 0.838605 0
0.816068 0.835843 0
0.953109 0.833875 0
1 0.831983 0
0 1 0
0.0599985 0.995575 0
0.218601 0.988281 0
0.372168 0.98204 0
0.521355 0.976684 0
0.666606 0.972107 0
0.807034 0.968612 0
0.943465 0.965988 0
1 0.963561 0
0 1 0
0.0526894 1 0
0.210636 1 0
0.363546 1 0
0.512169 1 0
0.656977 1 0
0.79704 1 0
0.933165 1 0
1 1 0
0 0 0.132677
0.121279 0 0.129473
0.293462 0 0.136675
0.455146 0 0.13904
0.610666 0 0.14049
0.761318 0 0.141848
0.906645 0 0.143816
1 0 0.146334
1 0 0.148852
0 0.118441 0.124987
0.108797 0.111406 0.115526
0.270191 0.109224 0.115892
0.427924 0.107546 0.114275
0.581186 0.106615 0.113405
0.730434 0.106432 0.113283
0.874815 0.107317 0.114229
1 0.109026 0.116014
1 0.110842 0.117891
0 0.277317 0.117632
0.0954604 0.268513 0.108888
0.257115 0.264881 0.105333
0.414038 0.262303 0.102831
0.566659 0.26067 0.101259
0.715328 0.259846 0.100496
0.859113 0.26006 0.100786
0.998932 0.261051 0.101839
1 0.262058 0.102922
0 0.430228 0.110048
0.0845808 0.420737 0.100633
0.245716 0.416464 0.096437
0.401999 0.413199 0.0932326
0.553918 0.410788 0.090898
0.701823 0.409125 0.0893111
0.844892 0.40856 0.0888228
0.984054 0.408835 0.0891737
1 0.409232 0.0896315
0 0.57937 0.104021
0.0751354 0.569085 0.0938125
0.235538 0.563958 0.0887617
0.391135 0.559945 0.0848096
0.542443 0.556863 0.0818189
0.689815 0.554604 0.0796368
0.832349 0.553429 0.0785229
0.970886 0.553048 0.0782177
1 0.552743 0.0779889
0 0.724483 0.098909
0.0667582 0.713573 0.0880751
0.226688 0.707851 0.0824292
0.38172 0.703182 0.0778515
0.532403 0.699428 0.0741588
0.679118 0.696437 0.0712596
0.82092 0.694469 0.0693523
0.958679 0.693248 0.0682078
1 0.692088 0.0671244
0 0.865797 0.0960555
0.0605936 0.854185 0.084535
0.219883 0.8477 0.0781109
0.374151 0.842222 0.0727245
0.524041 0.837613 0.0681926
0.669963 0.833753 0.0644236
0.810971 0.8309 0.0616464
0.947921 0.828855 0.059678
1 0.826902 0.0578164
0 1 0.0939345
0.0549783 0.990784 0.0815595
0.213519 0.983398 0.0742657
0.366995 0.977081 0.0680095
0.516121 0.971649 0.0626535
0.661311 0.966995 0.0581064
0.801694 0.963439 0.0546273
0.938079 0.960769 0.0520485
1 0.958297 0.0496529
0 1 0.0897993
0.0473945 1 0.0766155
0.205295 1 0.0685435
0.358175 1 0.0616312
0.506767 1 0.0556954
0.65153 1 0.0506447
0.791577 1 0.0467536
0.927687 1 0.0438697
1 1 0.0417487
0 0 0.304692
0.123857 0 0.304387
0.293614 0 0.309133
0.454398 0 0.310597
0.609476 0 0.311574
0.759884 0 0.312657
0.905028 0 0.314443
1 0 0.316838
1 0 0.319265
0 0.117678 0.29633
0.106035 0.110445 0.289143
0.268635 0.107866 0.286625
0.426246 0.106035 0.284855
0.579416 0.104997 0.283879
0.728603 0.104753 0.28368
0.872923 0.105577 0.28455
1 0.107225 0.286259
1 0.108965 0.28806
0 0.275792 0.288182
0.0936294 0.26688 0.279332
0.25861 0.262806 0.269505
0.4121 0.260548 0.273121
0.56466 0.258839 0.271473
0.713268 0.257954 0.270634
0.856992 0.258091 0.270832
0.996719 0.258976 0.271794
1 0.259892 0.27277
0 0.428458 0.280324
0.0825208 0.418906 0.270832
0.243595 0.414542 0.266545
0.399817 0.411185 0.263249
0.551644 0.408682 0.260807
0.699489 0.406958 0.259144
0.842512 0.406332 0.258579
0.981613 0.406546 0.258869
1 0.406882 0.259266
0 0.57734 0.273991
0.0727855 0.566964 0.263691
0.233158 0.561776 0.258579
0.388708 0.557702 0.254551
0.539956 0.554559 0.251484
0.687282 0.552239 0.249241
0.82974 0.550973 0.248051
0.968215 0.550515 0.247654
1 0.550134 0.247333
0 0.722225 0.26862
0.06421 0.711254 0.257725
0.224094 0.705455 0.252003
0.379065 0.700725 0.247333
0.529671 0.69688 0.243565
0.67631 0.693812 0.240558
0.818036 0.691737 0.23856
0.955703 0.690425 0.237324
1 0.689174 0.236133
0 0.86331 0.265522
0.0577859 0.851621 0.253895
0.217014 0.845029 0.247379
0.371206 0.839475 0.241901
0.521004 0.834775 0.237263
0.66685 0.830823 0.233387
0.807782 0.827893 0.230533
0.944671 0.825757 0.228473
1 0.823728 0.22652
0 1 0.263066
0.0518807 0.987915 0.250599
0.210346 0.980438 0.243198
0.36376 0.974029 0.236866
0.51281 0.968521 0.231434
0.657954 0.963821 0.226795
0.798276 0.960204 0.223255
0.93463 0.957488 0.220615
1 0.954986 0.218189
0 1 0.258625
0.0440223 1 0.245365
0.201892 1 0.237217
0.354711 1 0.230243
0.503273 1 0.224262
0.64802 1 0.219165
0.788052 1 0.215259
0.924163 1 0.212329
1 1 0.210224
0 0 0.471595
0.126513 0 0.473381
0.293797 0 0.475639
0.45391 0 0.476417
0.608621 0 0.477028
0.758801 0 0.477867
0.903822 0 0.4795
1 0 0.481804
1 0 0.484138
0 0.117205 0.461982
0.105043 0.109667 0.45449
0.267475 0.106889 0.451774
0.424964 0.104936 0.449866
0.578058 0.103807 0.448798
0.727184 0.103487 0.448508
0.871458 0.10425 0.449332
1 0.105837 0.450965
1 0.1075 0.452689
0 0.274662 0.453162
0.092195 0.265675 0.444221
0.253758 0.261906 0.440513
0.410574 0.25922 0.437873
0.563073 0.257435 0.436149
0.71162 0.256458 0.435233
0.855253 0.256519 0.43534
0.994904 0.257313 0.436194
1 0.258152 0.437095
0 0.4271 0.44506
0.0808881 0.417487 0.435492
0.241886 0.413031 0.431098
0.398016 0.409583 0.42771
0.549767 0.406989 0.425177
0.697566 0.405203 0.423453
0.840543 0.404517 0.422827
0.979583 0.404669 0.423041
1 0.404944 0.423377
0 0.575708 0.438437
0.0708629 0.565255 0.428046
0.231189 0.560006 0.422858
0.386679 0.555871 0.418784
0.537881 0.552666 0.415641
0.685145 0.550271 0.413306
0.827543 0.548943 0.412039
0.965942 0.548409 0.411566
1 0.547936 0.411154
0 0.720378 0.432822
0.062089 0.709346 0.421851
0.221912 0.703471 0.416037
0.376806 0.698665 0.411292
0.527337 0.694743 0.407446
0.673899 0.691585 0.404334
0.815549 0.689418 0.402243
0.953124 0.688014 0.4009
1 0.686687 0.399634
0 0.861234 0.42945
0.0553902 0.849454 0.417746
0.214542 0.842771 0.411124
0.368658 0.837125 0.405539
0.51838 0.832319 0.400824
0.664149 0.82829 0.396857
0.805005 0.825284 0.393896
0.941817 0.823072 0.39176
1 0.820981 0.389746
0 0.998093 0.426688
0.0491798 0.985458 0.41413
0.207584 0.97789 0.406638
0.360922 0.971405 0.400214
0.509911 0.96582 0.39469
0.655009 0.961044 0.38999
0.7953 0.957382 0.386404
0.931609 0.95462 0.383719
1 0.952087 0.381247
0 1 0.421942
0.0410773 1 0.408621
0.198901 1 0.400412
0.35169 1 0.393378
0.500206 1 0.387335
0.644938 1 0.382208
0.784955 1 0.378271
0.921065 1 0.375326
1 1 0.37322
0 0 0.634089
0.128038 0 0.635706
0.294087 0 0.636698
0.453681 0 0.636927
0.608087 0 0.637217
0.758083 0 0.637858
0.902983 0 0.639368
1 0 0.641566
1 0 0.643839
0 0.117021 0.62237
0.104387 0.109209 0.614603
0.266667 0.106279 0.611704
0.424063 0.104219 0.609689
0.577081 0.102998 0.60853
0.726162 0.102617 0.608194
0.87039 0.103319 0.608942
1 0.104829 0.610498
1 0.106432 0.612146
0 0.273915 0.612955
0.0911727 0.264851 0.603937
0.252689 0.261036 0.600168
0.409445 0.258259 0.597452
0.561883 0.256413 0.595651
0.710353 0.25536 0.594644
0.85391 0.255314 0.594659
0.993469 0.256016 0.595422
1 0.256809 0.596246
0 0.426139 0.604608
0.0796216 0.416434 0.594965
0.240558 0.411902 0.590494
0.396612 0.408377 0.586999
0.548272 0.405692 0.584375
0.69604 0.403845 0.582589
0.838956 0.403098 0.581903
0.977951 0.403189 0.58204
1 0.403388 0.5823
0 0.574456 0.597681
0.0693217 0.563943 0.587228
0.229618 0.558633 0.581979
0.385061 0.554437 0.577829
0.536187 0.551156 0.574624
0.683406 0.548699 0.572213
0.825727 0.54728 0.570855
0.96405 0.54667 0.570306
1 0.546105 0.569787
0 0.718929 0.591852
0.0603342 0.70782 0.580804
0.220111 0.701885 0.574929
0.374929 0.696986 0.570092
0.525399 0.692988 0.56614
0.67187 0.689723 0.562951
0.813428 0.687465 0.560754
0.950927 0.685985 0.559319
1 0.684565 0.557977
0 0.859525 0.58822
0.0533761 0.847669 0.576425
0.212451 0.840894 0.569711
0.366476 0.835142 0.564019
0.516121 0.830274 0.559213
0.661814 0.826154 0.555154
0.802609 0.823041 0.552117
0.939361 0.820768 0.549905
1 0.818631 0.547814
0 0.996094 0.585153
0.0468605 0.983368 0.572488
0.205203 0.975723 0.564904
0.358465 0.969162 0.558404
0.507408 0.9635 0.552819
0.652445 0.958679 0.548058
0.792691 0.954955 0.544396
0.928969 0.952163 0.541665
1 0.949599 0.539162
0 1 0.580118
0.0385138 1 0.56672
0.196292 1 0.55845
0.34905 1 0.551354
0.497551 1 0.545281
0.642252 1 0.540124
0.782269 1 0.536156
0.918868 1 0.5337
1 1 0.53109
0 0 0.793591
0.129366 0 0.792309
0.294575 0 0.792432
0.453727 0 0.792233
0.607889 0 0.792248
0.757717 0 0.792721
0.902525 0 0.79411
1 0 0.796216
1 0 0.798428
0 0.117144 0.777554
0.104082 0.109102 0.769574
0.266239 0.106035 0.766522
0.423545 0.103868 0.764401
0.576486 0.102586 0.763165
0.725505 0.102129 0.762753
0.869688 0.10277 0.763439
1 0.104219 0.764904
1 0.10573 0.766476
0 0.273548 0.76762
0.0905165 0.264424 0.758541
0.251987 0.260533 0.754696
0.408698 0.257694 0.751919
0.561059 0.255772 0.750042
0.709468 0.254627 0.748943
0.852949 0.254505 0.748852
0.992416 0.255116 0.749508
1 0.255848 0.750301
0 0.425544 0.759045
0.0787518 0.415778 0.74931
0.239612 0.411154 0.744747
0.395575 0.407523 0.741161
0.547189 0.404761 0.73846
0.694896 0.402869 0.736614
0.837766 0.40206 0.735851
0.976699 0.40209 0.735927
1 0.402213 0.73611
0 0.573587 0.751812
0.0681621 0.562997 0.741283
0.228428 0.557641 0.735973
0.38381 0.553384 0.731762
0.53489 0.550042 0.728481
0.682033 0.547509 0.725994
0.824308 0.546014 0.724559
0.962554 0.545312 0.723903
1 0.544656 0.723293
0 0.717861 0.745769
0.0589761 0.706691 0.734646
0.218692 0.700664 0.728664
0.373434 0.695689 0.723751
0.523827 0.6916 0.719722
0.670222 0.688243 0.716411
0.811704 0.685893 0.714122
0.949126 0.684321 0.712612
1 0.682826 0.711162
0 0.858213 0.741848
0.0517433 0.846265 0.729961
0.210742 0.839384 0.72314
0.364691 0.833555 0.717372
0.51426 0.82858 0.712459
0.659876 0.824384 0.708309
0.800595 0.82121 0.705196
0.937285 0.81886 0.702907
1 0.816648 0.700755
0 0.994476 0.73846
0.0449226 0.981674 0.725704
0.203204 0.973938 0.718029
0.356405 0.967285 0.711452
0.505272 0.961578 0.705791
0.650278 0.95668 0.700969
0.790494 0.952926 0.697261
0.926741 0.950088 0.694484
1 0.947494 0.691951
0 1 0.733135
0.0363317 1 0.719676
0.194095 1 0.711345
0.346807 1 0.704219
0.495277 1 0.6981
0.639979 1 0.692912
0.77998 1 0.688914
0.916594 1 0.686473
1 1 0.683818
0 0 0.946014
0.13077 0 0.942596
0.295338 0 0.942061
0.454154 0 0.941482
0.608087 0 0.941268
0.757794 0 0.941588
0.902495 0 0.94287
1 0 0.9449
1 0 0.947051
0 0.117647 0.926711
0.104189 0.109422 0.918517
0.266239 0.106218 0.915358
0.423453 0.10396 0.91313
0.576349 0.102602 0.911818
0.725322 0.102098 0.911345
0.869444 0.102678 0.911955
1 0.104036 0.913359
1 0.10547 0.914824
0 0.273625 0.916335
0.0903182 0.264439 0.907179
0.251759 0.260487 0.903273
0.408392 0.257572 0.900404
0.560693 0.255573 0.898451
0.70901 0.254353 0.897261
0.852415 0.254124 0.897078
0.991821 0.254658 0.897658
1 0.255344 0.898375
0 0.425406 0.907515
0.0783093 0.415549 0.897704
0.239109 0.410834 0.893034
0.39498 0.407111 0.889357
0.546532 0.404303 0.88658
0.694194 0.40235 0.884672
0.837018 0.40148 0.883833
0.975906 0.401434 0.883848
1 0.401495 0.883955
0 0.573159 0.899977
0.0674754 0.562524 0.889387
0.22768 0.557107 0.884016
0.383017 0.552773 0.879728
0.534035 0.549371 0.876371
0.681117 0.546761 0.873808
0.823316 0.54519 0.872282
0.961471 0.544396 0.871534
1 0.543648 0.870832
0 0.71725 0.893706
0.0580606 0.706004 0.882506
0.217716 0.699886 0.876448
0.372396 0.694835 0.871443
0.522698 0.690654 0.867308
0.669001 0.687205 0.86392
0.810407 0.684764 0.861524
0.947753 0.683116 0.859922
1 0.681529 0.858381
0 0.857343 0.889509
0.0505379 0.845289 0.877531
0.209461 0.838331 0.870619
0.363333 0.832395 0.864729
0.512825 0.827344 0.859739
0.658366 0.823056 0.855497
0.799023 0.819806 0.852293
0.935668 0.817395 0.849943
1 0.815137 0.84773
0 0.993301 0.885801
0.0434272 0.980407 0.872953
0.201648 0.972595 0.865202
0.354788 0.965866 0.858534
0.503609 0.960098 0.852811
0.648569 0.955154 0.847929
0.788754 0.951354 0.844175
0.924971 0.948486 0.841367
1 0.945861 0.838804
0 1 0.880201
0.0346075 1 0.866682
0.19234 1 0.858289
0.345022 1 0.851118
0.493477 1 0.844968
0.638163 1 0.83975
0.778164 1 0.835737
0.914778 1 0.83328
1 1 0.83061
0 0 1
0.132219 0 1
0.296284 0 1
0.454795 0 1
0.608545 0 1
0.758129 0 1
0.90277 0 1
1 0 1
1 0 1
0 0.118379 1
0.104555 0.110002 1
0.266514 0.106676 1
0.423667 0.104341 1
0.576501 0.102937 1
0.725429 0.102358 1
0.869474 0.102861 1
1 0.104143 1
1 0.105501 1
0 0.273991 1
0.090425 0.264744 1
0.251804 0.260716 1
0.408377 0.25774 1
0.560601 0.255665 1
0.708858 0.254353 1
0.852155 0.254017 1
0.991516 0.254505 1
1 0.255131 1
0 0.425559 1
0.0781567 0.41561 1
0.23888 0.410803 1
0.39469 0.407004 1
0.546197 0.404135 1
0.693812 0.402121 1
0.836576 0.40119 1
0.975387 0.401068 1
1 0.401053 1
0 0.573037 1
0.0670787 0.562356 1
0.227237 0.556863 1
0.382513 0.552468 1
0.533471 0.548989 1
0.680476 0.546288 1
0.822599 0.54464 1
0.960693 0.543755 1
1 0.542916 1
0 0.716915 1
0.057435 0.705592 1
0.217029 0.699413 1
0.371633 0.69427 1
0.521843 0.689982 1
0.668086 0.686458 1
0.8094 0.683925 1
0.946654 0.682185 1
1 0.680507 1
0 0.856733 1
0.0496223 0.844602 1
0.208469 0.837537 1
0.362264 0.831525 1
0.511681 0.826398 1
0.657145 0.822019 0.998764
0.797757 0.818692 0.995499
0.934325 0.81622 0.993057
1 0.813916 0.990814
0 0.992401 1
0.0422217 0.979431 1
0.200381 0.971527 1
0.35346 0.964752 1
0.502235 0.958907 0.995911
0.64715 0.953918 0.990982
0.787305 0.950072 0.987182
0.923506 0.947173 0.984344
1 0.944549 0.981765
0 1 1
0.0331731 1 1
0.190875 1 1
0.343542 1 0.994125
0.491966 1 0.987945
0.636652 1 0.982712
0.777157 1 0.979187
0.913283 1 0.976226
1 1 0.973526
0 0 1
0.133516 0 1
0.297169 0 1
0.455421 0 1
0.609018 0 1
0.758511 0 1
0.903075 0 1
1 0 1
1 0 1
0 0.119112 1
0.104952 0.110597 1
0.266835 0.107179 1
0.423911 0.104768 1
0.576715 0.103304 1
0.725567 0.102663 1
0.869566 0.10309 1
1 0.104295 1
1 0.105562 1
0 0.274418 1
0.0905623 0.265095 1
0.251896 0.261006 1
0.408408 0.257954 1
0.560555 0.255787 1
0.708721 0.254383 1
0.851957 0.253971 1
0.991257 0.254398 1
1 0.254963 1
0 0.425742 1
0.0780499 0.415717 1
0.238682 0.410819 1
0.39443 0.406928 1
0.545892 0.404013 1
0.693462 0.401938 1
0.836164 0.400931 1
0.974914 0.400748 1
1 0.400656 1
0 0.572961 1
0.0667124 0.562203 1
0.226825 0.556664 1
0.382055 0.552193 1
0.532937 0.548638 1
0.679896 0.545876 1
0.821927 0.544121 1
0.95993 0.54316 1
1 0.542229 1
0 0.716625 1
0.0568399 0.705226 1
0.216373 0.698955 1
0.370901 0.693736 1
0.521019 0.689357 1
0.667185 0.68574 1
0.808423 0.683116 1
0.945617 0.681285 1
1 0.67953 1
0 0.856168 1
0.0487373 0.843946 1
0.207523 0.836789 1
0.361227 0.830701 1
0.510567 0.825467 1
0.65597 0.821027 1
0.796506 0.817624 1
0.933043 0.815091 1
1 0.812741 1
0 0.991547 1
0.0410468 0.978485 1
0.199145 0.97052 1
0.352163 0.963668 1
0.500893 0.957763 1
0.645792 0.952743 1
0.785916 0.948852 1
0.922087 0.945937 1
1 0.943282 1
0 1 1
0.0317998 1 1
0.189471 1 1
0.342107 1 1
0.490532 1 1
0.635203 1 1
0.775723 1 1
0.911833 1 1
1 1 1
