src/LiveStudio.Agent/BuiltInAssets/ColorCards/v1/cube/1.增透美白.cube
TITLE "Generated by Resolve"
LUT_3D_SIZE 65
0 0 0
0 0 0
0 0 0
0.00831617 0 0
0.033341 0 0
0.0565194 0 0
0.0789197 0 0
0.100862 0 0
0.122515 0 0
0.143984 0 0
0.165347 0 0
0.186694 0 0
0.208148 0 0
0.229923 0 0
0.251987 0 0
0.273472 0 0
0.294591 0 0
0.31548 0 0
0.336187 0 0
0.356741 0 0
0.377157 0 0
0.397452 0 0
0.417624 0 0
0.437675 0 0
0.457603 0 0
0.477424 0 0
0.497108 0 0
0.516732 0 0
0.536263 0 0
0.555734 0 0
0.575113 0 0
0.59443 0 0
0.613657 0 0
0.632822 0 0
0.651896 0 0
0.670909 0 0
0.68983 0 0
0.708659 0 0
0.727413 0 0
0.746075 0 0
0.76463 0 0
0.783123 0 0
0.801511 0 0
0.819806 0 0
0.838041 0 0
0.856184 0 0
0.87425 0 0
0.892226 0 0
0.91014 0 0
0.927977 0 0
0.945769 0 0
0.9635 0 0
0.98117 0 0
0.99881 0 0
1 0 0
1 0 0
1 0 0
1 0 0
1 0 0
1 0 0
1 0 0
1 0 0
1 0 0
1 0 0
1 0 0
0 0 0
0 0 0
0 0 0
0.0068513 0 0
0.032105 0 0
0.0554971 0 0
0.0781415 0 0
0.100404 0 0
0.122454 0 0
0.144488 0 0
0.166735 0 0
0.189075 0 0
0.210651 0 0
0.231891 0 0
0.252903 0 0
0.273732 0 0
0.294408 0 0
0.314961 0 0
0.335409 0 0
0.355734 0 0
0.375967 0 0
0.396109 0 0
0.416129 0 0
0.436042 0 0
0.455863 0 0
0.475563 0 0
0.495171 0 0
0.514687 0 0
0.534142 0 0
0.553536 0 0
0.572854 0 0
0.592096 0 0
0.611276 0 0
0.630381 0 0
0.649409 0 0
0.668345 0 0
0.687221 0 0
0.70602 0 0
0.724712 0 0
0.743343 0 0
0.761868 0 0
0.780316 0 0
0.798672 0 0
0.816953 0 0
0.835142 0 0
0.853254 0 0
0.87129 0 0
0.88925 0 0
0.907134 0 0
0.924956 0 0
0.942718 0 0
0.960433 0 0
0.978088 0 0
0.995712 0 0
1 0 0
1 0 0
1 0 0
1 0 0
1 0 0
1 0 0
1 0 0
1 0 0
1 0 0
1 0 0
1 0 0
0 0 0
0 0 0
0 0 0
0.00520333 0 0
0.0308385 0 0
0.0546883 0 0
0.0780499 0 0
0.101396 0 0
0.124025 0 0
0.145968 0 0
0.167514 0 0
0.188754 0 0
0.209796 0 0
0.23064 0 0
0.251347 0 0
0.271931 0 0
0.292409 0 0
0.312779 0 0
0.333074 0 0
0.353262 0 0
0.373373 0 0
0.393393 0 0
0.413321 0 0
0.433143 0 0
0.452873 0 0
0.472496 0 0
0.492027 0 0
0.511467 0 0
0.530861 0 0
0.550195 0 0
0.569451 0 0
0.588647 0 0
0.607767 0 0
0.626825 0 0
0.645808 0 0
0.664714 0 0
0.683543 0 0
0.702296 0 0
0.720974 0 0
0.739559 0 0
0.758053 0 0
0.776471 0 0
0.794797 0 0
0.813046 0 0
0.83122 0 0
0.849317 0 0
0.867323 0 0
0.885267 0 0
0.903136 0 0
0.920943 0 0
0.938689 0 0
0.956374 0 0
0.974014 0 0
0.991608 0 0
1 0 0
1 0 0
1 0 0
1 0 0
1 0 0
1 0 0
1 0 0
1 0 0
1 0 0
1 0 0
1 0 0
0 0.00448615 0
0 0.00468452 0
0 0.00485237 0
0.00267033 0.00474556 0
0.0293126 0.005066 0
0.0534524 0.00546273 0
0.0764782 0.00578317 0
0.0988022 0.00607309 0
0.120653 0.00633249 0
0.142123 0.0065919 0
0.163333 0.00680552 0
0.184298 0.00701915 0
0.205097 0.00720226 0
0.225757 0.00735485 0
0.246296 0.00749218 0
0.266712 0.00761425 0
0.287053 0.00770581 0
0.307317 0.0077821 0
0.327504 0.0078584 0
0.347601 0.00790417 0
0.367605 0.00794995 0
0.387549 0.00799573 0
0.407385 0.00802625 0
0.427146 0.00805676 0
0.446799 0.00810254 0
0.466361 0.00813306 0
0.485832 0.00819409 0
0.505226 0.00823987 0
0.524559 0.00828565 0
0.543832 0.00831617 0
0.563058 0.00836194 0
0.582193 0.00840772 0
0.601282 0.00846876 0
0.620295 0.00851453 0
0.639246 0.00857557 0
0.658122 0.00865187 0
0.676921 0.00872816 0
0.695644 0.00881971 0
0.714275 0.00891127 0
0.732845 0.00901808 0
0.751308 0.00914015 0
0.769696 0.00929274 0
0.788006 0.00944533 0
0.806241 0.00961318 0
0.824384 0.00979629 0
0.842451 0.00999466 0
0.860456 0.010193 0
0.87837 0.0104219 0
0.896223 0.0106508 0
0.914015 0.0109102 0
0.931731 0.0111543 0
0.949416 0.011429 0
0.967041 0.0117037 0
0.984619 0.0119936 0
1 0.0122683 0
1 0.0125582 0
1 0.0128634 0
1 0.0131533 0
1 0.0134585 0
1 0.0137636 0
1 0.0140536 0
1 0.0142367 0
1 0.0145266 0
1 0.0148165 0
1 0.0151217 0
0 0.0303044 0
0 0.0312963 0
0 0.0315099 0
0.00205997 0.0307317 0
0.0277562 0.030045 0
0.0513008 0.0298161 0
0.0739147 0.0297093 0
0.0959335 0.0296788 0
0.117525 0.0296941 0
0.138796 0.0297246 0
0.159808 0.0297704 0
0.180621 0.0298009 0
0.201282 0.0298466 0
0.22182 0.0298772 0
0.242237 0.0298924 0
0.262562 0.0299077 0
0.282811 0.0299077 0
0.302983 0.0298924 0
0.323079 0.0298772 0
0.343099 0.0298619 0
0.363058 0.0298314 0
0.38291 0.0298009 0
0.402701 0.0297856 0
0.4224 0.0297551 0
0.442008 0.0297398 0
0.461524 0.0297246 0
0.480949 0.0297246 0
0.500298 0.0297246 0
0.5196 0.0297246 0
0.538842 0.0297246 0
0.558007 0.0297398 0
0.577127 0.0297398 0
0.596185 0.0297551 0
0.615167 0.0297856 0
0.634089 0.0298161 0
0.652934 0.0298466 0
0.671702 0.0299077 0
0.69041 0.0299687 0
0.709026 0.030045 0
0.727565 0.0301213 0
0.746029 0.0302281 0
0.764401 0.0303502 0
0.782681 0.0304875 0
0.8009 0.0306249 0
0.819028 0.0307927 0
0.837095 0.0309758 0
0.85507 0.0311589 0
0.872984 0.0313725 0
0.890822 0.0315862 0
0.908598 0.0318303 0
0.926299 0.0320745 0
0.943969 0.0323186 0
0.961593 0.032578 0
0.979156 0.0328527 0
0.996689 0.0331273 0
1 0.033402 0
1 0.0336919 0
1 0.0339818 0
1 0.0342718 0
1 0.0345617 0
1 0.0348363 0
1 0.0350042 0
1 0.0352941 0
1 0.035584 0
1 0.035874 0
0 0.0552682 0
0 0.0553292 0
0 0.0550393 0
0.0009308 0.0538949 0
0.0263981 0.052903 0
0.0497139 0.0524147 0
0.0721294 0.0521096 0
0.0939803 0.0519112 0
0.115434 0.0517739 0
0.136568 0.051667 0
0.157458 0.0515755 0
0.178164 0.0515145 0
0.198734 0.0514534 0
0.219165 0.0513771 0
0.239506 0.0513161 0
0.259754 0.0512551 0
0.279927 0.0511788 0
0.300038 0.0511025 0
0.320073 0.0510109 0
0.340032 0.0509346 0
0.35993 0.0508583 0
0.379751 0.0507668 0
0.399481 0.0506905 0
0.419135 0.0506142 0
0.438697 0.0505531 0
0.458183 0.0505074 0
0.477562 0.0504616 0
0.49688 0.0504311 0
0.516136 0.0504005 0
0.535348 0.05037 0
0.554498 0.0503395 0
0.573587 0.0503243 0
0.592615 0.050309 0
0.611566 0.050309 0
0.630472 0.050309 0
0.649287 0.0503243 0
0.66804 0.0503548 0
0.686717 0.0503853 0
0.705333 0.0504463 0
0.723842 0.0505226 0
0.74229 0.0505989 0
0.760647 0.0507057 0
0.778927 0.0508125 0
0.797116 0.0509499 0
0.815244 0.0511025 0
0.83328 0.0512551 0
0.851255 0.0514382 0
0.869154 0.0516365 0
0.886976 0.0518349 0
0.904738 0.0520638 0
0.922438 0.0522927 0
0.940093 0.0525368 0
0.957702 0.052781 0
0.975265 0.0530404 0
0.992782 0.0532998 0
1 0.0535744 0
1 0.0538491 0
1 0.0541238 0
1 0.0543984 0
1 0.0546731 0
1 0.054963 0
1 0.0551156 0
1 0.0553902 0
1 0.0556649 0
1 0.0559548 0
0 0.0779889 0
0 0.0777905 0
0 0.0772717 0
0 0.0759594 0
0.0251011 0.0747845 0
0.0482795 0.0741588 0
0.0705882 0.0737163 0
0.0923171 0.0733959 0
0.113664 0.0731365 0
0.134707 0.0729381 0
0.155505 0.072755 0
0.176135 0.0726024 0
0.196612 0.0724651 0
0.216999 0.0723278 0
0.237263 0.0722057 0
0.25745 0.0720684 0
0.277577 0.0719463 0
0.297627 0.071809 0
0.317601 0.0716716 0
0.337514 0.0715343 0
0.357366 0.0714122 0
0.377142 0.0712902 0
0.396841 0.0711681 0
0.416464 0.0710613 0
0.435996 0.0709544 0
0.455436 0.0708782 0
0.474784 0.0708019 0
0.494072 0.0707256 0
0.513313 0.0706645 0
0.532494 0.0706035 0
0.551614 0.0705577 0
0.570672 0.0705119 0
0.589685 0.0704814 0
0.608621 0.0704509 0
0.627497 0.0704356 0
0.646311 0.0704356 0
0.665034 0.0704356 0
0.683696 0.0704662 0
0.702296 0.0704967 0
0.72079 0.0705577 0
0.739223 0.0706188 0
0.757565 0.0707103 0
0.77583 0.0708171 0
0.794018 0.0709239 0
0.812116 0.0710613 0
0.830152 0.0712139 0
0.848112 0.0713817 0
0.865995 0.0715648 0
0.883818 0.0717479 0
0.901564 0.0719615 0
0.919264 0.0721904 0
0.936904 0.0724193 0
0.954498 0.0726482 0
0.972061 0.0728923 0
0.989563 0.0731518 0
1 0.0734112 0
1 0.0736858 0
1 0.0739452 0
1 0.0742199 0
1 0.0744945 0
1 0.0747539 0
1 0.0749065 0
1 0.0751659 0
1 0.0754406 0
1 0.0757153 0
0 0.0997787 0
0 0.0994278 0
0 0.0987716 0
0 0.0973526 0
0.0238346 0.0960403 0
0.0469215 0.0953078 0
0.0691386 0.0947738 0
0.0907912 0.0943618 0
0.112047 0.0940261 0
0.133028 0.0937514 0
0.153765 0.0935073 0
0.174319 0.0932784 0
0.194751 0.09308 0
0.215061 0.0928817 0
0.235294 0.0926986 0
0.255421 0.0925154 0
0.275502 0.0923323 0
0.295506 0.0921645 0
0.31545 0.0919814 0
0.335332 0.0918135 0
0.355138 0.0916457 0
0.374884 0.0914931 0
0.394537 0.0913405 0
0.41413 0.0912032 0
0.433631 0.0910658 0
0.453056 0.0909438 0
0.472374 0.0908522 0
0.491646 0.0907607 0
0.510842 0.0906691 0
0.530007 0.0905928 0
0.549111 0.0905165 0
0.568154 0.0904555 0
0.587152 0.0903944 0
0.606073 0.0903487 0
0.624918 0.0903182 0
0.643717 0.0903029 0
0.66244 0.0902876 0
0.681086 0.0903029 0
0.699657 0.0903182 0
0.718166 0.0903639 0
0.736568 0.0904097 0
0.754894 0.090486 0
0.773144 0.0905776 0
0.791333 0.0906844 0
0.80943 0.0908064 0
0.827451 0.0909438 0
0.845396 0.0910964 0
0.863264 0.0912642 0
0.881071 0.0914473 0
0.898817 0.0916457 0
0.916503 0.0918593 0
0.934142 0.0920729 0
0.951736 0.0923018 0
0.969268 0.092546 0
0.986786 0.0927901 0
1 0.0930495 0
1 0.0932937 0
1 0.0935531 0
1 0.0938125 0
1 0.0940871 0
1 0.0943465 0
1 0.0944839 0
1 0.0947433 0
1 0.0950027 0
1 0.0952621 0
0 0.120974 0
0 0.1205 0
0 0.119768 0
0 0.118257 0
0.0225681 0.116854 0
0.045594 0.11603 0
0.0677501 0.115419 0
0.0893416 0.114946 0
0.110536 0.114549 0
0.131456 0.114199 0
0.152148 0.113909 0
0.172656 0.113634 0
0.193027 0.113375 0
0.213306 0.113146 0
0.233478 0.112917 0
0.253574 0.112688 0
0.27361 0.112474 0
0.293584 0.112261 0
0.313497 0.112047 0
0.333333 0.111833 0
0.353124 0.111635 0
0.372839 0.111452 0
0.392462 0.111269 0
0.412024 0.111101 0
0.43151 0.110948 0
0.450904 0.110811 0
0.470207 0.110689 0
0.489448 0.110582 0
0.508644 0.110475 0
0.527794 0.110369 0
0.546883 0.110277 0
0.565911 0.110201 0
0.584878 0.110124 0
0.603784 0.110063 0
0.622629 0.110018 0
0.641413 0.109987 0
0.660121 0.109972 0
0.678752 0.109957 0
0.697307 0.109972 0
0.715801 0.109987 0
0.734203 0.110033 0
0.752514 0.110094 0
0.770764 0.11017 0
0.788922 0.110262 0
0.807004 0.110369 0
0.825025 0.110506 0
0.842954 0.110643 0
0.860822 0.110811 0
0.87863 0.110979 0
0.896361 0.111177 0
0.914046 0.111376 0
0.93167 0.111589 0
0.949248 0.111803 0
0.966796 0.112032 0
0.984283 0.112276 0
1 0.112505 0
1 0.112764 0
1 0.113008 0
1 0.113252 0
1 0.113512 0
1 0.113771 0
1 0.113893 0
1 0.114137 0
1 0.114382 0
1 0.114641 0
0 0.141741 0
0 0.141192 0
0 0.140368 0
0 0.138811 0
0.0213016 0.137331 0
0.0442817 0.136446 0
0.0663767 0.135775 0
0.0879225 0.135241 0
0.109087 0.134783 0
0.129946 0.134386 0
0.150591 0.134051 0
0.171069 0.13373 0
0.191409 0.13344 0
0.211643 0.133165 0
0.231785 0.132891 0
0.25185 0.132647 0
0.271839 0.132387 0
0.291783 0.132143 0
0.311681 0.131899 0
0.331502 0.13167 0
0.351247 0.131456 0
0.370932 0.131243 0
0.390555 0.131029 0
0.410086 0.130846 0
0.429557 0.130678 0
0.448936 0.13051 0
0.468223 0.130373 0
0.487449 0.130236 0
0.50663 0.130114 0
0.52575 0.130007 0
0.544823 0.1299 0
0.563836 0.129793 0
0.582803 0.129717 0
0.601694 0.129641 0
0.620523 0.12958 0
0.639292 0.129534 0
0.657984 0.129488 0
0.676616 0.129473 0
0.695171 0.129473 0
0.713634 0.129488 0
0.732021 0.129519 0
0.750332 0.129564 0
0.768566 0.129625 0
0.786725 0.129717 0
0.804807 0.129809 0
0.822812 0.129931 0
0.840742 0.130068 0
0.858595 0.13022 0
0.876387 0.130388 0
0.894118 0.130571 0
0.911788 0.130755 0
0.929412 0.130968 0
0.946975 0.131167 0
0.964508 0.131395 0
0.981994 0.131624 0
0.999451 0.131853 0
1 0.132097 0
1 0.132326 0
1 0.13257 0
1 0.132815 0
1 0.133059 0
1 0.133181 0
1 0.13341 0
1 0.133654 0
1 0.133883 0
0 0.162173 0
0 0.161563 0
0 0.160678 0
0 0.159091 0
0.0200351 0.157534 0
0.0429694 0.156588 0
0.0650339 0.155871 0
0.0865339 0.155291 0
0.107652 0.154803 0
0.128481 0.15436 0
0.149096 0.153979 0
0.169543 0.153628 0
0.189837 0.153307 0
0.210056 0.153002 0
0.230167 0.152697 0
0.250202 0.152407 0
0.270176 0.152132 0
0.290089 0.151858 0
0.309957 0.151598 0
0.329747 0.151354 0
0.349493 0.15111 0
0.369162 0.150866 0
0.388754 0.150652 0
0.408286 0.150439 0
0.427726 0.150256 0
0.447089 0.150072 0
0.466361 0.14992 0
0.485573 0.149783 0
0.504738 0.14963 0
0.523857 0.149508 0
0.542916 0.149386 0
0.561913 0.149279 0
0.58085 0.149172 0
0.599741 0.149096 0
0.618555 0.14902 0
0.637324 0.148959 0
0.656001 0.148913 0
0.674617 0.148882 0
0.693156 0.148867 0
0.71162 0.148867 0
0.730007 0.148898 0
0.748318 0.148928 0
0.766537 0.148989 0
0.78468 0.149065 0
0.802747 0.149157 0
0.820752 0.149264 0
0.838666 0.149401 0
0.856519 0.149538 0
0.874311 0.149691 0
0.892027 0.149859 0
0.909697 0.150042 0
0.927291 0.15024 0
0.944854 0.150439 0
0.962386 0.150652 0
0.979858 0.150866 0
0.997314 0.151095 0
1 0.151308 0
1 0.151553 0
1 0.151781 0
1 0.15201 0
1 0.152239 0
1 0.152346 0
1 0.152575 0
1 0.152804 0
1 0.153017 0
0 0.182345 0
0 0.181674 0
0 0.180758 0
0 0.179156 0
0.0187381 0.177523 0
0.0416571 0.176532 0
0.0636759 0.175784 0
0.0851606 0.175158 0
0.106249 0.174624 0
0.127047 0.174166 0
0.147631 0.173754 0
0.168032 0.173373 0
0.188327 0.173007 0
0.208499 0.172686 0
0.228595 0.172351 0
0.2486 0.172045 0
0.268559 0.171756 0
0.288457 0.171466 0
0.308309 0.171176 0
0.328084 0.170901 0
0.347799 0.170642 0
0.367453 0.170397 0
0.387045 0.170153 0
0.406546 0.16994 0
0.425986 0.169726 0
0.445335 0.169543 0
0.464591 0.16936 0
0.483787 0.169207 0
0.502937 0.169055 0
0.522042 0.168917 0
0.541085 0.16878 0
0.560082 0.168658 0
0.579019 0.168551 0
0.597894 0.168444 0
0.616709 0.168368 0
0.635447 0.168292 0
0.654124 0.168231 0
0.672724 0.1682 0
0.691264 0.16817 0
0.709712 0.16817 0
0.728099 0.168185 0
0.746395 0.168215 0
0.764614 0.168261 0
0.782742 0.168322 0
0.800809 0.168414 0
0.818799 0.168505 0
0.836713 0.168627 0
0.854551 0.168765 0
0.872328 0.168917 0
0.890043 0.16907 0
0.907698 0.169238 0
0.925292 0.169421 0
0.942855 0.169619 0
0.960357 0.169818 0
0.977829 0.170031 0
0.99527 0.17023 0
1 0.170443 0
1 0.170672 0
1 0.170886 0
1 0.171099 0
1 0.171328 0
1 0.17142 0
1 0.171633 0
1 0.171847 0
1 0.172061 0
0 0.202304 0
0 0.201617 0
0 0.200656 0
0 0.199039 0
0.0174258 0.197345 0
0.0403143 0.196323 0
0.0623178 0.195529 0
0.083772 0.194873 0
0.104829 0.194308 0
0.125612 0.19382 0
0.146166 0.193378 0
0.166567 0.192981 0
0.186831 0.192599 0
0.206989 0.192248 0
0.227054 0.191897 0
0.247059 0.191577 0
0.266987 0.191257 0
0.28687 0.190951 0
0.306691 0.190661 0
0.326467 0.190372 0
0.346166 0.190082 0
0.365805 0.189822 0
0.385382 0.189563 0
0.404868 0.189334 0
0.424292 0.189105 0
0.443626 0.188907 0
0.462882 0.188724 0
0.482063 0.188556 0
0.501198 0.188388 0
0.520302 0.188235 0
0.53933 0.188098 0
0.558312 0.187961 0
0.577249 0.187839 0
0.596109 0.187732 0
0.614908 0.18764 0
0.633646 0.187564 0
0.652323 0.187488 0
0.670924 0.187442 0
0.689448 0.187411 0
0.707897 0.187396 0
0.726253 0.187396 0
0.744549 0.187427 0
0.762753 0.187457 0
0.78088 0.187518 0
0.798947 0.187594 0
0.816922 0.187686 0
0.834821 0.187793 0
0.852659 0.187915 0
0.87042 0.188052 0
0.888121 0.188205 0
0.90576 0.188357 0
0.923369 0.18854 0
0.940902 0.188708 0
0.958404 0.188907 0
0.97586 0.189105 0
0.993301 0.189303 0
1 0.189502 0
1 0.189715 0
1 0.189929 0
1 0.190127 0
1 0.190341 0
1 0.190433 0
1 0.190631 0
1 0.190829 0
1 0.191028 0
0 0.22211 0
0 0.221378 0
0 0.220401 0
0 0.218708 0
0.016083 0.217014 0
0.0389715 0.215961 0
0.0609598 0.215152 0
0.0823835 0.214466 0
0.103426 0.213886 0
0.124193 0.213367 0
0.144732 0.212909 0
0.165103 0.212482 0
0.185336 0.212085 0
0.205493 0.211704 0
0.225544 0.211353 0
0.245533 0.211017 0
0.265446 0.210681 0
0.285313 0.210361 0
0.305119 0.21004 0
0.32488 0.209735 0
0.344564 0.209445 0
0.364202 0.209171 0
0.383749 0.208896 0
0.403235 0.208652 0
0.422644 0.208423 0
0.441978 0.208209 0
0.461219 0.208011 0
0.480385 0.207828 0
0.499519 0.20766 0
0.518608 0.207492 0
0.537636 0.20734 0
0.556603 0.207202 0
0.575525 0.207065 0
0.594385 0.206943 0
0.613184 0.206851 0
0.631907 0.20676 0
0.650568 0.206683 0
0.669154 0.206622 0
0.687678 0.206592 0
0.706111 0.206561 0
0.724483 0.206561 0
0.742763 0.206561 0
0.760952 0.206607 0
0.77908 0.206638 0
0.797131 0.206714 0
0.815091 0.20679 0
0.83299 0.206882 0
0.850813 0.206989 0
0.868574 0.207126 0
0.886259 0.207263 0
0.903899 0.207416 0
0.921477 0.207568 0
0.93901 0.207736 0
0.956497 0.207919 0
0.973953 0.208103 0
