src/LiveStudio.Agent/BuiltInAssets/ColorCards/v1/cube/1.增透美白.cube
TITLE "Generated by Resolve"
LUT_3D_SIZE 5
0 0 0
0.294591 0 0
0.613657 0 0
0.91014 0 0
1 0 0
0 0.280766 0
0.260929 0.268513 0
0.570581 0.264408 0
0.863172 0.263966 0
1 0.266133 0
0 0.583307 0
0.239857 0.568078 0
0.546853 0.56109 0
0.836881 0.557794 0
1 0.557275 0
0 0.870207 0
0.224674 0.852277 0
0.529 0.842374 0
0.816068 0.835843 0
1 0.831983 0
0 1 0
0.210636 1 0
0.512169 1 0
0.79704 1 0
1 1 0
0 0 0.304692
0.293614 0 0.309133
0.609476 0 0.311574
0.905028 0 0.314443
1 0 0.319265
0 0.275792 0.288182
0.25861 0.262806 0.269505
0.56466 0.258839 0.271473
0.856992 0.258091 0.270832
1 0.259892 0.27277
0 0.57734 0.273991
0.233158 0.561776 0.258579
0.539956 0.554559 0.251484
0.82974 0.550973 0.248051
1 0.550134 0.247333
0 0.86331 0.265522
0.217014 0.845029 0.247379
0.521004 0.834775 0.237263
0.807782 0.827893 0.230533
1 0.823728 0.22652
0 1 0.258625
0.201892 1 0.237217
0.503273 1 0.224262
0.788052 1 0.215259
1 1 0.210224
0 0 0.634089
0.294087 0 0.636698
0.608087 0 0.637217
0.902983 0 0.639368
1 0 0.643839
0 0.273915 0.612955
0.252689 0.261036 0.600168
0.561883 0.256413 0.595651
0.85391 0.255314 0.594659
1 0.256809 0.596246
0 0.574456 0.597681
0.229618 0.558633 0.581979
0.536187 0.551156 0.574624
0.825727 0.54728 0.570855
1 0.546105 0.569787
0 0.859525 0.58822
0.212451 0.840894 0.569711
0.516121 0.830274 0.559213
0.802609 0.823041 0.552117
1 0.818631 0.547814
0 1 0.580118
0.196292 1 0.55845
0.497551 1 0.545281
0.782269 1 0.536156
1 1 0.53109
0 0 0.946014
0.295338 0 0.942061
0.608087 0 0.941268
0.902495 0 0.94287
1 0 0.947051
0 0.273625 0.916335
0.251759 0.260487 0.903273
0.560693 0.255573 0.898451
0.852415 0.254124 0.897078
1 0.255344 0.898375
0 0.573159 0.899977
0.22768 0.557107 0.884016
0.534035 0.549371 0.876371
0.823316 0.54519 0.872282
1 0.543648 0.870832
0 0.857343 0.889509
0.209461 0.838331 0.870619
0.512825 0.827344 0.859739
0.799023 0.819806 0.852293
1 0.815137 0.84773
0 1 0.880201
0.19234 1 0.858289
0.493477 1 0.844968
0.778164 1 0.835737
1 1 0.83061
0 0 1
0.297169 0 1
0.609018 0 1
0.903075 0 1
1 0 1
0 0.274418 1
0.251896 0.261006 1
0.560555 0.255787 1
0.851957 0.253971 1
1 0.254963 1
0 0.572961 1
0.226825 0.556664 1
0.532937 0.548638 1
0.821927 0.544121 1
1 0.542229 1
0 0.856168 1
0.207523 0.836789 1
0.510567 0.825467 1
0.796506 0.817624 1
1 0.812741 1
0 1 1
0.189471 1 1
0.490532 1 1
0.775723 1 1
1 1 1
