src/LiveStudio.Agent/BuiltInAssets/ColorCards/v1/cube/4.去雾.cube
#Generated by Picture Instruments - Look Converter
LUT_3D_SIZE 5
0.0000 0.0000 0.0000
0.2314 0.0000 0.0000
0.4745 0.0000 0.0039
0.7216 0.0000 0.0000
0.9922 0.0000 0.0000
0.0000 0.2157 0.0000
0.2118 0.2078 0.0000
0.4706 0.1961 0.0000
0.7294 0.1765 0.0000
0.9922 0.1529 0.0000
0.0000 0.4471 0.0000
0.1647 0.4510 0.0000
0.4588 0.4549 0.0000
0.7412 0.4706 0.0000
0.9922 0.4627 0.0000
0.0000 0.7373 0.0000
0.1490 0.7412 0.0000
0.4784 0.7373 0.0000
0.7451 0.7412 0.0000
0.9922 0.7412 0.0000
0.0000 0.9961 0.0000
0.0706 0.9961 0.0000
0.4627 0.9922 0.0000
0.7451 0.9961 0.0000
0.9961 0.9961 0.0000
0.0000 0.0000 0.2392
0.2275 0.0000 0.2275
0.4784 0.0000 0.2157
0.7333 0.0000 0.1804
0.9961 0.0000 0.1333
0.0000 0.2078 0.2157
0.2078 0.2000 0.2118
0.4706 0.1608 0.1882
0.7333 0.0784 0.1451
0.9961 0.0000 0.1137
0.0000 0.4549 0.1725
0.1569 0.4549 0.1725
0.4588 0.4431 0.1529
0.7333 0.4510 0.1294
0.9961 0.4510 0.1020
0.0000 0.7373 0.1255
0.1059 0.7373 0.1294
0.4588 0.7373 0.1137
0.7373 0.7373 0.1059
0.9922 0.7373 0.0549
0.0000 0.9961 0.0431
0.0000 0.9961 0.0039
0.4510 0.9961 0.0000
0.7412 0.9922 0.0000
0.9961 0.9961 0.0000
0.0000 0.0000 0.4863
0.2314 0.0039 0.4863
0.4784 0.0000 0.4706
0.7451 0.0000 0.4863
0.9961 0.0000 0.4784
0.0000 0.1882 0.4824
0.1922 0.1765 0.4784
0.4706 0.1451 0.4667
0.7412 0.1137 0.4745
0.9922 0.0118 0.4667
0.0000 0.4588 0.4745
0.1647 0.4588 0.4706
0.4627 0.4549 0.4667
0.7451 0.4510 0.4667
0.9922 0.4471 0.4627
0.0000 0.7412 0.4588
0.0000 0.7412 0.4667
0.4549 0.7412 0.4627
0.7451 0.7333 0.4549
0.9961 0.7333 0.4471
0.0000 0.9961 0.4510
0.0000 0.9961 0.4431
0.4431 0.9922 0.4431
0.7412 0.9961 0.4353
0.9961 0.9961 0.4235
0.0039 0.0000 0.7451
0.2078 0.0039 0.7451
0.4745 0.0000 0.7412
0.7412 0.0000 0.7451
0.9961 0.0000 0.7451
0.0000 0.1255 0.7529
0.1569 0.1098 0.7451
0.4745 0.0667 0.7451
0.7451 0.0196 0.7373
0.9961 0.0000 0.7490
0.0000 0.4510 0.7529
0.0235 0.4471 0.7412
0.4471 0.4353 0.7451
0.7451 0.4275 0.7373
0.9961 0.4235 0.7412
0.0000 0.7373 0.7451
0.0000 0.7294 0.7490
0.4392 0.7333 0.7451
0.7412 0.7333 0.7451
0.9961 0.7294 0.7412
0.0000 0.9961 0.7412
0.0000 0.9961 0.7412
0.4353 0.9961 0.7412
0.7412 0.9961 0.7412
0.9922 0.9922 0.7412
0.0000 0.0000 0.9922
0.2000 0.0000 0.9961
0.4784 0.0000 0.9961
0.7451 0.0000 0.9961
0.9961 0.0000 0.9961
0.0000 0.0000 0.9922
0.0745 0.0000 0.9961
0.4588 0.0000 0.9961
0.7412 0.0000 0.9961
0.9961 0.0000 0.9961
0.0000 0.4314 0.9961
0.0000 0.4275 0.9922
0.4353 0.4235 0.9961
0.7373 0.4196 0.9922
0.9922 0.4118 0.9922
0.0000 0.7255 0.9961
0.0000 0.7294 0.9961
0.4353 0.7294 0.9961
0.7373 0.7333 0.9961
0.9961 0.7294 0.9961
0.0000 0.9922 0.9922
0.0000 0.9961 0.9961
0.4353 0.9961 0.9922
0.7490 0.9922 0.9922
0.9961 0.9961 0.9922
