src/LiveStudio.Agent/BuiltInAssets/ColorCards/v1/cube/slog3-cine.cube
TITLE "Generated by Resolve"
LUT_3D_SIZE 65
0.0081178 0.00753796 0.00704967
0.0139925 0.00700389 0.00691234
0.0217288 0.00646983 0.0068513
0.0297093 0.00588998 0.00672923
0.0380407 0.00537118 0.00660716
0.0470741 0.00486763 0.00653086
0.0561074 0.00436408 0.00640879
0.0652476 0.00381476 0.00630198
0.0743572 0.00332647 0.0062562
0.0835889 0.00285344 0.00614939
0.0931716 0.00233463 0.00608835
0.103487 0.00183108 0.00601205
0.117342 0.0011902 0.00596628
0.131334 0.000534066 0.00588998
0.147112 0 0.00585946
0.163226 0 0.00572213
0.181415 0 0.00563058
0.199893 0 0.00550851
0.221759 0 0.00544747
0.244282 0 0.00531014
0.27097 0 0.0053254
0.299001 0 0.00543221
0.329747 0 0.00669871
0.361379 0 0.00810254
0.394491 0 0.00987259
0.42829 0 0.0118257
0.461982 0 0.014023
0.495781 0 0.0163882
0.529793 0 0.0190738
0.563455 0 0.021973
0.597009 0 0.0251316
0.630701 0 0.0286107
0.663981 0 0.0322728
0.697322 0 0.0362707
0.730205 0 0.0404517
0.763027 0 0.0450446
0.795361 0 0.0497444
0.827497 0 0.0548257
0.859419 0 0.0599069
0.890455 0 0.0650034
0.921386 0 0.0700694
0.951064 0 0.0749371
0.977691 0 0.0796368
0.989609 0 0.0836805
1 0 0.087602
1 0 0.0908064
1 0 0.0939345
1 0 0.0964675
1 0 0.09897
1 0 0.100862
1 0 0.102724
1 0 0.104143
1 0 0.105516
1 0 0.106432
1 0 0.107317
1 0 0.108003
1 0 0.108598
1 0 0.10898
1 0 0.1093
1 0 0.109514
1 0 0.109712
1 0 0.109895
1 0 0.110124
1 0 0.11046
1 0 0.110994
0.00703441 0.0132906 0.0068513
0.0120851 0.0127108 0.00672923
0.019791 0.0121157 0.00665293
0.0278325 0.01149 0.00654612
0.0362249 0.0109102 0.00642405
0.0452735 0.0103304 0.00633249
0.0543374 0.00972 0.00621042
0.0636149 0.00914015 0.00608835
0.0728923 0.00856031 0.00602731
0.0822919 0.00799573 0.0059205
0.0919966 0.00737011 0.00582895
0.102358 0.00675975 0.00575265
0.116365 0.00590524 0.0056611
0.130495 0.00502022 0.00553903
0.146456 0.00402838 0.00549325
0.162676 0.00303655 0.00543221
0.181125 0.00196841 0.00547799
0.199817 0.000991836 0.00550851
0.221897 0.000137331 0.00561532
0.24445 0 0.00550851
0.271183 0 0.00553903
0.299229 0 0.00547799
0.329747 0 0.00669871
0.361639 0 0.0081178
0.394491 0 0.00987259
0.42829 0 0.0118257
0.461982 0 0.014023
0.496056 0 0.0164034
0.529793 0 0.0190738
0.563455 0 0.021973
0.597269 0 0.0251621
0.630701 0 0.0286107
0.663981 0 0.0322728
0.697322 0 0.0362707
0.730205 0 0.0404517
0.763027 0 0.0450446
0.795361 0 0.0497444
0.827497 0 0.0548257
0.859419 0 0.0599069
0.890715 0 0.0650339
0.92163 0 0.0700999
0.951064 0 0.0749371
0.977691 0 0.0796368
0.989609 0 0.0836805
1 0 0.087602
1 0 0.0908064
1 0 0.0939345
1 0 0.0964675
1 0 0.09897
1 0 0.100862
1 0 0.102724
1 0 0.104143
1 0 0.105516
1 0 0.106432
1 0 0.107317
1 0 0.108003
1 0 0.108598
1 0 0.10898
1 0 0.1093
1 0 0.109514
1 0 0.109712
1 0 0.109895
1 0 0.110124
1 0 0.11046
1 0 0.110994
0.00584421 0.0205844 0.00663767
0.00999466 0.0198825 0.0065156
0.0177462 0.0191501 0.00645457
0.025742 0.0183566 0.00634775
0.0341497 0.0176242 0.00622568
0.0432288 0.0168612 0.00614939
0.0523079 0.0161135 0.00601205
0.0617685 0.015259 0.00590524
0.0712444 0.0144656 0.00582895
0.080827 0.0136568 0.00570687
0.0906844 0.0128023 0.0055848
0.101289 0.0118715 0.00547799
0.115389 0.0105592 0.00534066
0.129534 0.00946059 0.00517281
0.145754 0.00816358 0.00511177
0.161959 0.0068513 0.00502022
0.180514 0.00534066 0.00505074
0.199283 0.00390631 0.00508125
0.221469 0.00238041 0.00518807
0.244236 0.00112917 0.0052491
0.271 0.000335698 0.00550851
0.299229 0 0.00569161
0.330007 0 0.00671397
0.361639 0 0.0081178
0.394766 0 0.00988785
0.42829 0 0.0118257
0.462257 0 0.0140383
0.496056 0 0.0164034
0.529793 0 0.0190738
0.563729 0 0.0220035
0.597269 0 0.0251621
0.630701 0 0.0286107
0.663981 0 0.0322728
0.697322 0 0.0362707
0.730205 0 0.0404517
0.763027 0 0.0450446
0.795361 0 0.0497444
0.827497 0 0.0548257
0.859419 0 0.0599069
0.890715 0 0.0650339
0.92163 0 0.0700999
0.951064 0 0.0749371
0.977691 0 0.0796368
0.989609 0 0.0836805
1 0 0.087602
1 0 0.0908064
1 0 0.0939345
1 0 0.0964675
1 0 0.09897
1 0 0.100862
1 0 0.102724
1 0 0.104143
1 0 0.105516
1 0 0.106432
1 0 0.107317
1 0 0.108003
1 0 0.108598
1 0 0.10898
1 0 0.1093
1 0 0.109514
1 0 0.109712
1 0 0.109895
1 0 0.110124
1 0 0.11046
1 0 0.110994
0.00454719 0.0279088 0.00637827
0.00779736 0.0272068 0.00627146
0.0155795 0.0264744 0.00621042
0.0235752 0.0256962 0.00611887
0.032105 0.0249638 0.00601205
0.0411841 0.0242008 0.00595102
0.0502632 0.0234531 0.00584421
0.0598764 0.0225986 0.00573739
0.0695048 0.0218051 0.00567636
0.0792554 0.0209812 0.00556954
0.0892805 0.0201267 0.00546273
0.0999619 0.0191806 0.00537118
0.11426 0.0178073 0.00523384
0.128588 0.0162356 0.00505074
0.144854 0.0143893 0.00491341
0.161334 0.0123293 0.00474556
0.179873 0.00976577 0.00468452
0.198764 0.00689708 0.004654
0.220874 0.00456245 0.00474556
0.243702 0.00259403 0.00480659
0.270756 0.0011902 0.00508125
0.299062 0.000198367 0.00531014
0.329824 0 0.00642405
0.361883 0 0.0081178
0.394766 0 0.00988785
0.42829 0 0.0118257
0.462257 0 0.0140383
0.496056 0 0.0164034
0.529793 0 0.0190738
0.563729 0 0.0220035
0.597269 0 0.0251621
0.630701 0 0.0286107
0.66424 0 0.0323033
0.697322 0 0.0362707
0.730205 0 0.0404517
0.763027 0 0.0450446
0.795361 0 0.0497444
0.827497 0 0.0548257
0.859419 0 0.0599069
0.890715 0 0.0650339
0.92163 0 0.0700999
0.951064 0 0.0749371
0.977691 0 0.0796368
0.989609 0 0.0836805
1 0 0.087602
1 0 0.0908064
1 0 0.0939345
1 0 0.0964675
1 0 0.09897
1 0 0.100862
1 0 0.102724
1 0 0.104143
1 0 0.105516
1 0 0.106432
1 0 0.107317
1 0 0.108003
1 0 0.108598
1 0 0.10898
1 0 0.1093
1 0 0.109514
1 0 0.109712
1 0 0.109895
1 0 0.110124
1 0 0.11046
1 0 0.110994
0.00311284 0.0359655 0.00607309
0.00537118 0.035172 0.0059968
0.0133211 0.0343481 0.00593576
0.0213169 0.0335546 0.00584421
0.0298466 0.0326696 0.00575265
0.0389563 0.0318151 0.00572213
0.0480507 0.0309911 0.00563058
0.0578622 0.030045 0.00553903
0.0676585 0.02916 0.00549325
0.0775921 0.0283207 0.00540169
0.0877699 0.027451 0.00531014
0.0987259 0.0265049 0.00523384
0.11313 0.0251316 0.00511177
0.127626 0.0235599 0.00494392
0.14406 0.0217288 0.00480659
0.160525 0.0196841 0.00462348
0.179187 0.0170901 0.00447089
0.198154 0.0142824 0.00433356
0.220401 0.0106203 0.00434882
0.24332 0.00660716 0.00436408
0.270512 0.00244144 0.00466926
0.29865 0.000396735 0.00491341
0.329732 0 0.00582895
0.361593 0 0.00756847
0.39469 0 0.00970474
0.42855 0 0.011841
0.462257 0 0.0140383
0.496056 0 0.0164034
0.530068 0 0.019089
0.563729 0 0.0220035
0.597269 0 0.0251621
0.630701 0 0.0286107
0.66424 0 0.0323033
0.697322 0 0.0362707
0.730205 0 0.0404517
0.763027 0 0.0450446
0.795361 0 0.0497444
0.827497 0 0.0548257
0.859419 0 0.0599069
0.890715 0 0.0650339
0.92163 0 0.0700999
0.951064 0 0.0749371
0.977691 0 0.0796368
0.989609 0 0.0836805
1 0 0.087602
1 0 0.0908064
1 0 0.0939345
1 0 0.0964675
1 0 0.09897
1 0 0.100862
1 0 0.102724
1 0 0.104143
1 0 0.105516
1 0 0.106432
1 0 0.107317
1 0 0.108003
1 0 0.108598
1 0 0.10898
1 0 0.1093
1 0 0.109514
1 0 0.109712
1 0 0.109895
1 0 0.110124
1 0 0.11046
1 0 0.110994
0.0015259 0.044358 0.00570687
0.00280766 0.0435492 0.0056611
0.0108034 0.0427253 0.00561532
0.0188144 0.0419165 0.00552377
0.0273594 0.0410315 0.00546273
0.0364691 0.040177 0.00543221
0.045655 0.039353 0.00535592
0.0556191 0.0384833 0.00529488
0.0655985 0.0375219 0.0052491
0.0757458 0.0366217 0.00517281
0.0861524 0.0356603 0.00509651
0.0972305 0.0346227 0.00502022
0.111864 0.0331273 0.00494392
0.126543 0.0314946 0.00480659
0.143053 0.0294194 0.00466926
0.159701 0.0271916 0.00448615
0.1785 0.0244297 0.00424201
0.197543 0.0215915 0.00399786
0.219898 0.0179446 0.00390631
0.242908 0.0139162 0.00390631
0.269978 0.00932326 0.00416571
0.298436 0.00457771 0.00445563
0.329351 0.000823987 0.00520333
0.361532 0 0.00695811
0.394675 0 0.00909438
0.428428 0 0.0114748
0.462257 0 0.0140383
0.49633 0 0.016434
0.530068 0 0.019089
0.563729 0 0.0220035
0.597269 0 0.0251621
0.630961 0 0.0286259
0.66424 0 0.0323033
0.697322 0 0.0362707
0.73048 0 0.0404822
0.763027 0 0.0450446
0.795621 0 0.0497902
0.827497 0 0.0548257
0.859419 0 0.0599069
0.890715 0 0.0650339
0.92163 0 0.0700999
0.951064 0 0.0749371
0.977691 0 0.0796368
0.989609 0 0.0836805
1 0 0.087602
1 0 0.0908064
1 0 0.0939345
1 0 0.0964675
1 0 0.09897
1 0 0.100862
1 0 0.102724
1 0 0.104143
1 0 0.105516
1 0 0.106432
1 0 0.107317
1 0 0.108003
1 0 0.108598
1 0 0.10898
1 0 0.1093
1 0 0.109514
1 0 0.109712
1 0 0.109895
1 0 0.110124
1 0 0.11046
1 0 0.110994
0.000442512 0.0530404 0.00529488
0.00103761 0.0521859 0.00526436
0.00863661 0.0513008 0.00521859
0.0164034 0.0504005 0.00518807
0.0249485 0.049424 0.00514229
0.0340734 0.0485542 0.00509651
0.043183 0.047715 0.005066
0.0532998 0.0468452 0.00500496
0.0634623 0.0458839 0.00494392
0.0737926 0.0449683 0.00491341
0.0843824 0.0440223 0.00485237
0.0956741 0.0429694 0.00477607
0.110506 0.0414893 0.0047303
0.125246 0.0398566 0.00462348
0.142061 0.0377813 0.00451667
0.158846 0.0355535 0.00434882
0.177813 0.0327306 0.00415045
0.196857 0.0296788 0.00386053
0.219379 0.0257267 0.00363165
0.242496 0.0213626 0.00347906
0.269688 0.0161288 0.00364691
0.297978 0.0108186 0.00396735
0.329213 0.00567636 0.00451667
0.361181 0.00181582 0.00630198
0.3944 0 0.00846876
0.428199 0 0.0108339
0.462364 0 0.0135958
0.49633 0 0.016434
0.530068 0 0.019089
0.563729 0 0.0220035
0.597269 0 0.0251621
0.630961 0 0.0286259
0.66424 0 0.0323033
0.697322 0 0.0362707
0.73048 0 0.0404822
0.763027 0 0.0450446
0.795621 0 0.0497902
0.827497 0 0.0548257
0.859419 0 0.0599069
0.890715 0 0.0650339
0.92163 0 0.0700999
0.951064 0 0.0749371
0.977691 0 0.0796368
0.989609 0 0.0836805
1 0 0.087602
1 0 0.0908064
1 0 0.0939651
1 0 0.0964675
1 0 0.09897
1 0 0.100862
1 0 0.102724
1 0 0.104143
1 0 0.105516
1 0 0.106432
1 0 0.107317
1 0 0.108003
1 0 0.108598
1 0 0.10898
1 0 0.1093
1 0 0.109514
1 0 0.109712
1 0 0.109895
1 0 0.110124
1 0 0.11046
1 0 0.110994
0.000213626 0.0622263 0.00479133
0.000747692 0.0613718 0.00476081
0.00729381 0.060502 0.00474556
0.0139925 0.0596323 0.00474556
0.0220645 0.0586557 0.00471504
0.0311894 0.0577554 0.00466926
0.0403143 0.0568551 0.00466926
0.0506294 0.0559243 0.00462348
0.0610513 0.054902 0.00459297
0.0716259 0.0539101 0.00457771
0.0824903 0.0528878 0.00453193
0.0940719 0.0517739 0.00448615
0.109056 0.0501717 0.00447089
0.124025 0.0484169 0.00440986
0.140932 0.0461738 0.0043183
0.157885 0.0439155 0.00418097
0.176989 0.0410925 0.00402838
0.196155 0.0380407 0.00375372
0.218784 0.0340734 0.00352483
0.241825 0.0297398 0.00323491
0.269337 0.0241398 0.00326543
0.297734 0.0177768 0.0034638
0.328801 0.0104524 0.00402838
0.36083 0.00474556 0.00561532
0.394354 0.00151064 0.00779736
0.428214 0.000106813 0.010193
0.46215 0 0.0129397
0.496178 0 0.0159609
0.530068 0 0.019089
0.563729 0 0.0220035
0.597543 0 0.0251926
0.630961 0 0.0286259
0.66424 0 0.0323033
0.697322 0 0.0362707
0.73048 0 0.0404822
0.763027 0 0.0450446
0.795621 0 0.0497902
0.827497 0 0.0548257
0.859419 0 0.0599069
0.890715 0 0.0650339
0.92163 0 0.0700999
0.951064 0 0.0749371
0.977691 0 0.0796368
0.989609 0 0.0836805
1 0 0.087602
1 0 0.0908064
1 0 0.0939651
1 0 0.0964828
1 0 0.09897
1 0 0.100862
1 0 0.102724
1 0 0.104143
1 0 0.105516
1 0 0.106432
1 0 0.107317
1 0 0.108003
1 0 0.108598
1 0 0.10898
1 0 0.1093
1 0 0.109514
1 0 0.109712
1 0 0.109895
1 0 0.110124
1 0 0.11046
1 0 0.110994
0 0.0715496 0.00424201
0.00047303 0.0705577 0.00424201
0.00595102 0.0697185 0.00424201
0.0116121 0.068864 0.00427253
0.0192416 0.0679789 0.00424201
0.0283665 0.0670024 0.00422675
0.0375067 0.0661021 0.00421149
0.0479438 0.0651713 0.00419623
0.058381 0.0642557 0.00418097
0.0691691 0.0632029 0.00418097
0.080293 0.0621958 0.00416571
0.0921645 0.0610819 0.00415045
0.107408 0.0595254 0.0041352
0.122621 0.0578012 0.00408942
0.139742 0.0555734 0.00404364
0.156756 0.053193 0.00395209
0.176043 0.0501869 0.00384527
0.195377 0.046891 0.00363165
0.218189 0.0426032 0.0033875
0.241321 0.0380865 0.00302129
0.268742 0.032517 0.00291447
0.29723 0.0261845 0.00291447
0.328618 0.0183413 0.00343328
0.360708 0.00935378 0.00488289
0.394034 0.00306706 0.0071107
0.427939 0.000534066 0.00950637
0.461921 0 0.0122835
0.495949 0 0.0153048
0.529931 0 0.0187076
0.564004 0 0.0220188
0.597543 0 0.0251926
0.630961 0 0.0286259
0.66424 0 0.0323033
0.697322 0 0.0362707
0.73048 0 0.0404822
0.763027 0 0.0450446
0.795621 0 0.0497902
0.827497 0 0.0548257
0.859419 0 0.0599069
0.890715 0 0.0650339
0.92163 0 0.0700999
0.951064 0 0.0749371
0.977691 0 0.0796368
0.989609 0 0.0836805
1 0 0.087602
1 0 0.0908064
1 0 0.0939651
1 0 0.0964828
1 0 0.09897
1 0 0.100862
1 0 0.102724
1 0 0.104143
1 0 0.105516
1 0 0.106432
1 0 0.107317
1 0 0.108003
1 0 0.108598
1 0 0.10898
1 0 0.1093
1 0 0.109514
1 0 0.109712
1 0 0.109895
1 0 0.110124
1 0 0.11046
1 0 0.110994
0 0.0814374 0.0034638
0.000411994 0.0804456 0.00350958
0.00430304 0.0795453 0.00354009
0.0084535 0.078645 0.00358587
0.0155947 0.0777295 0.00360113
0.0248264 0.0766918 0.00361639
0.0340581 0.0757458 0.00364691
0.0446632 0.0747845 0.00366217
0.0552529 0.0738231 0.00366217
0.0663615 0.0727245 0.00370794
0.0779736 0.0716716 0.0037232
0.0901503 0.0705119 0.00375372
0.105745 0.0688945 0.00376898
0.121218 0.0671702 0.00373846
0.138399 0.0650645 0.00373846
0.155749 0.062623 0.00369268
0.175051 0.0596628 0.00361639
0.194507 0.0564126 0.00344854
0.217472 0.0521706 0.00326543
0.240742 0.0475013 0.00294499
0.26833 0.041474 0.00268559
0.296941 0.0346075 0.00238041
0.328176 0.0267338 0.00282292
0.360296 0.0177768 0.0040589
0.393698 0.00857557 0.00631724
0.427665 0.000961318 0.00881971
0.461677 0 0.0115816
0.49601 0 0.0146487
0.530007 0 0.0180667
0.563943 0 0.0218204
0.597543 0 0.0251926
0.630961 0 0.0286259
0.66424 0 0.0323033
0.697597 0 0.0363012
0.73048 0 0.0404822
0.763027 0 0.0450446
0.795621 0 0.0497902
0.827497 0 0.0548257
0.859419 0 0.0599069
0.890715 0 0.0650339
0.92163 0 0.0700999
0.951064 0 0.0749371
0.977691 0 0.0796368
0.989609 0 0.0836805
1 0 0.087602
1 0 0.0908064
1 0 0.0939651
1 0 0.0964828
1 0 0.09897
1 0 0.100862
1 0 0.102724
1 0 0.104143
1 0 0.105516
1 0 0.106432
1 0 0.107317
1 0 0.108003
1 0 0.108598
1 0 0.10898
1 0 0.1093
1 0 0.109514
1 0 0.109712
1 0 0.109895
1 0 0.110124
1 0 0.11046
1 0 0.110994
0 0.0912337 0.00267033
0.000289921 0.0903487 0.00273136
0.00257877 0.0894484 0.00277714
0.00512703 0.0885481 0.00282292
0.0117647 0.0876326 0.0028687
0.0210269 0.0866102 0.00291447
0.0303197 0.0856794 0.00297551
0.04094 0.0847334 0.00300603
0.0515602 0.0837873 0.00303655
0.0629129 0.0827039 0.00309758
0.074815 0.0816815 0.0031281
0.0874342 0.0805371 0.00315862
0.103365 0.0789654 0.00321965
0.119142 0.0772106 0.00325017
0.136812 0.0750439 0.00331121
0.15433 0.0726024 0.00332647
0.173907 0.0695201 0.00332647
0.193606 0.066041 0.00321965
0.216556 0.0618448 0.00311284
0.239948 0.0571298 0.00285344
0.267857 0.0511177 0.00256352
0.296544 0.0442969 0.00218204
0.327916 0.0358587 0.00234989
0.360159 0.0261692 0.00325017
0.393606 0.0159457 0.00550851
0.427619 0.00653086 0.00801099
0.461692 0.000335698 0.0108949
0.495781 0 0.013962
0.529793 0 0.0174105
0.56376 0 0.0211643
0.597543 0 0.0251926
0.630961 0 0.0286259
0.66424 0 0.0323033
0.697597 0 0.0363012
0.73048 0 0.0404822
0.763027 0 0.0450446
0.795621 0 0.0497902
0.827497 0 0.0548257
0.859419 0 0.0599069
0.890715 0 0.0650339
0.92163 0 0.0700999
0.951064 0 0.0749371
0.977691 0 0.0796368
0.989609 0 0.0836805
1 0 0.087602
1 0 0.0908064
1 0 0.0939651
1 0 0.0964828
1 0 0.09897
1 0 0.100862
1 0 0.102724
1 0 0.104143
1 0 0.105516
1 0 0.106432
1 0 0.107317
1 0 0.108003
1 0 0.108598
1 0 0.10898
1 0 0.1093
1 0 0.109514
1 0 0.109712
1 0 0.109895
1 0 0.110124
1 0 0.11046
1 0 0.110994
0 0.102281 0.00169375
0.000183108 0.101366 0.00177005
0.00137331 0.100435 0.00184634
0.00268559 0.0995193 0.00189212
0.00834669 0.0985885 0.00196841
0.0168307 0.0975357 0.00205997
0.025803 0.0965896 0.00213626
0.0365454 0.0956283 0.0021973
0.0473335 0.0945449 0.00228885
0.0590524 0.0935531 0.00234989
0.0715343 0.0924392 0.00242618
0.0846265 0.09131 0.00247196
0.100801 0.0898604 0.00257877
0.11696 0.0881361 0.00265507
0.134783 0.0860456 0.00273136
0.152575 0.0836805 0.0027924
0.172381 0.0806897 0.00285344
0.192279 0.0773785 0.0028687
0.215473 0.0730907 0.00285344
0.239094 0.0682689 0.00270085
0.267033 0.0618753 0.00244144
0.295872 0.0548714 0.0019379
0.327337 0.0463722 0.0019379
0.359655 0.0368505 0.00234989
0.393194 0.0251164 0.00457771
0.427268 0.0130007 0.0071107
0.461402 0.00444038 0.0100099
0.495537 0.000244144 0.0131838
0.52958 0 0.0166476
0.563561 0 0.0204623
0.597391 0 0.0245975
0.630961 0 0.0286259
0.6645 0 0.0323339
0.697597 0 0.0363012
0.73048 0 0.0404822
0.763027 0 0.0450446
0.795621 0 0.0497902
0.827497 0 0.0548257
0.859419 0 0.0599069
0.890715 0 0.0650339
0.92163 0 0.0700999
0.951064 0 0.0749371
0.977691 0 0.0796368
0.989609 0 0.0836805
1 0 0.087602
1 0 0.0908064
1 0 0.0939651
1 0 0.0964828
1 0 0.09897
1 0 0.100862
1 0 0.102724
1 0 0.104143
1 0 0.105516
1 0 0.106432
1 0 0.107317
1 0 0.108003
1 0 0.108598
1 0 0.10898
1 0 0.1093
1 0 0.109514
1 0 0.109712
1 0 0.109895
1 0 0.110124
1 0 0.11046
1 0 0.110994
0 0.115251 0.00047303
6.10361e-05 0.114458 0.000549325
0.000457771 0.113649 0.000610361
0.000946059 0.112825 0.000686656
0.00531014 0.112016 0.000747692
0.0118105 0.111208 0.000823987
0.0190127 0.110369 0.000885023
0.0297093 0.109514 0.000961318
0.0404517 0.108568 0.00103761
0.0525216 0.107683 0.00111391
0.0654765 0.106783 0.0011902
0.0793011 0.105745 0.00128176
0.0963149 0.10428 0.00143435
0.113329 0.102586 0.00158694
0.131563 0.100649 0.00177005
0.149905 0.0983749 0.00192264
0.170199 0.095491 0.00210575
0.190539 0.0921645 0.00224308
0.214145 0.0879683 0.00236515
0.237766 0.0834363 0.00231937
0.265919 0.0774548 0.00221256
0.294987 0.0704509 0.0018616
0.32668 0.0615702 0.00157168
0.359228 0.0511025 0.00129702
0.392889 0.0389258 0.00331121
0.427039 0.0257267 0.00585946
0.46099 0.0113832 0.00883497
0.495201 0.00187686 0.0120699
0.529274 0 0.0156252
0.563287 0 0.0194705
0.597162 0 0.0236667
0.631144 0 0.0282597
0.6645 0 0.0323339
0.697597 0 0.0363012
0.73048 0 0.0404822
0.763287 0 0.0450752
0.795621 0 0.0497902
0.827756 0 0.0548562
0.859419 0 0.0599069
0.890715 0 0.0650339
0.92163 0 0.0700999
0.951064 0 0.0749371
0.977691 0 0.0796368
0.989609 0 0.0836805
1 0 0.087602
1 0 0.0908064
1 0 0.0939651
1 0 0.0964828
1 0 0.09897
1 0 0.100862
1 0 0.102724
1 0 0.104143
1 0 0.105516
1 0 0.106432
1 0 0.107317
1 0 0.108003
1 0 0.108598
1 0 0.10898
1 0 0.1093
1 0 0.109514
1 0 0.109712
1 0 0.109895
1 0 0.110124
1 0 0.11046
1 0 0.110994
0 0.129564 0
0 0.128771 0
0 0.127962 0
0 0.127169 0
0.00282292 0.126375 0
0.00703441 0.125566 0
0.0124514 0.124773 0
0.0227512 0.123796 0
0.0331121 0.122942 0
0.045594 0.122087 1.5259e-05
0.0592203 0.121218 4.57771e-05
0.0738231 0.12018 7.62951e-05
0.0917067 0.118685 0.00015259
0.109255 0.117342 0.000335698
0.12813 0.115557 0.000595102
0.146777 0.11368 0.000823987
0.167422 0.111223 0.00106813
0.187915 0.108415 0.00128176
0.21181 0.104784 0.00154116
0.236027 0.100649 0.00169375
0.264363 0.0952468 0.00178531
0.293751 0.0887007 0.00164797
0.325765 0.080293 0.00125124
0.35819 0.0705577 0.000640879
0.392035 0.0579538 0.00184634
0.426383 0.0431678 0.00425727
0.460716 0.0267185 0.00733959
0.495018 0.0108797 0.0106508
0.529198 0 0.014374
0.563241 0 0.0182956
0.597147 0 0.0225681
0.630915 0 0.0271916
0.664469 0 0.0321508
0.697597 0 0.0363012
0.73048 0 0.0404822
0.763287 0 0.0450752
0.795621 0 0.0497902
0.827756 0 0.0548562
0.859419 0 0.0599069
0.890715 0 0.0650339
0.92163 0 0.0700999
0.951064 0 0.0749371
0.977783 0 0.0796674
0.989609 0 0.0836805
1 0 0.087602
1 0 0.0908064
1 0 0.0939651
1 0 0.0964828
1 0 0.09897
1 0 0.100862
1 0 0.102724
1 0 0.104143
1 0 0.105516
1 0 0.106432
1 0 0.107317
