src/LiveStudio.Agent/BuiltInAssets/ColorCards/v1/cube/slog3-ARRI-709.cube
TITLE "Generated by Resolve"
LUT_3D_SIZE 5
0.0081178 0.00753796 0.00704967
0.181415 0 0.00563058
0.663981 0 0.0322728
1 0 0.09897
1 0 0.110994
0 0.178744 0
0.153658 0.164553 0
0.663737 0 0.0275425
1 0 0.09897
1 0 0.110994
0 0.644831 0
0 0.6421 0
0.586587 0.618326 0
1 0.209216 0.0411994
1 0 0.110994
0 1 0.0260166
0 1 0.0267185
0.33666 1 0.022446
0.969238 1 0
1 0.775204 0
0.522316 1 0.778973
0.545907 1 0.778836
0.674434 1 0.7776
0.942397 1 0.760021
1 1 0
0.000320439 0 0.155917
0.175784 0 0.15259
0.663355 0 0.129168
1 0 0.09897
1 0 0.110994
0 0.161913 0.149493
0.145754 0.14641 0.146853
0.663005 0 0.13228
1 0 0.09897
1 0 0.110994
0 0.640818 0.0118257
0 0.638453 0.0110323
0.585122 0.615366 0
1 0.211933 0.040177
1 0 0.110994
0 1 0.185046
0 1 0.180163
0.329931 1 0.14522
0.968475 1 0
1 0.775464 0
0.52137 1 0.785946
0.545007 1 0.785809
0.673762 1 0.784802
0.94197 1 0.767666
1 1 0
0 0 0.592004
0.0406043 0 0.591272
0.648524 0 0.586999
1 0 0.514351
1 0 0.110994
0 0 0.590661
0.00796521 0 0.590143
0.647334 0 0.587335
1 0 0.51577
1 0 0.110994
0 0.59443 0.569375
0 0.591089 0.569055
0.565194 0.565835 0.566262
1 0.0425879 0.519188
1 0 0.110994
0 0.999359 0.567788
0 0.999268 0.5673
0.298009 0.998917 0.563592
0.959976 0.997528 0.502815
1 0.777234 0
0.515663 1 0.828595
0.53959 1 0.828504
0.669474 1 0.827939
0.939101 1 0.817548
1 1 0.540917
0 0 0.977234
0 0 0.977325
0.606989 0 0.978943
1 0 0.979797
1 0 0.94139
0 0 0.975372
0 0 0.975631
0.597803 0 0.9776
1 0 0.979797
1 0 0.94139
0 0.482963 0.963424
0 0.478279 0.963546
0.504021 0.439872 0.965133
1 0 0.975006
1 0 0.942077
0 0.95697 0.936141
0 0.956374 0.936339
0.18114 0.952636 0.937194
0.937896 0.938064 0.937957
1 0.66482 0.922805
0.497734 1 0.951522
0.522133 1 0.951537
0.656275 1 0.951934
0.929931 1 0.952056
1 1 0.932677
0 0.534997 1
0 0.531243 1
0.49958 0.50251 1
1 0.0698711 1
1 0 1
0 0.559274 1
0 0.556359 1
0.491463 0.533089 1
1 0.166873 1
1 0 1
0 0.694255 1
0 0.69247 1
0.428397 0.678187 1
0.998932 0.552071 1
1 0 1
0 0.953201 1
0 0.952575 1
0.176883 0.94905 1
0.929885 0.934905 1
1 0.761807 1
0.518929 1 0.997665
0.539864 1 0.997742
0.665644 1 0.998169
0.92755 1 0.999466
1 1 1
