src/LiveStudio.Agent/BuiltInAssets/ColorCards/v1/cube/slog3-cine.cube
TITLE "Generated by Resolve"
LUT_3D_SIZE 9
0.0081178 0.00753796 0.00704967
0.0743572 0.00332647 0.0062562
0.181415 0 0.00563058
0.394491 0 0.00987259
0.663981 0 0.0322728
0.921386 0 0.0700694
1 0 0.09897
1 0 0.108598
1 0 0.110994
0 0.0715496 0.00424201
0.058381 0.0642557 0.00418097
0.176043 0.0501869 0.00384527
0.394034 0.00306706 0.0071107
0.66424 0 0.0323033
0.92163 0 0.0700999
1 0 0.09897
1 0 0.108598
1 0 0.110994
0 0.178744 0
0.00621042 0.17377 0
0.153658 0.164553 0
0.388434 0.12781 9.15541e-05
0.663737 0 0.0275425
0.92163 0 0.0700999
1 0 0.09897
1 0 0.108598
1 0 0.110994
0 0.390143 0
0 0.387381 0
0.00923171 0.382681 0
0.345647 0.365545 0
0.647837 0.305608 0
0.920165 0 0.0560769
1 0 0.0989853
1 0 0.108598
1 0 0.110994
0 0.644831 0
0 0.643702 0
0 0.6421 0
0.14168 0.636515 0
0.586496 0.618585 0
0.883558 0.560998 0
1 0.209232 0.0411994
1 0 0.108614
1 0 0.110994
0 0.884855 0
0 0.884535 0
0 0.883864 0
0 0.881865 0
0.461524 0.875837 0
0.815595 0.860029 0
1 0.810178 0
1 0.510948 0
1 0 0.111009
0 1 0.0261692
0 1 0.0263676
0 1 0.0267491
0 1 0.0277104
0.33666 1 0.0224765
0.753429 1 0
0.969238 1 0
1 0.994339 0
1 0.775204 0
0 1 0.500404
0 1 0.499886
0 1 0.499443
0.0733501 1 0.498054
0.446448 1 0.493324
0.756207 1 0.47602
0.946303 1 0.399863
1 1 0
1 1 0
0.522332 1 0.778973
0.533333 1 0.779019
0.545907 1 0.778836
0.583108 1 0.778546
0.674434 1 0.7776
0.819318 1 0.773983
0.942397 1 0.760021
0.998459 1 0.702815
1 1 0
0.00578317 0.000976577 0.059266
0.0709697 0.000366217 0.0579385
0.180026 0 0.0563363
0.394034 0 0.0535439
0.663874 0 0.0482338
0.92163 0 0.0700999
1 0 0.09897
1 0 0.108598
1 0 0.110994
0 0.0621347 0.0555123
0.0543374 0.0543526 0.0543984
0.174578 0.0400397 0.0533608
0.393515 0 0.0528115
0.664134 0 0.0500954
0.92163 0 0.0700999
1 0 0.09897
1 0 0.108598
1 0 0.110994
0 0.174975 0.0401312
0.00457771 0.170001 0.0388342
0.151736 0.160723 0.0386664
0.387823 0.123033 0.0411231
0.663645 0 0.0481422
0.92163 0 0.0700999
1 0 0.09897
1 0 0.108598
1 0 0.110994
0 0.388739 0
0 0.386007 0
0.00779736 0.381262 0
0.344778 0.364294 0
0.647562 0.305135 0.000686656
0.920134 0 0.0558328
1 0 0.0989853
1 0 0.108598
1 0 0.110994
0 0.643488 0
0 0.642634 0
0 0.641123 0
0.13904 0.635584 0
0.586114 0.61799 0
0.883513 0.561257 0
1 0.210239 0.0408179
1 0 0.108614
1 0 0.110994
0 0.883635 0
0 0.88333 0
0 0.882643 0
0 0.880705 0
0.460334 0.875013 0
0.81529 0.859678 0
1 0.810178 0
1 0.511223 0
1 0 0.111009
0 1 0.0630655
0 1 0.0606699
0 1 0.0581979
0 1 0.0494392
0.334051 1 0.0514992
0.752758 1 0.00112917
0.969024 1 0
1 0.994339 0
1 0.775204 0
0 1 0.51162
0 1 0.511421
0 1 0.510964
0.0724956 1 0.50956
0.445472 1 0.504768
0.755718 1 0.488334
0.945922 1 0.417746
1 1 0
1 1 0
0.52192 1 0.781857
0.532982 1 0.781659
0.545541 1 0.78172
0.582773 1 0.78143
0.674174 1 0.780468
0.81915 1 0.776623
0.942214 1 0.763134
0.998337 1 0.70724
1 1 0
0.000320439 0 0.155917
0.059968 0 0.154589
0.175784 0 0.15259
0.392828 0 0.146777
0.663355 0 0.129168
0.921538 0 0.0801099
1 0 0.09897
1 0 0.108598
1 0 0.110994
0 0.0283665 0.155016
0.0417029 0.020325 0.15378
0.169848 0.00953689 0.152041
0.392218 0 0.147494
0.6636 0 0.131411
0.921538 0 0.0814527
1 0 0.09897
1 0 0.108598
1 0 0.110994
0 0.161761 0.149508
0.000656138 0.156268 0.148333
0.145754 0.14641 0.146838
0.386053 0.104784 0.143633
0.662989 0 0.13228
0.921538 0 0.0835737
1 0 0.09897
1 0 0.108598
1 0 0.110994
0 0.384131 0.108537
0 0.381369 0.107103
0.00389105 0.376593 0.105501
0.342687 0.359701 0.103044
0.647074 0.300359 0.096849
0.919997 0 0.0783856
1 0 0.0989853
1 0 0.108598
1 0 0.110994
0 0.640818 0.011841
0 0.639979 0.0115206
0 0.638453 0.0110323
0.133059 0.633005 0.00872816
0.585031 0.615625 0
0.883284 0.560464 0
1 0.211933 0.040177
1 0 0.108614
1 0 0.110994
0 0.881498 0.00584421
0 0.880964 0.0047303
0 0.880568 0.00273136
0 0.878386 0
0.458351 0.87277 0
0.814679 0.858061 0
1 0.810422 0
1 0.511788 0
1 0 0.111009
0 1 0.185031
0 1 0.183154
0 1 0.180026
0 1 0.171191
0.329931 1 0.145251
0.751537 1 0.0730144
0.968505 1 0
1 0.994339 0
1 0.775464 0
0 1 0.528756
0 1 0.528557
0 1 0.528084
0.0720073 1 0.52697
0.443961 1 0.522438
0.754955 1 0.507134
0.945342 1 0.444404
1 1 0
1 1 0
0.52137 1 0.785946
0.532418 1 0.785977
0.545007 1 0.785809
0.582254 1 0.785748
0.673762 1 0.784802
0.81883 1 0.78117
0.94197 1 0.767666
0.998169 1 0.713726
1 1 0
0 0 0.349783
0.00727855 0 0.348928
0.150591 0 0.347601
0.384695 0 0.343603
0.659968 0 0.330571
0.919951 0 0.280766
1 0 0.101488
1 0 0.108598
1 0 0.110994
0 0 0.349905
0 0 0.348898
0.142824 0 0.347601
0.383764 0 0.344213
0.660197 0 0.331746
0.919951 0 0.282048
1 0 0.102495
1 0 0.108598
1 0 0.110994
0 0.0568093 0.348363
0 0.0504311 0.347646
0.110552 0.038056 0.346441
0.377172 0 0.343313
0.659205 0 0.332631
0.919905 0 0.284428
1 0 0.104173
1 0 0.108598
1 0 0.110994
0 0.358755 0.337423
0 0.355764 0.336767
0 0.350622 0.335668
0.331289 0.332494 0.333288
0.642802 0.266896 0.324636
0.918105 0 0.288075
1 0 0.109346
1 0 0.108598
1 0 0.110994
0 0.628611 0.308568
0 0.627512 0.307698
0 0.625956 0.306401
0.114824 0.620417 0.302647
0.579812 0.603235 0.291386
0.880964 0.548623 0.245304
1 0.213809 0.0809339
1 0 0.108614
1 0 0.110994
0 0.873304 0.279469
0 0.872999 0.278569
0 0.872343 0.277211
0 0.87042 0.273136
0.450477 0.864607 0.260151
0.811688 0.850187 0.187594
1 0.808316 0
1 0.513176 0
1 0 0.111009
0 1 0.368322
0 1 0.367773
0 1 0.366857
0 1 0.36376
0.319905 1 0.353109
0.748119 1 0.315175
0.966232 1 0.0861982
1 0.994385 0
1 0.775967 0
0 1 0.572229
0 1 0.572045
0 1 0.571923
0.0674296 1 0.570901
0.439155 1 0.567651
0.753109 1 0.556268
0.943587 1 0.507958
1 1 0.0521248
1 1 0
0.51957 1 0.798917
0.530739 1 0.798718
0.543801 1 0.798779
0.580758 1 0.798489
0.672572 1 0.797513
0.817945 1 0.794095
0.941176 1 0.781537
0.997681 1 0.732692
1 1 0.289143
0 0 0.592004
0 0 0.591562
0.0405432 0 0.591272
0.35938 0 0.590326
0.648524 0 0.586999
0.912764 0 0.573037
1 0 0.514351
1 0 0.108598
1 0 0.110994
0 0 0.591577
0 0 0.591485
0.0331731 0 0.591196
0.357504 0 0.590402
0.648783 0 0.587243
0.912749 0 0.57351
1 0 0.514824
1 0 0.108598
1 0 0.110994
0 0 0.590661
0 0 0.590387
0.00794995 0 0.590143
0.349447 0 0.589502
0.647334 0 0.587335
0.912963 0 0.574228
1 0 0.51577
1 0 0.108598
1 0 0.110994
0 0.271824 0.584665
0 0.266575 0.584619
0 0.25835 0.584192
0.295476 0.226932 0.584009
0.629892 0.110048 0.582544
0.910567 0 0.574639
1 0 0.518364
1 0 0.108598
1 0 0.110994
0 0.59443 0.569375
0 0.593164 0.569284
0 0.591379 0.569024
0.0663615 0.585229 0.568353
0.565194 0.565835 0.566262
0.872862 0.50399 0.557366
1 0.0422522 0.519188
1 0 0.117784
1 0 0.110994
0 0.853239 0.550362
0 0.852903 0.55021
0 0.852171 0.54992
0 0.850111 0.548867
0.430106 0.843702 0.546059
0.803403 0.828031 0.53434
1 0.782513 0.482628
1 0.514138 0.0192721
1 0 0.111009
0 0.999359 0.567788
0 0.999313 0.567651
0 0.999268 0.5673
0 0.99913 0.566537
0.297902 0.998917 0.563592
0.740276 0.997604 0.552483
0.960006 0.997513 0.502831
1 0.989059 0.0654917
1 0.777234 0
0 1 0.669017
0 1 0.669123
0 1 0.668971
0.0549477 1 0.668254
0.427222 1 0.666438
0.747433 1 0.659586
0.939208 1 0.632517
1 1 0.50251
1 1 0
0.515648 1 0.828595
0.526986 1 0.828641
0.53959 1 0.828504
0.576867 1 0.828473
0.669474 1 0.827939
0.815579 1 0.825849
0.939101 1 0.817548
0.995758 1 0.780652
1 1 0.540917
0 0 0.822629
0 0 0.822721
0 0 0.822614
0.307805 0 0.822675
0.628641 0 0.8224
0.900481 0 0.819516
1 0 0.805615
1 0 0.747753
1 0 0.110994
0 0 0.822324
0 0 0.822171
0 0 0.822095
0.303029 0 0.822248
0.628412 0 0.822293
0.900481 0 0.819516
1 0 0.805844
1 0 0.747982
1 0 0.110994
0 0 0.821134
0 0 0.821241
0 0 0.82121
0.289784 0 0.821439
0.625589 0 0.821851
0.90071 0 0.81973
1 0 0.805844
1 0 0.748211
1 0 0.110994
0 0.0355535 0.816999
0 0.0279088 0.816876
0 0.0159609 0.817121
0.206455 0 0.817243
0.604852 0 0.81799
0.896834 0 0.818936
1 0 0.806516
1 0 0.749126
1 0 0.110994
0 0.530831 0.806378
0 0.52958 0.80647
0 0.527428 0.806409
0.00883497 0.519936 0.806638
0.537682 0.496132 0.806973
0.858213 0.416129 0.80679
1 0 0.803891
1 0 0.751629
1 0 0.110994
0 0.816922 0.790249
0 0.816556 0.790097
0 0.815793 0.790005
0 0.813367 0.790127
0.389242 0.806424 0.790204
0.788144 0.788418 0.788602
0.999298 0.735149 0.779461
1 0.382437 0.744121
1 0 0.118868
0 0.983307 0.785672
0 0.983154 0.785748
0 0.982849 0.785672
0 0.98201 0.785595
0.249317 0.979995 0.785199
0.725185 0.975235 0.782742
0.94902 0.968536 0.770474
1 0.952132 0.718212
1 0.773083 0.118563
0 1 0.818662
0 1 0.818723
0 1 0.818616
0.00920119 1 0.818509
0.401068 1 0.81828
0.736004 1 0.816571
0.930358 1 0.807843
0.999374 1 0.766339
1 1 0.482475
0.506615 1 0.887037
0.518227 1 0.887068
0.531075 1 0.886961
0.569589 1 0.886961
0.66331 1 0.886885
0.810971 1 0.886137
0.935012 1 0.881956
0.99118 1 0.866011
1 1 0.775723
0 0 0.977234
0 0 0.977264
0 0 0.977325
0.228672 0 0.977813
0.606989 0 0.978943
0.889006 0 0.980255
1 0 0.979797
1 0 0.972503
1 0 0.94139
0 0 0.976516
0 0 0.976562
0 0 0.976745
0.210712 0 0.977203
0.604028 0 0.978576
0.889265 0 0.98027
1 0 0.979797
1 0 0.972503
1 0 0.94139
0 0 0.975372
0 0 0.975433
0 0 0.97554
0.164736 0 0.976043
0.597787 0 0.9776
0.888884 0 0.98024
1 0 0.979797
1 0 0.972503
1 0 0.94139
0 0.00511177 0.971756
0 0.000640879 0.971862
0 0 0.972015
0.096376 0 0.972488
0.572244 0 0.973983
0.879225 0 0.977676
1 0 0.979904
1 0 0.97261
1 0 0.941527
0 0.482567 0.963439
0 0.481254 0.963409
0 0.478676 0.963546
0 0.469734 0.963958
0.503899 0.44036 0.965118
0.840497 0.345312 0.967941
1 0 0.975006
1 0 0.972946
1 0 0.942077
0 0.784329 0.948562
0 0.783871 0.948592
0 0.783001 0.948745
0 0.780301 0.949065
0.33872 0.772869 0.94995
0.771649 0.752697 0.951675
0.992905 0.693858 0.954482
1 0.233509 0.962234
1 0 0.943603
0 0.95697 0.936141
0 0.956786 0.936202
0 0.956374 0.936339
0 0.955398 0.936599
0.181079 0.952636 0.937194
0.71017 0.947082 0.938033
0.937926 0.937957 0.937972
1 0.913802 0.93373
1 0.664515 0.92282
0 1 0.937194
0 1 0.937148
0 1 0.937224
0 1 0.937453
0.374197 1 0.937804
0.724483 0.999634 0.938399
0.921538 0.998779 0.937835
0.99118 0.998001 0.93283
1 0.99646 0.907439
0.497749 1 0.951522
0.508949 1 0.951553
0.522133 1 0.951537
0.561135 1 0.95169
0.656275 1 0.951934
0.805493 1 0.9523
0.929931 1 0.952056
0.985733 1 0.948699
1 1 0.932677
0 0 1
0 0 1
0 0 1
0.093431 0 1
0.571313 0 1
0.876509 0 1
1 0 1
1 0 1
1 0 1
0 0 1
0 0 1
0 0 1
0.0700542 0 1
0.566262 0 1
0.873747 0 1
1 0 1
1 0 1
1 0 1
0 0 1
0 0 1
0 0 1
0.0338903 0 1
0.558297 0 1
0.868894 0 1
1 0 1
1 0 1
1 0 1
0 0.247807 1
0 0.242664 1
0 0.23473 1
0 0.207874 1
0.535134 0.126421 1
0.855467 0 1
1 0 1
1 0 1
1 0 1
0 0.539467 1
0 0.538308 1
0 0.536446 1
0 0.529473 1
0.473014 0.508171 1
0.822904 0.444373 1
1 0.0655833 1
1 0 1
1 0 1
0 0.792096 0.999069
0 0.791592 0.999084
0 0.790646 0.999176
0 0.78822 0.999374
0.308202 0.781003 0.999863
0.760555 0.761761 1
0.984131 0.709606 1
1 0.386374 1
1 0 1
0 0.948028 0.988174
0 0.947814 0.98822
0 0.947433 0.988296
0 0.94641 0.988602
0.144045 0.943618 0.989273
0.705409 0.937911 0.990585
0.932982 0.928542 0.992126
1 0.904479 0.994095
1 0.671687 1
0 0.99852 0.984192
0 0.998459 0.984237
0 0.998367 0.984314
0 0.998001 0.984527
0.370901 0.996628 0.985031
0.72224 0.993301 0.986038
0.917967 0.989685 0.987045
0.987228 0.987198 0.987213
1 0.981552 0.986526
0.500191 1 0.985092
0.509102 1 0.985122
0.521981 1 0.985168
0.56112 1 0.98529
0.655558 1 0.985595
0.803525 1 0.986252
0.927459 1 0.986893
0.982986 1 0.986862
0.999969 0.999908 0.985855
0 0.534569 1
0 0.533288 1
0 0.5308 1
0 0.523598 1
0.499596 0.50251 1
0.827359 0.437522 1
1 0.0698558 1
1 0 1
1 0 1
0 0.544976 1
0 0.543862 1
0 0.541665 1
0 0.53547 1
0.496574 0.514626 1
0.825727 0.451957 1
1 0.10956 1
1 0 1
1 0 1
0 0.559274 1
0 0.55816 1
0 0.556359 1
0 0.550439 1
0.491447 0.533089 1
0.822812 0.473884 1
1 0.166888 1
1 0 1
1 0 1
0 0.600305 1
0 0.599222 1
0 0.597498 1
0 0.592538 1
0.474266 0.577218 1
0.814939 0.532845 1
1 0.325841 1
1 0 1
1 0 1
0 0.694255 1
0 0.693629 1
0 0.69247 1
0 0.688624 1
0.428412 0.678187 1
0.792844 0.649271 1
0.998932 0.552056 1
1 0 1
1 0 1
0 0.839445 1
0 0.838972 1
0 0.838361 1
0 0.836286 1
0.322942 0.831037 1
0.748196 0.817777 1
0.968399 0.785016 1
1 0.624537 1
1 0 1
0 0.953201 1
0 0.952987 1
0 0.952575 1
0 0.951598 1
0.176867 0.94905 1
0.709621 0.943755 1
0.929885 0.934905 1
0.999969 0.916655 1
1 0.761807 1
0 0.99649 0.99794
0 0.996353 0.997986
0 0.996139 0.998062
0 0.995499 0.998276
0.402136 0.993988 0.998749
0.7299 0.990723 0.999725
0.917632 0.987182 1
0.985992 0.98468 0.999985
1 0.979492 0.99971
0.518929 1 0.997665
0.526909 1 0.997696
0.539864 1 0.997742
0.577249 1 0.997848
0.665644 1 0.998169
0.80621 1 0.998825
0.92755 1 0.999466
0.98204 1 0.999893
1 1 1
