src/LiveStudio.Agent/BuiltInAssets/ColorCards/v1/cube/slog3-cine.cube
TITLE "Generated by Resolve"
LUT_3D_SIZE 5
0.0081178 0.00753796 0.00704967
0.181415 0 0.00563058
0.663981 0 0.0322728
1 0 0.09897
1 0 0.110994
0 0.178744 0
0.153658 0.164553 0
0.663737 0 0.0275425
1 0 0.09897
1 0 0.110994
0 0.644831 0
0 0.6421 0
0.586496 0.618585 0
1 0.209232 0.0411994
1 0 0.110994
0 1 0.0261692
0 1 0.0267491
0.33666 1 0.0224765
0.969238 1 0
1 0.775204 0
0.522332 1 0.778973
0.545907 1 0.778836
0.674434 1 0.7776
0.942397 1 0.760021
1 1 0
0.000320439 0 0.155917
0.175784 0 0.15259
0.663355 0 0.129168
1 0 0.09897
1 0 0.110994
0 0.161761 0.149508
0.145754 0.14641 0.146838
0.662989 0 0.13228
1 0 0.09897
1 0 0.110994
0 0.640818 0.011841
0 0.638453 0.0110323
0.585031 0.615625 0
1 0.211933 0.040177
1 0 0.110994
0 1 0.185031
0 1 0.180026
0.329931 1 0.145251
0.968505 1 0
1 0.775464 0
0.52137 1 0.785946
0.545007 1 0.785809
0.673762 1 0.784802
0.94197 1 0.767666
1 1 0
0 0 0.592004
0.0405432 0 0.591272
0.648524 0 0.586999
1 0 0.514351
1 0 0.110994
0 0 0.590661
0.00794995 0 0.590143
0.647334 0 0.587335
1 0 0.51577
1 0 0.110994
0 0.59443 0.569375
0 0.591379 0.569024
0.565194 0.565835 0.566262
1 0.0422522 0.519188
1 0 0.110994
0 0.999359 0.567788
0 0.999268 0.5673
0.297902 0.998917 0.563592
0.960006 0.997513 0.502831
1 0.777234 0
0.515648 1 0.828595
0.53959 1 0.828504
0.669474 1 0.827939
0.939101 1 0.817548
1 1 0.540917
0 0 0.977234
0 0 0.977325
0.606989 0 0.978943
1 0 0.979797
1 0 0.94139
0 0 0.975372
0 0 0.97554
0.597787 0 0.9776
1 0 0.979797
1 0 0.94139
0 0.482567 0.963439
0 0.478676 0.963546
0.503899 0.44036 0.965118
1 0 0.975006
1 0 0.942077
0 0.95697 0.936141
0 0.956374 0.936339
0.181079 0.952636 0.937194
0.937926 0.937957 0.937972
1 0.664515 0.92282
0.497749 1 0.951522
0.522133 1 0.951537
0.656275 1 0.951934
0.929931 1 0.952056
1 1 0.932677
0 0.534569 1
0 0.5308 1
0.499596 0.50251 1
1 0.0698558 1
1 0 1
0 0.559274 1
0 0.556359 1
0.491447 0.533089 1
1 0.166888 1
1 0 1
0 0.694255 1
0 0.69247 1
0.428412 0.678187 1
0.998932 0.552056 1
1 0 1
0 0.953201 1
0 0.952575 1
0.176867 0.94905 1
0.929885 0.934905 1
1 0.761807 1
0.518929 1 0.997665
0.539864 1 0.997742
0.665644 1 0.998169
0.92755 1 0.999466
1 1 1
