src/LiveStudio.Agent/BuiltInAssets/ColorCards/v1/cube/减龄色调.cube
TITLE "Generate by Resolve"
LUT_3D_SIZE 33
0 0 0
0.0344091 0 0.00285344
0.0692149 0 0.00572213
0.104295 0 0.00738537
0.1393 0 0.00926223
0.174456 0 0.0115053
0.209628 0 0.0140078
0.244785 0 0.0165866
0.279957 0 0.0191806
0.315099 0 0.0217746
0.35021 0 0.0243534
0.385306 0 0.0269474
0.420462 0 0.0295109
0.455558 0 0.0320592
0.490669 0 0.0346075
0.52575 0 0.037171
0.560845 0 0.039704
0.595926 0 0.0422522
0.63093 0 0.0446784
0.666026 0 0.0471046
0.70106 0 0.0495613
0.73611 0 0.0520027
0.771176 0 0.0544747
0.806241 0 0.0569314
0.841337 0 0.0594339
0.876387 0 0.0619364
0.911421 0 0.0644388
0.945403 0 0.0669413
0.967422 0 0.0694438
0.98439 0 0.0718547
1 0 0.0743114
1 0 0.0756695
1 0 0.0770428
4.57771e-05 0.0312505 0
0.0320897 0.0305028 0.00460822
0.0627909 0.0311437 0.000350958
0.0966812 0.0293736 0.0106508
0.129519 0.0281376 0.0184176
0.162112 0.0273594 0.0228885
0.195697 0.0264134 0.0264134
0.229847 0.0253147 0.0302586
0.263935 0.0243687 0.033341
0.299046 0.0230716 0.0364385
0.333654 0.0220951 0.0391699
0.368368 0.0210727 0.0416419
0.403769 0.0198672 0.0443427
0.438987 0.0187228 0.0467079
0.473716 0.0177768 0.0489662
0.508843 0.0167697 0.0514839
0.544259 0.0156863 0.0540017
0.579431 0.014725 0.0564126
0.614267 0.013901 0.0585946
0.649836 0.0128328 0.0610971
0.685176 0.0119326 0.0635386
0.720424 0.0110781 0.0659037
0.755474 0.0102998 0.0681621
0.791058 0.0093843 0.0706035
0.826413 0.00857557 0.0728923
0.861677 0.00782788 0.0753185
0.896971 0.00709544 0.0776532
0.931731 0.00637827 0.079942
0.959365 0.00570687 0.0822156
0.977447 0.00508125 0.0845045
0.994141 0.00451667 0.0867475
1 0.00401312 0.0883497
1 0.00358587 0.0894942
9.15541e-05 0.0625315 0
0.0200961 0.0651255 0.00761425
0.0642252 0.0610361 0.00921645
0.0965591 0.0604257 0.012192
0.125597 0.062211 0.000747692
0.159365 0.0607309 0.00856031
0.192523 0.0586557 0.0228885
0.224887 0.0574655 0.0322576
0.257099 0.0564584 0.0386816
0.289647 0.0554971 0.0437629
0.322789 0.0545663 0.0478065
0.356359 0.0535439 0.0514382
0.39028 0.0523232 0.0548257
0.424567 0.0511482 0.0582437
0.458701 0.0500038 0.0613413
0.493492 0.0486 0.0645304
0.528283 0.0472267 0.0675517
0.562997 0.0459449 0.0704967
0.597757 0.0446174 0.0732891
0.63209 0.043473 0.0758831
0.667155 0.0420233 0.0785992
0.701869 0.0407416 0.081117
0.737194 0.0392615 0.0838483
0.771878 0.0380102 0.0862135
0.807523 0.0363165 0.0888685
0.841993 0.0352026 0.0910964
0.877028 0.0338445 0.0935531
0.912902 0.0322118 0.0963455
0.947341 0.0308385 0.0988327
0.971054 0.0294499 0.101183
0.98761 0.0284123 0.103441
1 0.0273899 0.105653
1 0.0265202 0.106981
0.000137331 0.093843 0
0.00720226 0.100374 0.00698863
0.0575113 0.0926528 0.0252842
0.0963607 0.0915847 0.0139467
0.130877 0.090074 0.0186007
0.156634 0.0925765 0.0105745
0.188418 0.09337 0.00112917
0.222034 0.0921035 0.00669871
0.25594 0.0898909 0.0210727
0.288624 0.087953 0.0352483
0.32079 0.086717 0.0453651
0.353017 0.0856947 0.0525063
0.385504 0.0846723 0.0582284
0.418128 0.0838788 0.0632334
0.450843 0.0829786 0.067628
0.484092 0.0818647 0.0716869
0.517433 0.0809186 0.0755322
0.550942 0.079942 0.0792248
0.584833 0.0787518 0.0827649
0.618738 0.0776379 0.0859541
0.653147 0.0763409 0.0891432
0.687678 0.0751202 0.0923476
0.722316 0.0737163 0.0953536
0.756924 0.0725109 0.0984054
0.791745 0.0711376 0.101381
0.82649 0.0697337 0.104219
0.861204 0.0684672 0.107027
0.89572 0.0672313 0.109667
0.930388 0.0658885 0.112306
0.962112 0.0646372 0.114992
0.982712 0.0633249 0.117556
0.999435 0.0616007 0.120623
1 0.0606241 0.12224
0.000198367 0.125124 0
0.00148013 0.133089 0.00994888
0.0361791 0.131182 0.0159609
0.0904555 0.122179 0.037644
0.128603 0.122026 0.018677
0.164446 0.120226 0.0238346
0.192447 0.121172 0.0232395
0.218585 0.124224 0.00808728
0.251225 0.124468 0.00148013
0.284703 0.123369 0.00582895
0.318929 0.121279 0.0178683
0.352346 0.119005 0.0337224
0.384802 0.117281 0.0476081
0.416983 0.115877 0.0577707
0.449134 0.1149 0.0655833
0.481361 0.11397 0.0722057
0.513695 0.113024 0.0779889
0.54609 0.112154 0.0831922
0.578668 0.111269 0.0878614
0.611643 0.110338 0.0920882
0.644862 0.109483 0.0960098
0.67837 0.108324 0.0996719
0.712001 0.107286 0.103273
0.745602 0.10631 0.10631
0.779767 0.104967 0.110216
0.813931 0.103716 0.113542
0.848127 0.102586 0.116823
0.882017 0.101457 0.119844
0.915801 0.10042 0.122728
0.950179 0.0992599 0.125811
0.977462 0.0977646 0.128771
0.995895 0.0961929 0.132082
1 0.0951095 0.134386
0.000244144 0.15639 0
0.000228885 0.165286 0.0100252
0.0206302 0.167529 0.0133822
0.0766766 0.157855 0.0345769
0.121065 0.152804 0.045304
0.160876 0.152499 0.0234379
0.197879 0.150195 0.0289769
0.227573 0.150484 0.0308232
0.25243 0.153185 0.0226596
0.281163 0.155596 0.00660716
0.314046 0.155612 0.00180056
0.347417 0.154589 0.00537118
0.381628 0.152712 0.0153048
0.415595 0.150393 0.0305333
0.448646 0.148226 0.0464942
0.48098 0.146532 0.059617
0.5131 0.14519 0.0699474
0.54519 0.144137 0.0784924
0.577234 0.143297 0.0856641
0.609354 0.142321 0.0920729
0.641825 0.14136 0.0977493
0.674418 0.140459 0.102831
0.707088 0.139544 0.107515
0.739879 0.138613 0.111925
0.772824 0.137682 0.116106
0.805905 0.136797 0.120073
0.83917 0.135897 0.123842
0.872663 0.134707 0.127459
0.906264 0.13373 0.131044
0.939574 0.132906 0.132906
0.971618 0.131426 0.137819
0.993667 0.130251 0.141146
1 0.129213 0.143755
0.000289921 0.187671 0
0.000289921 0.196796 0.00637827
0.0144045 0.200565 0.013611
0.0501564 0.198001 0.0240177
0.114763 0.185351 0.0513161
0.15169 0.18381 0.0504768
0.193088 0.182986 0.0281376
0.231144 0.180362 0.0340429
0.261494 0.180346 0.0370184
0.288411 0.181918 0.0343938
0.313146 0.185229 0.0200809
0.343923 0.186847 0.00587472
0.376837 0.186679 0.00213626
0.410086 0.185809 0.00517281
0.444175 0.184176 0.0133822
0.478477 0.181781 0.0271153
0.512108 0.179477 0.0434119
0.544961 0.177478 0.058854
0.577234 0.175952 0.0714885
0.609293 0.174563 0.0821851
0.64126 0.173449 0.0911879
0.673243 0.172457 0.0988022
0.705486 0.17145 0.105516
0.737804 0.170565 0.111666
0.770214 0.169558 0.117342
0.802655 0.168734 0.12256
0.835264 0.167788 0.127443
0.867887 0.166949 0.132052
0.90071 0.166094 0.136339
0.933837 0.165148 0.140337
0.966537 0.164172 0.144137
0.991989 0.163195 0.14789
1 0.162325 0.150927
0.000335698 0.218921 0
0.000427253 0.227771 0.00177005
0.00910964 0.233082 0.0165103
0.0353399 0.234195 0.018967
0.0931868 0.223865 0.0419928
0.148928 0.214389 0.0646982
0.182727 0.214633 0.0538796
0.22536 0.213443 0.0328222
0.264118 0.210544 0.0389715
0.295308 0.210224 0.0430457
0.323644 0.211093 0.0425574
0.348302 0.213947 0.0342718
0.374899 0.216983 0.0175937
0.406699 0.218051 0.00544747
0.439643 0.217823 0.002533
0.472831 0.216999 0.00508125
0.506889 0.215473 0.0122377
0.541176 0.213291 0.0241245
0.575174 0.21088 0.0397955
0.608545 0.208652 0.0563211
0.641154 0.206836 0.0709544
0.673411 0.205203 0.0835584
0.705425 0.203845 0.0944228
0.737408 0.20267 0.103639
0.769451 0.201663 0.111574
0.801541 0.200671 0.118685
0.833692 0.199756 0.125277
0.865995 0.198886 0.131441
0.898329 0.198001 0.137163
0.9308 0.197101 0.142336
0.96347 0.196139 0.147234
0.990494 0.195239 0.151766
1 0.194568 0.15555
0.000381476 0.250263 0
0.002121 0.258961 0
0.00370794 0.265599 0.0202487
0.0297704 0.267277 0.0177462
0.0652476 0.2645 0.0324712
0.134508 0.250355 0.0601511
0.180941 0.244251 0.0753948
0.213916 0.245624 0.0565194
0.257588 0.243931 0.0375067
0.297047 0.240864 0.0437781
0.329061 0.24007 0.0486152
0.358099 0.240696 0.049485
0.384298 0.242588 0.0453956
0.408515 0.246036 0.0322423
0.437186 0.248554 0.0155489
0.46949 0.249241 0.0053254
0.502449 0.248981 0.00285344
0.535515 0.248203 0.00512703
0.569497 0.246815 0.0113375
0.6038 0.244739 0.0217899
0.638086 0.242466 0.0362554
0.671809 0.240116 0.0526894
0.704875 0.237888 0.0687266
0.737362 0.236118 0.0830854
0.769604 0.234546 0.0956893
0.801617 0.233143 0.106554
0.833585 0.232013 0.115953
0.865614 0.230945 0.124315
0.897566 0.229984 0.131746
0.929671 0.229007 0.138705
0.961883 0.228061 0.145098
0.989807 0.227161 0.151064
1 0.226398 0.155871
0.000427253 0.281529 0
0.00396735 0.289937 0
0.000396735 0.297948 0.0217746
0.0259861 0.299535 0.019028
0.0500801 0.300999 0.0255589
0.108797 0.290303 0.049546
0.17229 0.278019 0.0766766
0.211933 0.274769 0.0842451
0.245335 0.276677 0.0589303
0.289891 0.274403 0.0421759
0.329824 0.271168 0.0485542
0.362707 0.270161 0.0540169
0.392157 0.270481 0.0560616
0.419654 0.271855 0.0541085
0.444297 0.274586 0.0456703
0.469535 0.278004 0.0296635
0.499702 0.279866 0.0140383
0.532296 0.280415 0.00531014
0.565255 0.280079 0.00318914
0.598291 0.279377 0.00523384
0.632136 0.27808 0.0107424
0.666392 0.276234 0.0199283
0.700786 0.27393 0.0330663
0.734813 0.27155 0.0489204
0.768246 0.2692 0.065568
0.801114 0.267185 0.0811627
0.833585 0.265339 0.0953078
0.865797 0.263783 0.10782
0.89781 0.262501 0.118624
0.929793 0.261326 0.128237
0.9617 0.260243 0.136919
0.989822 0.25922 0.144671
1 0.258442 0.150866
0.00047303 0.31281 0
0.00575265 0.320897 0
0.000442512 0.330144 0.0206607
0.0195163 0.332296 0.0226291
0.0439612 0.334524 0.0221408
0.0812238 0.330663 0.0407568
0.15169 0.316258 0.0674449
0.207141 0.306752 0.0909895
0.242664 0.305425 0.0914168
0.277043 0.307485 0.0614023
0.322087 0.304875 0.0468605
0.36257 0.301534 0.0532998
0.39617 0.300221 0.0591592
0.426154 0.300282 0.0622721
0.454398 0.301259 0.0615396
0.480217 0.303334 0.0564279
0.504326 0.306752 0.0442664
0.531197 0.309804 0.0272068
0.562387 0.311208 0.0128634
0.595102 0.311528 0.00538643
0.628046 0.311223 0.00350958
0.661097 0.31043 0.00549325
0.694774 0.309316 0.0103456
0.729015 0.30753 0.0186923
0.763348 0.305394 0.0304723
0.79762 0.303029 0.0453193
0.831449 0.300587 0.0618448
0.864652 0.29836 0.0782788
0.897459 0.296361 0.0936446
0.929824 0.294652 0.107576
0.96199 0.293141 0.119738
0.990066 0.291814 0.130694
1 0.290761 0.139376
0.000534066 0.344076 0
0.00743114 0.35172 0
0.000503548 0.361959 0.0174258
0.0128634 0.365118 0.0268254
0.0398108 0.36701 0.0224002
0.0605936 0.368582 0.0354314
0.123919 0.356909 0.0567788
0.19202 0.343008 0.0853132
0.239994 0.336294 0.103105
0.273289 0.336233 0.0971084
0.308873 0.338323 0.0642252
0.354391 0.335363 0.0515297
0.395148 0.331884 0.0580453
0.429496 0.330327 0.0641337
0.46006 0.330144 0.0681773
0.488701 0.330877 0.0686656
0.515572 0.332494 0.0653849
0.540352 0.335348 0.0569467
0.564813 0.338872 0.041886
0.593347 0.341329 0.0249332
0.625071 0.342504 0.0121157
0.657893 0.342687 0.00550851
0.690867 0.342321 0.00390631
0.723857 0.341588 0.00561532
0.757519 0.340536 0.0101472
0.791638 0.338903 0.0176089
0.82594 0.336919 0.0281834
0.860319 0.334569 0.0420081
0.894438 0.332097 0.0580606
0.927916 0.329747 0.0747387
0.961028 0.327489 0.0909895
0.989639 0.325612 0.10605
1 0.324147 0.118013
0.000579843 0.375402 0
0.00891127 0.382666 0
0.000579843 0.393439 0.0129549
0.00636301 0.397986 0.0304723
0.0356298 0.39913 0.0247654
0.0553445 0.401968 0.030396
0.0971237 0.396933 0.0492561
0.167636 0.382666 0.0743725
0.229633 0.370779 0.101869
0.271824 0.366293 0.113741
0.303868 0.3673 0.101747
0.340764 0.369116 0.0672007
0.386618 0.365896 0.0562142
0.427741 0.362356 0.062623
0.462684 0.360586 0.0690166
0.493919 0.360082 0.0738079
0.522896 0.360571 0.075349
0.550454 0.361837 0.0733654
0.576059 0.364111 0.0675059
0.60032 0.367376 0.0559396
0.625956 0.370764 0.0392157
0.655695 0.372808 0.0230564
0.687831 0.373724 0.0115053
0.720699 0.373846 0.0056611
0.753674 0.373541 0.00424201
0.786587 0.372763 0.00585946
0.820188 0.371725 0.0100099
0.854246 0.370169 0.0168765
0.888533 0.368277 0.0265049
0.922988 0.366049 0.0392157
0.957229 0.363592 0.0544137
0.987671 0.361151 0.0709544
1 0.359167 0.0855421
0.00062562 0.406668 0
0.0102235 0.413611 0
0.000656138 0.424598 0.0081178
0.00105287 0.430564 0.0324254
0.0308537 0.431312 0.0286564
0.0536202 0.434089 0.0262913
0.0756085 0.435111 0.043473
0.140215 0.423072 0.0650797
0.209674 0.40885 0.0926375
0.265156 0.399283 0.116854
0.302968 0.396582 0.123064
0.3346 0.398245 0.105287
0.372808 0.399817 0.0704051
0.418906 0.396323 0.0608835
0.460227 0.392706 0.0672923
0.495781 0.390753 0.0738384
0.527596 0.390082 0.0791485
0.557015 0.390249 0.0817273
0.585077 0.391379 0.0809491
0.611429 0.393256 0.0767071
0.63624 0.396002 0.06804
0.660578 0.399435 0.0540322
0.687541 0.402502 0.0367742
0.718242 0.404196 0.0214389
0.750622 0.404944 0.0110933
0.783536 0.404944 0.00590524
0.81648 0.404623 0.00457771
0.849393 0.403861 0.00613413
0.882933 0.402869 0.00994888
0.916869 0.401358 0.0162509
0.951125 0.399664 0.0250706
0.983642 0.397528 0.0367285
1 0.395422 0.0492256
0.000671397 0.437949 0
0.0113985 0.444556 0
0.000961318 0.455558 0.00354009
0.00077821 0.462974 0.032578
0.0228733 0.464515 0.0328069
0.0518654 0.466011 0.0257572
0.0675212 0.469383 0.037644
0.112627 0.463264 0.0578622
0.183474 0.448966 0.0816052
0.249378 0.435798 0.110277
0.298863 0.428428 0.130098
0.333761 0.427222 0.131151
0.365408 0.429343 0.1084
0.404913 0.430426 0.0737011
0.451118 0.426795 0.065568
0.492744 0.423072 0.0719615
0.528756 0.421027 0.0785534
0.56112 0.42002 0.0842451
0.591073 0.42005 0.0878157
0.61941 0.420966 0.0881056
0.64651 0.422538 0.0850385
0.671901 0.424887 0.0785687
0.696223 0.428061 0.0673991
0.721263 0.431525 0.0516213
0.749615 0.434119 0.0344244
0.780865 0.435615 0.0201877
0.813397 0.436149 0.0108034
0.846342 0.436103 0.00610361
0.879271 0.435782 0.00489815
0.9122 0.43508 0.00633249
0.945586 0.434073 0.00993362
0.978759 0.432593 0.0158236
1 0.431098 0.0231785
0.000717174 0.469215 0
0.0124666 0.475502 0
0.00317388 0.486656 0
0.000900282 0.495048 0.0310216
0.0152285 0.497627 0.0370947
0.0459449 0.498543 0.0296483
0.0643168 0.502174 0.0311742
0.090959 0.501534 0.0513008
0.156069 0.489357 0.0730755
0.226276 0.475013 0.0995651
0.287221 0.463432 0.127153
0.331304 0.458122 0.141726
0.364324 0.458 0.138064
0.396429 0.460426 0.111009
0.437049 0.461082 0.0772259
0.483406 0.457282 0.070222
0.525185 0.453559 0.0765698
0.561685 0.451286 0.083299
0.594598 0.450156 0.0892348
0.625025 0.450019 0.0935225
0.653696 0.450706 0.0948959
0.681285 0.451987 0.0929427
0.707286 0.453941 0.0879225
0.732082 0.456779 0.0791638
0.756359 0.460243 0.0658885
0.782406 0.463416 0.0489509
0.811826 0.46569 0.0323491
0.843534 0.46688 0.0191958
0.876204 0.467338 0.0106355
0.909133 0.467262 0.00636301
0.942092 0.466941 0.00529488
0.974777 0.466239 0.00660716
1 0.465339 0.00972
0.000762951 0.500557 0
0.0133669 0.506584 0
0.00549325 0.517601 0
0.0010071 0.526955 0.0280919
0.00862135 0.530495 0.0406653
0.0393378 0.531289 0.034226
0.0628977 0.533959 0.0304112
0.0785534 0.536889 0.0479133
0.128832 0.529335 0.0659037
0.199817 0.51519 0.089662
0.267247 0.50164 0.117525
0.322942 0.491783 0.142535
0.362905 0.488243 0.152224
0.394797 0.48893 0.143999
0.427604 0.491478 0.113451
0.469322 0.491585 0.080827
0.515633 0.487755 0.0749523
0.557687 0.483879 0.0812848
0.594568 0.48159 0.0880293
0.627894 0.480354 0.0941176
0.658793 0.480003 0.0989242
0.687922 0.480369 0.101305
0.71577 0.481437 0.100435
0.742443 0.483207 0.0965896
0.767788 0.485634 0.0896925
0.792065 0.488823 0.0787976
0.816831 0.492271 0.0637217
0.843961 0.495247 0.046479
0.874266 0.497169 0.0305333
0.906218 0.498116 0.0183719
0.938994 0.498527 0.0105287
0.971923 0.498421 0.00657664
1 0.497963 0.00561532
0.000808728 0.531807 0
0.0141909 0.537621 0
0.00781262 0.54847 0
0.00105287 0.558587 0.0240635
0.00309758 0.563195 0.0428168
0.032578 0.56405 0.0388952
0.0605173 0.565713 0.0320897
0.0758068 0.569619 0.0407721
0.105669 0.568093 0.0602731
0.171801 0.555596 0.0809796
0.242145 0.541405 0.106355
0.30695 0.528542 0.135561
0.357275 0.520714 0.156466
0.394018 0.518578 0.161654
0.425299 0.519814 0.149081
0.458946 0.522484 0.115801
0.501472 0.522286 0.0846571
0.547921 0.518227 0.0796216
0.590097 0.514382 0.0858778
0.627359 0.51194 0.0926833
0.661067 0.510491 0.09897
0.69247 0.510018 0.104143
0.722072 0.510094 0.107362
0.750164 0.511025 0.107546
0.77731 0.512566 0.104707
0.803128 0.514702 0.0991836
0.828016 0.51751 0.0903334
0.852186 0.520897 0.0774548
0.877668 0.524269 0.061265
0.905882 0.526879 0.0439612
0.936767 0.528588 0.0289769
0.968963 0.529397 0.0176089
1 0.529641 0.0104982
0.000854505 0.563088 0
0.0148928 0.568719 0
0.0100862 0.579278 0
0.00108339 0.590021 0.0194553
0.000991836 0.595728 0.0436255
0.0248569 0.597192 0.0432898
0.0559854 0.597955 0.0355993
0.0750744 0.601556 0.0357519
0.0932326 0.603464 0.0556344
0.144854 0.595483 0.074464
0.215991 0.581262 0.0976425
0.284352 0.567544 0.124498
0.344778 0.556054 0.152468
0.390387 0.550179 0.169024
0.424857 0.548989 0.170214
0.455863 0.550866 0.153399
0.490455 0.553414 0.118044
0.533791 0.552789 0.0886702
0.580133 0.548699 0.0842908
0.622492 0.544762 0.0904707
0.660121 0.542245 0.0973831
0.69427 0.540703 0.103777
0.72607 0.540002 0.109255
0.756085 0.539925 0.11313
0.784573 0.540673 0.114336
0.811978 0.541924 0.112535
0.838331 0.543908 0.107973
0.863645 0.546395 0.100771
0.888075 0.549477 0.0900435
0.912505 0.552987 0.0756085
0.938918 0.556191 0.0587167
0.968017 0.55848 0.0417029
0.999374 0.55996 0.0276036
0.000915541 0.594354 0
0.0155489 0.599832 0
0.0122377 0.610147 0
0.00112917 0.621286 0.0146029
0.00106813 0.628031 0.0430762
0.0173342 0.630198 0.0475013
0.0488441 0.630869 0.0400854
0.073518 0.633371 0.0347295
0.0879377 0.636957 0.0487221
0.120745 0.634501 0.0691081
0.187625 0.621866 0.0890211
0.258717 0.607477 0.114305
0.325124 0.594095 0.142702
0.380926 0.584344 0.168276
0.422492 0.57995 0.180285
0.455482 0.579705 0.177859
0.486473 0.581903 0.157092
0.522042 0.584329 0.120363
0.566003 0.583307 0.0927596
0.612436 0.579232 0.0889601
0.654887 0.57528 0.0951247
0.692897 0.572549 0.102098
0.727367 0.570962 0.108507
0.759533 0.570092 0.114214
0.789914 0.56994 0.118654
0.818814 0.570382 0.12079
0.846571 0.571481 0.120089
0.873304 0.573205 0.116442
0.898985 0.575418 0.110369
0.923858 0.578271 0.101472
0.948119 0.581537 0.0890669
0.973144 0.585046 0.0733806
1 0.588022 0.0562295
0.000961318 0.625635 0
0.016083 0.630945 0
0.0142519 0.64094 0
0.00111391 0.652354 0.00979629
0.00115969 0.660121 0.0412757
0.0107881 0.663233 0.0508888
0.0416571 0.663737 0.0447242
0.0695964 0.665537 0.0377966
0.0857252 0.669566 0.0423743
0.106859 0.67039 0.0634165
0.160388 0.661845 0.0829175
0.2318 0.647547 0.105486
0.300618 0.633875 0.131182
0.364599 0.621149 0.160815
0.415534 0.613062 0.182605
0.453971 0.610132 0.190631
0.485908 0.610468 0.184665
0.517174 0.613001 0.160403
0.553719 0.615213 0.12285
0.598321 0.613825 0.0969406
0.644648 0.609674 0.0936446
0.687282 0.605722 0.0997787
0.725567 0.602869 0.106783
0.760357 0.60119 0.113252
0.792889 0.600259 0.119142
0.823743 0.599924 0.123964
0.85304 0.600122 0.126925
0.881071 0.601083 0.127245
0.908095 0.602548 0.124575
0.934127 0.604639 0.119524
0.959442 0.607202 0.11191
0.983948 0.610239 0.101366
1 0.61355 0.0887922
0.0010071 0.656947 0
0.0166476 0.662074 0
0.0161593 0.671778 0
0.00155642 0.683314 0.00529488
0.00128176 0.692012 0.0384375
0.00508125 0.695827 0.053193
0.0345006 0.696727 0.0494087
0.0649271 0.697765 0.0417029
0.085008 0.701183 0.0404059
0.0989242 0.704601 0.0579995
0.136675 0.700725 0.0769513
0.203784 0.688045 0.0973068
0.275196 0.673472 0.122347
0.342123 0.660258 0.149218
0.402426 0.648661 0.17792
0.449058 0.642313 0.195727
0.485069 0.640391 0.200183
0.516411 0.641459 0.190753
0.548012 0.644053 0.163256
0.585534 0.646067 0.125444
0.630549 0.644388 0.101167
0.676951 0.640131 0.0982986
0.719661 0.636103 0.104448
0.758267 0.633265 0.111406
0.793332 0.63151 0.118013
0.826215 0.630335 0.12401
0.857404 0.629831 0.129137
0.887083 0.629953 0.132769
0.915465 0.630671 0.133974
0.94287 0.631998 0.132357
0.969268 0.63389 0.128054
0.993988 0.636225 0.12163
1 0.638392 0.116396
0.00105287 0.688228 0
0.0170901 0.693202 0
0.0178531 0.702632 0
0.00389105 0.714382 0.0011902
0.00141909 0.72369 0.0347601
0.00105287 0.728389 0.0544137
0.0269017 0.729747 0.0539406
0.0590372 0.730266 0.0462348
0.0836347 0.73286 0.0406043
0.0972152 0.736996 0.0508431
0.119692 0.737453 0.0727092
0.176287 0.728069 0.0910658
0.247364 0.713985 0.113207
0.317357 0.699855 0.139086
0.383062 0.686656 0.16817
0.438758 0.676814 0.193957
0.481666 0.671962 0.207736
0.515923 0.670909 0.209003
0.546822 0.672328 0.196139
0.578988 0.67512 0.165805
0.617365 0.676905 0.128099
0.662852 0.674891 0.105425
0.709178 0.670619 0.102968
0.752026 0.666499 0.109056
0.79086 0.663661 0.116075
0.826261 0.661662 0.122759
0.859449 0.660487 0.128847
0.890929 0.659892 0.134218
0.921004 0.659831 0.138277
0.949767 0.66038 0.140261
0.977462 0.661494 0.139712
1 0.663188 0.136324
1 0.664179 0.136263
0.00109865 0.719493 0
0.0175326 0.72433 0
0.019501 0.733486 0
0.00630198 0.745357 0
0.00157168 0.755154 0.030457
0.00111391 0.760815 0.0545968
0.0195163 0.762798 0.0580148
0.051606 0.763287 0.0508278
0.0802319 0.764828 0.0433051
0.09691 0.768948 0.045655
0.112306 0.771572 0.0667277
0.152026 0.767071 0.085832
0.219669 0.754238 0.105516
0.291341 0.739727 0.130266
0.358831 0.726375 0.15613
0.422293 0.713756 0.186221
0.473686 0.705562 0.208606
0.513512 0.702022 0.218769
0.546532 0.701579 0.217121
0.577264 0.703426 0.200977
0.61001 0.706218 0.168322
0.649363 0.70753 0.130709
0.695064 0.70547 0.109789
0.741466 0.701091 0.107637
0.78439 0.697093 0.11371
0.823468 0.694011 0.120745
0.85919 0.692012 0.127413
0.892622 0.690684 0.133654
0.924437 0.689967 0.139162
0.954833 0.68983 0.143572
0.983276 0.69015 0.146288
1 0.691051 0.146838
1 0.691249 0.148608
0.00114443 0.750774 0
0.0179141 0.75555 0
0.0209506 0.764416 0
0.0087892 0.776196 0
0.00163272 0.786557 0.0257572
0.00123598 0.793027 0.0535897
0.0130007 0.795697 0.0612955
0.0441444 0.796292 0.0554971
0.0746014 0.797253 0.0476234
0.0960098 0.800626 0.0440833
0.108812 0.804608 0.0587167
0.134035 0.80412 0.0812085
0.192615 0.794186 0.0992599
0.263508 0.780163 0.121462
0.333883 0.765972 0.14699
0.400366 0.752636 0.174792
0.460166 0.741299 0.203403
0.507454 0.734722 0.222095
0.545037 0.732082 0.229114
0.577081 0.73228 0.224491
0.607797 0.73431 0.205097
0.64126 0.73727 0.170581
0.681315 0.738338 0.133745
0.727382 0.735943 0.114092
0.773693 0.731517 0.112291
0.816678 0.727535 0.118334
0.855985 0.724483 0.125353
0.892012 0.722301 0.132143
0.925734 0.720867 0.138445
0.957809 0.720043 0.144076
0.986816 0.719768 0.148836
1 0.71989 0.152193
1 0.719921 0.154772
0.0011902 0.782101 0
0.0183108 0.786679 0
0.0223392 0.795331 0
0.0112612 0.807065 0
0.00161746 0.817853 0.0209201
0.00137331 0.825177 0.0517128
0.00715648 0.828397 0.0636301
0.0367132 0.829282 0.0601511
0.068513 0.829938 0.0523079
0.0935225 0.832364 0.0460822
0.10753 0.836927 0.0520943
0.125002 0.838636 0.0754406
0.167208 0.833448 0.094728
0.235401 0.820615 0.113451
0.307134 0.806134 0.138003
0.376013 0.792172 0.164111
0.440909 0.779232 0.193576
0.496529 0.769375 0.219547
0.540551 0.76405 0.234684
0.57612 0.762463 0.238758
0.607553 0.763165 0.231266
0.638346 0.765454 0.208957
0.672511 0.768246 0.172763
0.71339 0.768978 0.136751
0.759701 0.766384 0.118456
0.805966 0.762127 0.11696
0.849042 0.757931 0.122988
0.888548 0.754757 0.130022
0.92488 0.75259 0.136858
0.958801 0.751156 0.14316
0.988479 0.750225 0.148943
1 0.749783 0.153826
1 0.749493 0.157137
0.00125124 0.813367 0
0.0185702 0.817899 0
0.0235752 0.826276 0
0.0136416 0.837858 0
0.0016022 0.849012 0.0161593
0.0015259 0.857038 0.0489052
0.00216678 0.861143 0.0650187
0.0290074 0.862303 0.0645609
0.0619059 0.862638 0.0572061
0.0903182 0.864286 0.0493019
0.107424 0.868406 0.049485
0.119326 0.872328 0.0680705
0.148714 0.870695 0.0894026
0.208637 0.86041 0.107607
0.279469 0.846433 0.129564
0.350317 0.832074 0.155001
0.417105 0.81883 0.181399
0.480003 0.806332 0.211673
0.531655 0.797986 0.23447
0.572854 0.793805 0.246387
0.606928 0.792844 0.247684
0.637964 0.793927 0.237415
0.669001 0.796582 0.212375
0.703899 0.799268 0.175006
0.745464 0.799664 0.139879
0.791913 0.796933 0.122881
0.838193 0.792599 0.12163
0.881376 0.788403 0.127642
0.92108 0.785122 0.134676
0.957534 0.78291 0.141466
0.988724 0.781353 0.147921
1 0.780407 0.15349
1 0.779873 0.157382
0.00129702 0.844633 0
0.0188602 0.849058 0
