src/LiveStudio.Agent/BuiltInAssets/ColorCards/v1/cube/减龄色调.cube
TITLE "Generate by Resolve"
LUT_3D_SIZE 5
0 0 0
0.279957 0 0.0191806
0.560845 0 0.039704
0.841337 0 0.0594339
1 0 0.0770428
0.000381476 0.250263 0
0.257588 0.243931 0.0375067
0.502449 0.248981 0.00285344
0.769604 0.234546 0.0956893
1 0.226398 0.155871
0.000762951 0.500557 0
0.128832 0.529335 0.0659037
0.515633 0.487755 0.0749523
0.767788 0.485634 0.0896925
1 0.497963 0.00561532
0.00114443 0.750774 0
0.0746014 0.797253 0.0476234
0.460166 0.741299 0.203403
0.773693 0.731517 0.112291
1 0.719921 0.154772
0.0015259 0.999756 0
0.0172274 0.999802 0.0818647
0.260365 0.999695 0.130632
0.727092 0.975906 0.305974
1 0.976196 0.148516
0.00256352 0.000457771 0.275135
0.249042 0.000122072 0.25124
0.599344 0 0.303227
0.938262 0 0.148852
1 0 0.136751
0 0.267277 0.261219
0.249989 0.249989 0.249989
0.531731 0.238773 0.267384
0.818433 0.225925 0.286976
1 0.216403 0.302434
0.000366217 0.557839 0.1823
0.249378 0.50042 0.247608
0.507591 0.493935 0.28751
0.752468 0.498985 0.252842
1 0.484627 0.344656
0.000701915 0.787076 0.185931
0.249302 0.750744 0.245106
0.378836 0.779339 0.315892
0.765637 0.737758 0.324895
1 0.735073 0.342931
0.000991836 0.999924 0.201389
0.24918 0.999802 0.242679
0.324239 0.999817 0.297871
0.71014 0.988739 0.453407
1 0.982116 0.361425
0.00494392 0.000762951 0.549981
0.247333 0.000701915 0.500664
0.4981 0.00030518 0.502495
0.785458 0 0.567971
0.999512 0 0.612818
0.010071 0.279973 0.425238
0.25182 0.246967 0.524392
0.499046 0.250111 0.501244
0.84686 0.215412 0.557214
1 0.204746 0.393927
0 0.534142 0.524361
0.184833 0.518135 0.511864
0.499992 0.499992 0.499992
0.783566 0.488228 0.517723
1 0.477653 0.534829
0.00015259 0.862562 0.433799
0.0599374 0.822354 0.422461
0.499382 0.750423 0.497612
0.757595 0.743938 0.537514
1 0.749004 0.502831
0.000549325 1 0.363577
0.118196 1 0.422477
0.499306 0.999878 0.495109
0.630671 0.999847 0.565103
1 0.988098 0.574304
0.0074464 0.000793469 0.824979
0.223438 0.00790417 0.749889
0.496391 0.000885023 0.751919
0.747158 0.000427253 0.753735
0.999069 6.10361e-05 0.779965
0.0411536 0.256138 0.795483
0.253315 0.24416 0.79823
0.497337 0.25069 0.750668
0.748104 0.250294 0.752499
0.999329 0.234333 0.811505
0.0012665 0.536797 0.630243
0.17113 0.531655 0.668391
0.501823 0.496971 0.774395
0.74905 0.500114 0.751247
0.99971 0.46952 0.807126
0 0.800946 0.787564
0.120439 0.785916 0.775479
0.434836 0.768154 0.761868
0.749996 0.749996 0.749996
1 0.738491 0.767056
0 1 0.727855
0.00703441 1 0.70219
0.282063 1 0.676066
0.749386 0.999939 0.747616
1 0.994079 0.787198
0.0099031 0.000869764 0.999146
0.153429 0.0300755 0.986007
0.494774 0.00143435 1
0.745449 0.0010071 1
0.996155 0.00062562 1
0.032639 0.230259 1
0.254841 0.241413 0.999374
0.473487 0.257893 0.999557
0.746395 0.250874 1
0.997162 0.250416 1
0.0200198 0.560067 0.849775
0.20502 0.509438 1
0.503288 0.494285 0.999496
0.747341 0.500694 1
0.998108 0.500298 1
0.000274662 0.789685 0.885344
0.164004 0.787472 0.881895
0.421134 0.781674 0.918395
0.751842 0.747021 0.999573
0.999054 0.750118 1
0 1 0.997086
0.0668956 1 0.997284
0.374334 1 0.998184
0.687175 1 0.999084
1 1 1
