src/LiveStudio.Agent/BuiltInAssets/ColorCards/v1/cube/减龄色调.cube
TITLE "Generate by Resolve"
LUT_3D_SIZE 9
0 0 0
0.1393 0 0.00926223
0.279957 0 0.0191806
0.420462 0 0.0295109
0.560845 0 0.039704
0.70106 0 0.0495613
0.841337 0 0.0594339
0.967422 0 0.0694438
1 0 0.0770428
0.000198367 0.125124 0
0.128603 0.122026 0.018677
0.251225 0.124468 0.00148013
0.384802 0.117281 0.0476081
0.513695 0.113024 0.0779889
0.644862 0.109483 0.0960098
0.779767 0.104967 0.110216
0.915801 0.10042 0.122728
1 0.0951095 0.134386
0.000381476 0.250263 0
0.0652476 0.2645 0.0324712
0.257588 0.243931 0.0375067
0.384298 0.242588 0.0453956
0.502449 0.248981 0.00285344
0.638086 0.242466 0.0362554
0.769604 0.234546 0.0956893
0.897566 0.229984 0.131746
1 0.226398 0.155871
0.000579843 0.375402 0
0.0356298 0.39913 0.0247654
0.229633 0.370779 0.101869
0.386618 0.365896 0.0562142
0.522896 0.360571 0.075349
0.625956 0.370764 0.0392157
0.753674 0.373541 0.00424201
0.888533 0.368277 0.0265049
1 0.359167 0.0855421
0.000762951 0.500557 0
0.00862135 0.530495 0.0406653
0.128832 0.529335 0.0659037
0.362905 0.488243 0.152224
0.515633 0.487755 0.0749523
0.658793 0.480003 0.0989242
0.767788 0.485634 0.0896925
0.874266 0.497169 0.0305333
1 0.497963 0.00561532
0.000961318 0.625635 0
0.00115969 0.660121 0.0412757
0.0857252 0.669566 0.0423743
0.300618 0.633875 0.131182
0.485908 0.610468 0.184665
0.644648 0.609674 0.0936446
0.792889 0.600259 0.119142
0.908095 0.602548 0.124575
1 0.61355 0.0887922
0.00114443 0.750774 0
0.00163272 0.786557 0.0257572
0.0746014 0.797253 0.0476234
0.192615 0.794186 0.0992599
0.460166 0.741299 0.203403
0.607797 0.73431 0.205097
0.773693 0.731517 0.112291
0.925734 0.720867 0.138445
1 0.719921 0.154772
0.00134279 0.875914 0
0.002121 0.911086 0.00701915
0.0462348 0.928862 0.0660258
0.131685 0.939513 0.0774701
0.366537 0.898207 0.162875
0.599252 0.856245 0.261402
0.730571 0.858747 0.218265
0.902678 0.853544 0.130999
1 0.842298 0.154788
0.0015259 0.999756 0
0.0119173 0.999741 0
0.0172274 0.999802 0.0818647
0.127245 0.999725 0.0588235
0.260365 0.999695 0.130632
0.533989 0.993637 0.233127
0.727092 0.975906 0.305974
0.854826 0.983017 0.22768
1 0.976196 0.148516
0.00146487 0.000183108 0.137789
0.124468 6.10361e-05 0.125612
0.299199 0 0.14873
0.471061 0 0.0745708
0.618433 0 0.0721904
0.765606 0 0.0797894
0.913985 0 0.0931106
0.999557 0 0.10631
1 0 0.113695
0 0.133806 0.129961
0.124987 0.124987 0.124987
0.265064 0.119661 0.133593
0.406729 0.113771 0.142382
0.550988 0.107073 0.152224
0.693416 0.100923 0.161975
0.835538 0.0948959 0.171191
0.962127 0.0906844 0.179461
1 0.0837415 0.187488
0.000183108 0.278843 0.0915694
0.12462 0.250217 0.123919
0.253605 0.247028 0.143664
0.376226 0.24947 0.126467
0.509804 0.242283 0.172549
0.638697 0.238025 0.202976
0.769787 0.234516 0.220966
0.904295 0.230137 0.235035
1 0.225681 0.247105
0.000350958 0.393622 0.0928969
0.124376 0.375418 0.122606
0.190219 0.389502 0.157473
0.382589 0.368933 0.162509
0.5093 0.36759 0.170397
0.627466 0.373983 0.12784
0.763073 0.367468 0.161151
0.894606 0.359548 0.220691
1 0.355138 0.255879
0.000503548 0.51165 0.100618
0.124331 0.500572 0.121324
0.160601 0.524132 0.14931
0.354635 0.495781 0.226856
0.51162 0.490898 0.181201
0.647898 0.485573 0.200351
0.750957 0.495766 0.164218
0.878676 0.498543 0.129244
1 0.493446 0.150439
0.000686656 0.632822 0.105837
0.1243 0.625742 0.120104
0.133333 0.655497 0.165545
0.253834 0.654337 0.19089
0.487922 0.613184 0.277165
0.640635 0.612757 0.199893
0.783795 0.605005 0.223926
0.89279 0.610651 0.214679
0.999252 0.622156 0.15552
0.000854505 0.75552 0.109102
0.124208 0.75082 0.118898
0.117403 0.785183 0.165988
0.210727 0.794568 0.167376
0.42562 0.758877 0.256168
0.61091 0.73547 0.309667
0.769665 0.734676 0.218631
0.917876 0.725261 0.244129
1 0.72639 0.253681
0.00103761 0.878981 0.111208
0.124178 0.875944 0.117678
0.11809 0.911589 0.150454
0.199588 0.922255 0.172625
0.317617 0.919188 0.224262
0.585153 0.8663 0.328405
0.732799 0.859312 0.330083
0.898695 0.856519 0.237293
1 0.846159 0.261357
0.00122072 0.999847 0.112596
0.124117 0.999771 0.116457
0.126635 0.999756 0.130571
0.171145 0.999771 0.191226
0.256275 0.999771 0.20528
0.492256 0.999695 0.287831
0.724239 0.98114 0.386389
0.855573 0.983749 0.343252
1 0.979187 0.254994
0.00256352 0.000457771 0.275135
0.123705 0.000335698 0.250324
0.249042 0.000122072 0.25124
0.393088 0 0.283894
0.599344 0 0.303227
0.789624 0 0.183383
0.938262 0 0.148852
1 0 0.142351
1 0 0.136751
0.00521859 0.139788 0.213764
0.126207 0.123369 0.262562
0.24947 0.125048 0.250614
0.423407 0.108034 0.2757
0.598047 0.101274 0.196796
0.746685 0.0948196 0.190555
0.895674 0.0870375 0.196735
0.992782 0.0784772 0.208042
1 0.0729992 0.21387
0 0.267277 0.261219
0.092134 0.259251 0.255299
0.249989 0.249989 0.249989
0.391226 0.244297 0.2589
0.531731 0.238773 0.267384
0.676188 0.231998 0.277317
0.818433 0.225925 0.286976
0.956527 0.219883 0.296178
1 0.216403 0.302434
7.62951e-05 0.431083 0.217166
0.0299535 0.411048 0.211566
0.249622 0.375219 0.24892
0.378607 0.37203 0.268666
0.501228 0.374472 0.251469
0.634806 0.367285 0.297551
0.763699 0.363027 0.327977
0.894865 0.359487 0.345998
1 0.355169 0.359731
0.000366217 0.557839 0.1823
0.0611429 0.523079 0.211749
0.249378 0.50042 0.247608
0.315221 0.514504 0.282475
0.507591 0.493935 0.28751
0.634302 0.492592 0.295399
0.752468 0.498985 0.252842
0.888075 0.49247 0.286152
1 0.484627 0.344656
0.000549325 0.672663 0.178836
0.0888991 0.63856 0.222568
0.249332 0.625574 0.246326
0.285603 0.649134 0.274311
0.479637 0.620783 0.351858
0.636622 0.6159 0.306203
0.7729 0.610574 0.325353
0.875959 0.620768 0.289219
1 0.623499 0.254215
0.000701915 0.787076 0.185931
0.102724 0.758709 0.229221
0.249302 0.750744 0.245106
0.258335 0.780499 0.290547
0.378836 0.779339 0.315892
0.612924 0.738186 0.402167
0.765637 0.737758 0.324895
0.908797 0.730007 0.348928
1 0.735073 0.342931
0.000854505 0.903853 0.194491
0.110643 0.880919 0.233204
0.249226 0.875822 0.243885
0.242405 0.91017 0.290974
0.335729 0.91957 0.292378
0.550622 0.883879 0.38117
0.735912 0.860471 0.434669
0.894667 0.859678 0.343633
1 0.850294 0.36762
0.000991836 0.999924 0.201389
0.115587 0.999893 0.235676
0.24918 0.999802 0.242679
0.243 0.999802 0.275547
0.324239 0.999817 0.297871
0.445472 0.999771 0.347936
0.71014 0.988739 0.453407
0.857801 0.984314 0.455085
1 0.982116 0.361425
0.0037232 0.000671397 0.412543
0.111894 0.0037995 0.374838
0.248188 0.000396735 0.375952
0.373526 0.000244144 0.376867
0.506142 3.0518e-05 0.39115
0.683131 0 0.455375
0.898833 0 0.4542
1 0 0.319783
1 0 0.256474
0.0205692 0.127962 0.397711
0.126818 0.121965 0.39939
0.248707 0.125322 0.375326
0.374044 0.125109 0.376242
0.51783 0.116213 0.408606
0.721859 0.0904097 0.432212
0.917052 0.0817731 0.309117
1 0.0776379 0.266499
1 0.074464 0.250935
0.000595102 0.268818 0.314977
0.0857252 0.26566 0.335348
0.251209 0.248371 0.387564
0.374472 0.25005 0.375616
0.548409 0.233036 0.400702
0.723049 0.226276 0.321798
0.871687 0.219821 0.315557
0.985214 0.212055 0.32163
1 0.205768 0.327596
0 0.400763 0.392706
0.060441 0.393133 0.386877
0.217136 0.384253 0.380301
0.37499 0.37499 0.37499
0.516121 0.369329 0.383856
0.656733 0.363775 0.392386
0.800992 0.357076 0.402228
0.942946 0.350927 0.411978
1 0.345632 0.419318
0 0.573312 0.356863
0.00361639 0.562509 0.345632
0.141924 0.536065 0.336522
0.374624 0.500221 0.373922
0.503624 0.497032 0.393668
0.62623 0.499474 0.376471
0.759808 0.492287 0.422553
0.888701 0.488029 0.452979
1 0.484581 0.470558
0.000289921 0.714458 0.300099
0.000259403 0.696834 0.297734
0.185214 0.648081 0.336751
0.37438 0.625422 0.37261
0.440223 0.639506 0.407477
0.632593 0.618936 0.412512
0.759304 0.617594 0.420401
0.87747 0.623987 0.377844
1 0.617639 0.409964
0.000549325 0.836805 0.273121
0.00784314 0.811322 0.287922
0.213901 0.763561 0.34757
0.374334 0.750576 0.371328
0.410605 0.774136 0.399313
0.604639 0.745785 0.47686
0.761624 0.740902 0.431205
0.897902 0.735576 0.450355
1 0.745754 0.414252
0.000732433 0.952117 0.267063
0.0217746 0.920974 0.298283
0.227726 0.883711 0.354223
0.374304 0.875746 0.370108
0.383337 0.905501 0.415549
0.503838 0.904341 0.440894
0.737926 0.863188 0.527169
0.890639 0.86276 0.449897
1 0.85481 0.473304
0.000808728 0.999985 0.269734
0.0343175 1 0.310246
0.235584 0.999924 0.358175
0.374212 0.999847 0.368887
0.367239 0.999863 0.416037
0.459388 0.999832 0.419318
0.675608 0.998199 0.506188
0.860914 0.985473 0.55967
1 0.985092 0.467887
0.00494392 0.000762951 0.549981
0.0770275 0.0148623 0.493172
0.247333 0.000701915 0.500664
0.372763 0.000518807 0.501579
0.4981 0.00030518 0.502495
0.626001 4.57771e-05 0.50724
0.785458 0 0.567971
0.970138 0 0.619699
0.999512 0 0.612818
0.0146487 0.115053 0.564935
0.12752 0.120577 0.536278
0.236912 0.128786 0.49984
0.37319 0.125383 0.500954
0.498527 0.125231 0.501869
0.631083 0.121553 0.516075
0.807034 0.100038 0.579812
0.985092 0.0731975 0.585504
0.999954 0.0629892 0.480171
0.010071 0.279973 0.425238
0.104067 0.254124 0.520592
0.25182 0.246967 0.524392
0.373709 0.250324 0.500328
0.499046 0.250111 0.501244
0.642832 0.241215 0.533608
0.84686 0.215412 0.557214
0.990036 0.20679 0.433967
1 0.204746 0.393927
0.000106813 0.395209 0.44213
0.0805829 0.39411 0.440528
0.210727 0.390661 0.460349
0.376211 0.373373 0.512566
0.499474 0.375051 0.500633
0.673411 0.358038 0.525704
0.848051 0.351278 0.446799
0.977401 0.344839 0.440497
1 0.338994 0.442023
0 0.534142 0.524361
0.0348669 0.527153 0.518624
0.184833 0.518135 0.511864
0.342138 0.509255 0.505302
0.499992 0.499992 0.499992
0.639994 0.494697 0.508568
0.783566 0.488228 0.517723
0.923095 0.482963 0.526665
1 0.477653 0.534829
0 0.711757 0.497139
0 0.703456 0.486702
0.0661326 0.687541 0.470436
0.266926 0.661067 0.461524
0.499626 0.625223 0.498924
0.628626 0.622034 0.518669
0.751232 0.624475 0.501472
0.88481 0.617288 0.547555
1 0.613138 0.5776
0.00015259 0.862562 0.433799
0.00015259 0.849287 0.424689
0.0599374 0.822354 0.422461
0.310216 0.773083 0.461753
0.499382 0.750423 0.497612
0.565255 0.764508 0.532479
0.757595 0.743938 0.537514
0.884306 0.742596 0.545403
1 0.749004 0.502831
0.000457771 0.979385 0.387076
0.000442512 0.970138 0.386206
0.0785077 0.936355 0.412772
0.338903 0.888563 0.472572
0.499336 0.875578 0.49633
0.535607 0.899138 0.52433
0.729641 0.870787 0.601862
0.886625 0.865904 0.556207
1 0.860105 0.576638
0.000549325 1 0.363577
0.000518807 1 0.374334
0.118196 1 0.422477
0.352575 0.999954 0.479164
0.499306 0.999878 0.495109
0.508217 0.999908 0.540597
0.630671 0.999847 0.565103
0.862928 0.988174 0.652171
1 0.988098 0.574304
0.00619516 0.000808728 0.687465
0.0636759 0.0191653 0.615793
0.246098 0.00112917 0.625391
0.371908 0.000823987 0.626291
0.497246 0.000595102 0.627222
0.622583 0.000366217 0.628122
0.748592 7.62951e-05 0.629679
0.895171 3.0518e-05 0.672557
0.999207 1.5259e-05 0.730495
0.0233005 0.109163 0.71281
0.128313 0.119158 0.673228
0.202029 0.139849 0.618173
0.372335 0.125689 0.625666
0.497765 0.125505 0.626581
0.623102 0.125292 0.627497
0.751003 0.123949 0.632227
0.909926 0.10782 0.692241
0.999329 0.0884565 0.733166
0.0300908 0.275547 0.599786
0.136584 0.239933 0.690181
0.252522 0.245579 0.66128
0.361913 0.253788 0.624842
0.498192 0.250385 0.625956
0.623529 0.250233 0.626871
0.756085 0.246555 0.641077
0.932036 0.22504 0.704814
0.999557 0.204227 0.710628
0.00289921 0.410025 0.51368
0.0463264 0.406653 0.543389
0.229068 0.379126 0.645594
0.376822 0.371969 0.649393
0.498711 0.375326 0.62533
0.624048 0.375113 0.626245
0.767834 0.366217 0.65861
0.968826 0.340414 0.682216
1 0.332967 0.571466
0 0.522164 0.576242
0.0746166 0.520653 0.567742
0.205585 0.519127 0.56553
0.335729 0.515663 0.585351
0.501213 0.498375 0.637568
0.624475 0.500053 0.625635
0.798413 0.48304 0.650706
0.96907 0.47628 0.571786
1 0.471489 0.562173
0 0.667567 0.656046
0.0222324 0.660899 0.650553
0.152514 0.652155 0.64361
0.309834 0.643137 0.636866
0.46714 0.634256 0.630304
0.624994 0.624994 0.624994
0.764981 0.619699 0.63357
0.906538 0.61387 0.642298
1 0.608454 0.650629
0 0.848142 0.636271
0 0.840986 0.626902
0.047303 0.829587 0.612696
0.174578 0.812558 0.595392
0.391928 0.786068 0.586526
0.624628 0.750225 0.623926
0.753613 0.747036 0.643671
0.876234 0.749477 0.626474
1 0.742351 0.672023
0 0.979675 0.573144
0 0.974365 0.562173
0.0300603 0.967742 0.55111
0.157824 0.947326 0.547387
0.435218 0.898085 0.586755
0.624384 0.875425 0.622614
0.690257 0.889509 0.657481
0.882597 0.86894 0.662516
1 0.867353 0.671839
0.000122072 1 0.525338
0.00015259 1 0.516518
0.0272831 1 0.514214
0.193927 1 0.537865
0.463493 0.999985 0.597421
0.624338 0.999908 0.621332
0.660365 0.999908 0.649561
0.854643 0.994003 0.726864
1 0.991089 0.680751
0.0074464 0.000793469 0.824979
0.0569314 0.0210117 0.742306
0.223438 0.00790417 0.749889
0.371054 0.00103761 0.751003
0.496391 0.000885023 0.751919
0.621744 0.000656138 0.752834
0.747158 0.000427253 0.753735
0.872511 0.000274662 0.75465
0.999069 6.10361e-05 0.779965
0.0330968 0.104265 0.85771
0.129107 0.117678 0.810193
0.188708 0.144167 0.740764
0.371099 0.126116 0.750393
0.49691 0.125811 0.751293
0.622248 0.125582 0.752209
0.747585 0.125353 0.753124
0.873594 0.124926 0.754681
0.999207 0.114961 0.794308
0.0411536 0.256138 0.795483
0.148287 0.234165 0.837812
0.253315 0.24416 0.79823
0.327031 0.264851 0.743175
0.497337 0.25069 0.750668
0.622766 0.250507 0.751583
0.748104 0.250294 0.752499
0.876005 0.248951 0.757229
0.999329 0.234333 0.811505
0.0150149 0.420035 0.637369
0.0557107 0.403265 0.714244
0.261585 0.364935 0.815183
0.377523 0.370581 0.786282
0.486915 0.37879 0.749844
0.623194 0.375387 0.750957
0.748531 0.375235 0.751873
0.881086 0.371557 0.766079
0.999496 0.35288 0.821393
0.0012665 0.536797 0.630243
0.0437018 0.53547 0.639307
0.17113 0.531655 0.668391
0.35407 0.504128 0.770596
0.501823 0.496971 0.774395
0.623713 0.500328 0.750332
0.74905 0.500114 0.751247
0.892836 0.491218 0.783612
0.99971 0.46952 0.807126
0 0.650172 0.71165
0.0648814 0.647776 0.701885
0.199619 0.645655 0.692744
0.330587 0.644129 0.690532
0.460731 0.640665 0.710353
0.626215 0.623377 0.76257
0.749477 0.625055 0.750637
0.923415 0.608042 0.775708
1 0.602289 0.697856
0 0.800946 0.787564
0.012192 0.794781 0.782513
0.120439 0.785916 0.775479
0.277516 0.777157 0.768612
0.434836 0.768154 0.761868
0.592142 0.759258 0.755306
0.749996 0.749996 0.749996
0.891249 0.744305 0.758907
1 0.738491 0.767056
0 0.971954 0.77406
0 0.968475 0.765545
0.0319066 0.962341 0.753948
0.112703 0.953292 0.73753
0.29958 0.93756 0.720394
0.51693 0.91107 0.711528
0.74963 0.875227 0.748928
0.878614 0.872038 0.768673
1 0.874479 0.751461
0 1 0.727855
0 1 0.715297
0.00703441 1 0.70219
0.0923171 1 0.684367
0.282063 1 0.676066
0.558816 1 0.711421
0.749386 0.999939 0.747616
0.816114 0.999924 0.782101
1 0.994079 0.787198
0.00874342 0.000839246 0.962036
0.0531319 0.0216526 0.871458
0.181155 0.0210727 0.868635
0.370184 0.00131228 0.875731
0.495613 0.00115969 0.876646
0.620966 0.000946059 0.877546
0.746288 0.000732433 0.878462
0.871641 0.000564584 0.879377
0.996994 0.000335698 0.880278
0.0412604 0.0999313 0.978576
0.129931 0.116213 0.947295
0.181933 0.146014 0.867308
0.34847 0.132891 0.874891
0.496056 0.126024 0.87602
0.621393 0.125872 0.876936
0.746731 0.125658 0.877852
0.87216 0.125414 0.878737
0.997513 0.125261 0.879652
0.0365911 0.239704 0.971923
0.15816 0.229252 0.972732
0.254108 0.242679 0.935195
0.31371 0.269169 0.865766
0.496101 0.251118 0.875395
0.621912 0.250813 0.876295
0.74725 0.250584 0.877211
0.872587 0.250355 0.878126
0.998596 0.249928 0.879683
0.0358129 0.41854 0.805676
0.0890974 0.383795 0.915282
0.273304 0.359167 0.962631
0.378317 0.369162 0.923232
0.452033 0.389853 0.868177
0.622339 0.375692 0.875669
0.747768 0.375509 0.876585
0.873106 0.375296 0.877501
0.999313 0.373968 0.882109
0.00613413 0.551339 0.718364
0.0253147 0.547372 0.752651
0.166674 0.528328 0.83946
0.386587 0.489937 0.940185
0.502525 0.495583 0.911284
0.611917 0.503792 0.874846
0.748196 0.500389 0.875959
0.873533 0.500237 0.876875
0.999527 0.496757 0.890303
0.000595102 0.663249 0.755062
0.0397192 0.66247 0.756893
0.168429 0.660471 0.764309
0.296132 0.656672 0.793393
0.479072 0.629129 0.895598
0.626825 0.621973 0.899397
0.748714 0.62533 0.875334
0.874052 0.625116 0.876249
0.999664 0.617075 0.905867
0 0.779629 0.846616
0.0513008 0.775982 0.837385
0.189792 0.772778 0.826902
0.32462 0.770657 0.817746
0.455589 0.769131 0.815534
0.585733 0.765667 0.835355
0.751217 0.748379 0.887572
0.874479 0.750057 0.875639
0.999863 0.734707 0.90193
0 0.934478 0.918914
0.002121 0.928542 0.914305
0.0888228 0.919814 0.907362
0.245441 0.910918 0.900481
0.402518 0.902159 0.893614
0.559838 0.893156 0.88687
0.717144 0.88426 0.880308
0.874998 0.874998 0.874998
1 0.869825 0.88336
0 1 0.917235
0 1 0.909285
0.018265 1 0.899535
0.0943008 1 0.885542
0.247959 1 0.869307
0.430152 1 0.850919
0.641413 1 0.83827
0.874632 0.999969 0.87393
1 0.997086 0.893553
0.0099031 0.000869764 0.999146
0.0511788 0.0216983 0.99202
0.153429 0.0300755 0.986007
0.364263 0.00309758 1
0.494774 0.00143435 1
0.620111 0.00122072 1
0.745449 0.0010071 1
0.870817 0.000854505 1
0.996155 0.00062562 1
0.0472419 0.0968032 0.999634
0.130739 0.114961 0.999268
0.178134 0.146624 0.99025
0.306188 0.146059 0.993637
0.495216 0.126299 1
0.620554 0.126146 1
0.745953 0.125933 1
0.871305 0.125719 1
0.996643 0.125536 1
0.032639 0.230259 1
0.165454 0.225528 1
0.254841 0.241413 0.999374
0.306935 0.271015 0.989197
0.473487 0.257893 0.999557
0.621057 0.251026 1
0.746395 0.250874 1
0.871733 0.25066 1
0.997162 0.250416 1
0.0530251 0.405539 0.997314
0.125856 0.365057 1
0.282551 0.354742 1
0.379065 0.367834 0.999451
0.438712 0.394171 0.989807
0.621118 0.37612 1
0.746914 0.375814 1
0.872251 0.37557 1
0.997589 0.375357 1
0.0200198 0.560067 0.849775
0.0397955 0.546883 0.91545
0.20502 0.509438 1
0.398245 0.484398 1
0.503288 0.494285 0.999496
0.577035 0.514855 0.993179
0.747341 0.500694 1
0.87277 0.500511 1
0.998108 0.500298 1
0.00320439 0.678584 0.826596
0.0179904 0.677012 0.842359
0.13167 0.672572 0.877089
0.291676 0.65333 0.964462
0.512062 0.614908 1
0.627497 0.620676 0.999634
0.73695 0.628794 0.999664
0.873198 0.625391 1
0.998535 0.625238 1
0.000274662 0.789685 0.885344
0.0342718 0.789242 0.881514
0.164004 0.787472 0.881895
0.293416 0.785473 0.889311
0.421134 0.781674 0.918395
0.603067 0.754543 1
0.751842 0.747021 0.999573
0.873716 0.750332 1
0.999054 0.750118 1
0 0.910018 0.980941
0.0373388 0.905684 0.972534
0.175174 0.900999 0.962371
0.314794 0.89778 0.951904
0.449622 0.895674 0.942748
0.580591 0.894133 0.940536
0.710735 0.890669 0.960357
0.876234 0.873396 0.999832
0.999496 0.875059 1
0 1 0.997086
0 1 0.997086
0.0668956 1 0.997284
0.217929 1 0.997726
0.374334 1 0.998184
0.530755 1 0.998642
0.687175 1 0.999084
0.84358 1 0.999542
1 1 1
