src/LiveStudio.Agent/BuiltInAssets/ColorCards/v1/cube/去灰.cube
TITLE "Generated by Resolve"
LUT_3D_SIZE 9
0 0 0
0.0447852 0 0
0.180529 0 0
0.316594 0 0
0.452522 0 0
0.588647 0 0
0.724269 0 0
0.860395 0 0
0.996292 0 0
0 0.0449836 0
0.0451667 0.0451667 0
0.18088 0.0449836 0
0.316976 0.0450446 0
0.452903 0.0451514 0
0.588785 0.0449531 0
0.724666 0.0450446 0
0.860777 0.0450904 0
0.996689 0.0451972 0
0 0.180926 0
0.0452277 0.181109 0
0.180926 0.180926 0
0.317037 0.180987 0
0.452964 0.181094 0
0.5888 0.180865 0
0.724712 0.180987 0
0.860838 0.181033 0
0.996735 0.18114 0
0 0.316915 0
0.0451667 0.317098 0
0.18088 0.316915 0
0.316976 0.316976 0
0.452903 0.317082 0
0.588754 0.316854 0
0.724651 0.31696 0
0.860777 0.317021 0
0.996414 0.316854 0
0 0.452842 0
0.0449989 0.45275 0
0.180972 0.452842 0
0.317082 0.452903 0
0.452995 0.452995 0
0.588861 0.452781 0
0.724758 0.452903 0
0.860883 0.452949 0
0.996506 0.452781 0
0 0.58883 0
0.0449226 0.588754 0
0.180911 0.588846 0
0.317006 0.588891 0
0.452781 0.588861 0
0.588785 0.588785 0
0.724681 0.588891 0
0.860777 0.588922 0
0.996429 0.588769 0
0 0.724681 0
0.0450446 0.724666 0
0.181033 0.724758 0
0.317128 0.724819 0
0.452781 0.724636 0
0.588907 0.724697 0
0.724804 0.724804 0
0.860777 0.724712 0
0.996551 0.724697 0
0 0.860563 0
0.0449683 0.860655 0
0.180957 0.860746 0
0.316976 0.860746 0
0.452705 0.860639 0
0.58883 0.860685 0
0.724727 0.860807 0
0.860578 0.860578 0
0.99649 0.860685 0
0 0.996384 0
0.0450904 0.996582 0
0.181079 0.996674 0
0.316976 0.996536 0
0.452827 0.996551 0
0.588952 0.996597 0
0.724849 0.996719 0
0.8607 0.99649 0
0.996612 0.996612 0
0 0 0.0446632
0.0448615 0 0.0448615
0.18056 0 0.0446784
0.316655 0 0.0447242
0.452598 0 0.044831
0.588525 0 0.0447089
0.724346 0 0.0447242
0.860471 0 0.04477
0.996307 0 0.0448157
0 0.0450599 0.0450599
0.0451514 0.0451514 0.0451514
0.180957 0.0450599 0.0450599
0.317052 0.0451209 0.0451209
0.452979 0.0452277 0.0452277
0.58883 0.0449989 0.0449989
0.724727 0.0451057 0.0451057
0.860853 0.0451514 0.0451514
0.996567 0.0450904 0.0450904
0 0.181003 0.0451057
0.0450752 0.180957 0.0450752
0.181003 0.181003 0.0451057
0.317098 0.181064 0.0451667
0.453025 0.18117 0.0452735
0.588876 0.180941 0.0450446
0.724788 0.181048 0.0451667
0.860899 0.181109 0.0452125
0.996536 0.180941 0.0450446
0 0.316991 0.0450599
0.0449683 0.316899 0.0449683
0.180957 0.316991 0.0450599
0.317052 0.317052 0.0451209
0.45275 0.316915 0.0449836
0.58883 0.31693 0.0449989
0.724727 0.317037 0.0451057
0.860853 0.317082 0.0451514
0.996475 0.31693 0.0449989
0 0.452903 0.0451514
0.0450752 0.452827 0.0450752
0.181048 0.452918 0.0451514
0.317143 0.452964 0.0452125
0.452796 0.452796 0.0450446
0.588922 0.452857 0.0450904
0.724834 0.452964 0.0452125
0.86096 0.45301 0.0452583
0.996582 0.452842 0.0450904
0 0.588907 0.0450752
0.0449836 0.588815 0.0449836
0.180972 0.588907 0.0450752
0.317067 0.588968 0.0451362
0.45272 0.5888 0.0449683
0.588846 0.588846 0.0450141
0.724758 0.588952 0.0451362
0.860609 0.588739 0.0449073
0.996506 0.588846 0.0450141
0 0.724544 0.0449226
0.0451209 0.724727 0.0451209
0.181094 0.724819 0.0451972
0.317189 0.72488 0.0452583
0.452857 0.724712 0.0450904
0.588968 0.724758 0.0451362
0.72488 0.72488 0.0452583
0.860731 0.724651 0.0450294
0.996628 0.724758 0.0451362
0 0.860533 0.0448463
0.0450294 0.860731 0.0450294
0.181018 0.860822 0.0451209
0.316991 0.860746 0.0450599
0.452781 0.860716 0.0450141
0.588891 0.860761 0.0450599
0.724788 0.860853 0.0451667
0.860655 0.860655 0.0449531
0.996551 0.860761 0.0450599
0 0.99646 0.0449683
0.0451667 0.996643 0.0451667
0.18114 0.996735 0.045243
0.31696 0.996521 0.0450294
0.452903 0.996628 0.0451362
0.589014 0.996674 0.0451972
0.724788 0.996643 0.0451667
0.860777 0.996567 0.0450752
0.996674 0.996674 0.045182
0 0 0.180591
0.0448463 0 0.180743
0.180606 0 0.180606
0.316701 0 0.180652
0.452628 0 0.180758
0.588479 0 0.180545
0.724376 0 0.180652
0.860502 0 0.180697
0.996277 0 0.180682
0 0.0450904 0.180987
0.0451209 0.0451209 0.181003
0.180987 0.0450904 0.180987
0.317082 0.0451514 0.181048
0.452964 0.0452125 0.181109
0.588861 0.0450294 0.180926
0.724758 0.0451362 0.181033
0.860883 0.0451972 0.181094
0.996521 0.0450294 0.180926
0 0.181033 0.181033
0.0450599 0.180941 0.180941
0.181033 0.181033 0.181033
0.317143 0.181094 0.181094
0.452903 0.181033 0.181033
0.588907 0.180972 0.180972
0.724819 0.181094 0.181094
0.860899 0.181094 0.181094
0.996567 0.180972 0.180972
0 0.31693 0.180896
0.0449989 0.31693 0.180896
0.180987 0.317021 0.180987
0.317082 0.317082 0.181048
0.452735 0.316915 0.18088
0.588861 0.31696 0.180926
0.724758 0.317067 0.181033
0.860716 0.316945 0.180911
0.996521 0.31696 0.180926
0 0.452735 0.180865
0.0451057 0.452857 0.181003
0.181079 0.452949 0.181079
0.317189 0.45301 0.18114
0.452842 0.452842 0.180972
0.588968 0.452888 0.181033
0.724865 0.452995 0.18114
0.860716 0.452781 0.180911
0.996612 0.452888 0.181018
0 0.588663 0.180728
0.0450294 0.588861 0.180926
0.181003 0.588937 0.181003
0.316884 0.588785 0.18085
0.452766 0.58883 0.180896
0.588891 0.588891 0.180941
0.724788 0.588998 0.181064
0.860639 0.588769 0.180835
0.996536 0.588876 0.180941
0 0.72459 0.18085
0.0451514 0.724773 0.181048
0.18114 0.724865 0.18114
0.31696 0.724636 0.180911
0.452888 0.724743 0.181018
0.589014 0.724804 0.181079
0.72491 0.72491 0.181186
0.860761 0.724681 0.180957
0.996658 0.724804 0.181064
0 0.860578 0.180774
0.0450752 0.860761 0.180972
0.181064 0.860853 0.181064
0.316884 0.860639 0.180835
0.452811 0.860746 0.180941
0.588937 0.860792 0.180987
0.724559 0.860639 0.180835
0.860685 0.860685 0.18088
0.996582 0.860792 0.180987
0 0.99649 0.180896
0.0451972 0.996689 0.181094
0.181186 0.996765 0.181186
0.317006 0.996551 0.180957
0.452934 0.996658 0.181064
0.589059 0.996704 0.181109
0.724681 0.996551 0.180957
0.860807 0.996597 0.181003
0.996704 0.996704 0.181125
0 0 0.316655
0.0446479 0 0.316579
0.180621 0 0.316655
0.316716 0 0.316716
0.452659 0 0.316823
0.588495 0 0.316594
0.724407 0 0.316716
0.860533 0 0.316762
0.996155 0 0.316594
0 0.0451209 0.317052
0.0450294 0.0450294 0.31696
0.181003 0.0451209 0.317052
0.317113 0.045182 0.317113
0.452766 0.0449989 0.316945
0.588891 0.0450599 0.316991
0.724788 0.0451667 0.317098
0.860914 0.0452125 0.317143
0.996536 0.0450599 0.316991
0 0.181033 0.317067
0.0450752 0.180972 0.317006
0.181064 0.181064 0.317098
0.317159 0.181125 0.317159
0.452811 0.180957 0.316991
0.588937 0.181003 0.317037
0.724849 0.181109 0.317159
0.860853 0.181048 0.317098
0.996597 0.181003 0.317037
0 0.316884 0.316884
0.0450294 0.31696 0.31696
0.181018 0.317052 0.317052
0.317082 0.317082 0.317082
0.452766 0.31693 0.31693
0.588891 0.316991 0.316991
0.724788 0.317098 0.317098
0.860639 0.316884 0.316884
0.996536 0.316991 0.316991
0 0.452689 0.316869
0.0451209 0.452888 0.317052
0.181109 0.452979 0.317143
0.317052 0.452873 0.317052
0.452857 0.452857 0.317037
0.588983 0.452918 0.317082
0.724849 0.452995 0.317159
0.860731 0.452796 0.316976
0.996643 0.452918 0.317082
0 0.588693 0.316793
0.0450446 0.588876 0.316976
0.181033 0.588968 0.317067
0.316854 0.588754 0.316854
0.452781 0.588861 0.31696
0.588907 0.588907 0.317006
0.724651 0.588861 0.31696
0.860655 0.5888 0.316899
0.996567 0.588907 0.317006
0 0.724605 0.316915
0.0451667 0.724788 0.317098
0.181155 0.72488 0.317189
0.316976 0.724666 0.316976
0.452903 0.724773 0.317082
0.589029 0.724834 0.317143
0.724666 0.724666 0.316976
0.860777 0.724712 0.317021
0.996689 0.724819 0.317128
0 0.860609 0.316838
0.0451057 0.860792 0.317037
0.180865 0.86067 0.316915
0.316899 0.86067 0.316899
0.452827 0.860777 0.317006
0.588952 0.860822 0.317067
0.72459 0.860655 0.316899
0.8607 0.8607 0.316945
0.996612 0.860822 0.317052
0 0.996521 0.31696
0.0452277 0.996704 0.317159
0.180926 0.996521 0.31696
0.317021 0.996582 0.317021
0.452949 0.996689 0.317128
0.589075 0.996735 0.317189
0.724712 0.996567 0.317021
0.860822 0.996628 0.317067
0.996735 0.996735 0.317174
0 0 0.452522
0.0446784 0 0.452445
0.180667 0 0.452537
0.316762 0 0.452583
0.452415 0 0.452415
0.58854 0 0.452461
0.724437 0 0.452583
0.860365 0 0.45243
0.996201 0 0.452461
0 0.0449073 0.452674
0.0450752 0.0450752 0.452827
0.181048 0.0451514 0.452918
0.317143 0.0452125 0.452979
0.452811 0.0450446 0.452811
0.588922 0.0450904 0.452857
0.724834 0.0452125 0.452964
0.860685 0.0449836 0.45275
0.996582 0.0450904 0.452857
0 0.180819 0.452689
0.0451209 0.181018 0.452873
0.181109 0.181109 0.452964
0.317205 0.181155 0.453025
0.452857 0.180987 0.452857
0.588983 0.181033 0.452903
0.72488 0.181155 0.45301
0.860731 0.180926 0.452796
0.996628 0.181048 0.452903
0 0.316808 0.452644
0.0450752 0.317006 0.452827
0.181048 0.317082 0.452918
0.316869 0.316869 0.452705
0.452796 0.316976 0.452796
0.588922 0.317037 0.452857
0.724834 0.317143 0.452964
0.86067 0.316915 0.452735
0.996582 0.317021 0.452857
0 0.452735 0.452735
0.0451667 0.452934 0.452934
0.181155 0.45301 0.45301
0.316976 0.452796 0.452796
0.452903 0.452903 0.452903
0.589029 0.452949 0.452949
0.724834 0.452964 0.452964
0.860777 0.452842 0.452842
0.996674 0.452949 0.452949
0 0.588739 0.452659
0.0450904 0.588922 0.452857
0.181048 0.588983 0.452918
0.316899 0.5888 0.45272
0.452827 0.588891 0.452827
0.588952 0.588952 0.452873
0.724575 0.588785 0.45272
0.8607 0.58883 0.452766
0.996597 0.588952 0.452873
0 0.724651 0.452781
0.0452125 0.724834 0.452979
0.181048 0.724773 0.452918
0.317021 0.724712 0.452842
0.452949 0.724819 0.452949
0.589044 0.724834 0.452979
0.724697 0.724697 0.452842
0.860822 0.724758 0.452888
0.996719 0.724865 0.452995
0 0.860639 0.452705
0.0451362 0.860838 0.452903
0.18085 0.860655 0.45272
0.316945 0.8607 0.452766
0.452873 0.860807 0.452873
0.588846 0.860716 0.452766
0.72462 0.8607 0.452766
0.860746 0.860746 0.452811
0.996658 0.860853 0.452918
0 0.996551 0.452827
0.0452583 0.99675 0.453025
0.180972 0.996567 0.452827
0.317067 0.996628 0.452888
0.452995 0.996719 0.452995
0.588846 0.996506 0.452766
0.724743 0.996612 0.452888
0.860868 0.996658 0.452934
0.996612 0.996612 0.452888
0 0 0.588434
0.0447089 0 0.58854
0.180682 0 0.588617
0.316732 0 0.588617
0.452445 0 0.58851
0.588556 0 0.588556
0.724468 0 0.588678
0.860319 0 0.588464
0.996216 0 0.588556
0 0.0449073 0.588739
0.0450904 0.0450904 0.588922
0.181079 0.045182 0.589014
0.316991 0.0450599 0.588891
0.452827 0.0450752 0.588891
0.588952 0.0451209 0.588952
0.724849 0.0452277 0.589059
0.8607 0.0449989 0.58883
0.996597 0.0451209 0.588952
0 0.18085 0.588785
0.0451514 0.181033 0.588968
0.181125 0.181125 0.589059
0.316945 0.180911 0.588846
0.452873 0.181018 0.588952
0.588998 0.181064 0.588998
0.724712 0.180987 0.588922
0.860761 0.180957 0.588891
0.996658 0.181064 0.588998
0 0.316838 0.588724
0.0450904 0.317021 0.588922
0.181079 0.317113 0.589014
0.316899 0.316899 0.5888
0.452827 0.316991 0.588891
0.588952 0.317052 0.588952
0.724575 0.316884 0.588785
0.8607 0.316945 0.58883
0.996612 0.317052 0.588952
0 0.45275 0.58883
0.0451972 0.452949 0.589014
0.18117 0.45304 0.589105
0.316991 0.452827 0.588891
0.452934 0.452934 0.588998
0.589044 0.452979 0.589044
0.724681 0.452811 0.588876
0.860807 0.452857 0.588937
0.996704 0.452979 0.589044
0 0.588754 0.588754
0.0451057 0.588937 0.588937
0.180819 0.588754 0.588754
0.316915 0.588815 0.588815
0.452857 0.588922 0.588922
0.588968 0.588968 0.588968
0.724605 0.5888 0.5888
0.860731 0.588861 0.588861
0.996628 0.588968 0.588968
0 0.724666 0.588876
0.045243 0.724865 0.589075
0.180941 0.724666 0.588876
0.317037 0.724727 0.588937
0.452979 0.724834 0.589044
0.589014 0.724804 0.589014
0.724727 0.724727 0.588922
0.860853 0.724773 0.588983
0.99675 0.72488 0.58909
0 0.86067 0.5888
0.0451514 0.860838 0.588983
0.180865 0.86067 0.5888
0.31696 0.860731 0.588861
0.452903 0.860838 0.588968
0.588739 0.860609 0.588739
0.724651 0.860716 0.588861
0.860777 0.860777 0.588907
0.996582 0.860792 0.588922
0 0.996582 0.588922
0.0451514 0.996628 0.588983
0.180987 0.996582 0.588937
0.317082 0.996643 0.588983
0.45301 0.996735 0.589075
0.588861 0.996521 0.588861
0.724773 0.996643 0.588983
0.860899 0.996689 0.589029
0.996582 0.996582 0.588922
0 0 0.724178
0.0447547 0 0.724376
0.180728 0 0.724453
0.316701 0 0.724392
0.452476 0 0.724346
0.588602 0 0.724392
0.724498 0 0.724498
0.860365 0 0.724285
0.996262 0 0.724392
0 0.0449378 0.724559
0.0451362 0.0451362 0.724758
0.181109 0.0452277 0.724849
0.316945 0.0450141 0.724636
0.452873 0.0451057 0.724727
0.588983 0.0451667 0.724788
0.724773 0.0451514 0.724773
0.860746 0.0450446 0.724666
0.996643 0.0451667 0.724788
0 0.180896 0.72462
0.045182 0.181079 0.724804
0.181125 0.181125 0.724849
0.316991 0.180957 0.724681
0.452918 0.181064 0.724788
0.589044 0.181109 0.724834
0.724697 0.180972 0.724697
0.860792 0.180987 0.724727
0.996704 0.181109 0.724834
0 0.316884 0.724559
0.0451362 0.317067 0.724758
0.180941 0.316976 0.724666
0.316945 0.316945 0.72462
0.452873 0.317037 0.724727
0.588998 0.317098 0.724788
0.72462 0.31693 0.72462
0.860746 0.316976 0.724666
0.996643 0.317098 0.724788
0 0.452796 0.724666
0.0452277 0.452995 0.724849
0.180941 0.452811 0.724666
0.317037 0.452857 0.724727
0.452964 0.452964 0.724834
0.588907 0.452842 0.724712
0.724727 0.452857 0.724727
0.860838 0.452903 0.724773
0.99675 0.45301 0.72488
0 0.5888 0.72459
0.0451514 0.588983 0.724773
0.180865 0.5888 0.72459
0.31696 0.588861 0.724651
0.452888 0.588968 0.724758
0.588739 0.588739 0.724529
0.724651 0.588846 0.724651
0.860761 0.588907 0.724697
0.996674 0.589014 0.724804
0 0.724712 0.724712
0.0452735 0.724895 0.724895
0.180987 0.724712 0.724712
0.317082 0.724773 0.724773
0.45301 0.72488 0.72488
0.588861 0.724651 0.724651
0.724773 0.724773 0.724773
0.860883 0.724819 0.724819
0.996521 0.724651 0.724651
0 0.8607 0.724636
0.0449226 0.860624 0.724544
0.180911 0.860716 0.724636
0.317006 0.860777 0.724697
0.452934 0.860883 0.724804
0.588785 0.860655 0.724575
0.724697 0.860761 0.724697
0.860807 0.860807 0.724743
0.996445 0.860655 0.724575
0 0.996628 0.724758
0.0450446 0.996536 0.724666
0.181033 0.996628 0.724758
0.317128 0.996689 0.724819
0.452979 0.996719 0.724849
0.588907 0.996567 0.724712
0.724819 0.996674 0.724819
0.860929 0.996735 0.724865
0.996567 0.996567 0.724697
0 0 0.860273
0.04477 0 0.860471
0.180743 0 0.860548
0.316579 0 0.860334
0.452506 0 0.860441
0.588632 0 0.860487
0.724254 0 0.860334
0.86038 0 0.86038
0.996277 0 0.860487
0 0.0449683 0.860655
0.0451514 0.0451514 0.860853
0.18114 0.045243 0.860945
0.31696 0.0450294 0.860731
0.452888 0.0451362 0.860822
0.589014 0.045182 0.860883
0.724651 0.0450294 0.860716
0.860761 0.0450752 0.860761
0.996674 0.045182 0.860868
0 0.180911 0.860716
0.0452125 0.181094 0.860899
0.181079 0.181079 0.860883
0.317021 0.180972 0.860777
0.452949 0.181079 0.860883
0.589059 0.181125 0.860929
0.724697 0.180972 0.860761
0.860822 0.181018 0.860822
0.996719 0.181125 0.860929
0 0.316899 0.860655
0.0451514 0.317082 0.860853
0.180865 0.316899 0.86067
0.31696 0.31696 0.860716
0.452888 0.317067 0.860822
0.588891 0.317006 0.860761
0.724636 0.316945 0.860716
0.860761 0.317006 0.860761
0.996674 0.317113 0.860883
0 0.452827 0.860761
0.0452125 0.452979 0.860914
0.180957 0.452827 0.860761
0.317067 0.452888 0.860822
0.452995 0.452995 0.860929
0.588876 0.452796 0.860746
0.724743 0.452873 0.860807
0.860868 0.452934 0.860868
0.996643 0.452918 0.860853
0 0.588815 0.860685
0.0450141 0.588846 0.860716
0.18088 0.588815 0.860685
0.316991 0.588876 0.860746
0.452918 0.588983 0.860853
0.588769 0.588769 0.860624
0.724666 0.588876 0.860731
0.860792 0.588922 0.860792
0.996445 0.588785 0.860655
0 0.724743 0.860807
0.0450294 0.724651 0.860716
0.181003 0.724743 0.860807
0.317113 0.724804 0.860868
0.452873 0.724743 0.860807
0.588891 0.724681 0.860746
0.724788 0.724788 0.860868
0.860914 0.724834 0.860914
0.996536 0.724681 0.860746
0 0.860731 0.860731
0.0449531 0.860639 0.860639
0.180941 0.860731 0.860731
0.317037 0.860792 0.860792
0.452689 0.860624 0.860624
0.588815 0.86067 0.86067
0.724712 0.860792 0.860792
0.860838 0.860838 0.860838
0.99646 0.86067 0.86067
0 0.996643 0.860853
0.0450752 0.996567 0.860761
0.181064 0.996658 0.860853
0.317159 0.996704 0.860914
0.452811 0.996536 0.860746
0.588937 0.996597 0.860792
0.724834 0.996704 0.860914
0.860685 0.996475 0.860685
0.996582 0.996582 0.860792
0 0 0.996109
0.0448157 0 0.996292
0.180591 0 0.996185
0.316625 0 0.99617
0.452552 0 0.996277
0.588663 0 0.996323
0.7243 0 0.99617
0.860426 0 0.996216
0.996323 0 0.996323
0 0.0450141 0.996506
0.0451972 0.0451972 0.996689
0.180911 0.0450141 0.996506
0.317006 0.0450752 0.996551
0.452934 0.045182 0.996658
0.589059 0.0452277 0.996719
0.724681 0.0450599 0.996551
0.860807 0.0451209 0.996597
0.996719 0.0452277 0.996719
0 0.180957 0.996551
0.0452583 0.18114 0.996735
0.180957 0.180957 0.996551
0.317052 0.181018 0.996612
0.452979 0.181125 0.996719
0.58883 0.180896 0.99649
0.724743 0.181018 0.996597
0.860853 0.181064 0.996658
0.996765 0.18117 0.996765
0 0.316945 0.99649
0.0451972 0.317128 0.996689
0.180911 0.316945 0.996506
0.317006 0.317006 0.996551
0.452934 0.317113 0.996658
0.588785 0.316884 0.996445
0.724681 0.316991 0.996551
0.860807 0.317052 0.996597
0.996658 0.317098 0.996658
0 0.452873 0.996597
0.0451972 0.452949 0.996689
0.181003 0.452873 0.996597
0.317113 0.452934 0.996658
0.453025 0.453025 0.996765
0.588876 0.452811 0.996536
0.724788 0.452918 0.996643
0.860914 0.452979 0.996704
0.996536 0.452811 0.996536
0 0.588861 0.996521
0.0449531 0.588769 0.996429
0.180926 0.588861 0.996521
0.317037 0.588922 0.996582
0.452857 0.588922 0.996582
0.5888 0.5888 0.99646
0.724712 0.588922 0.996567
0.860838 0.588968 0.996628
0.99646 0.5888 0.99646
0 0.724758 0.996612
0.0450752 0.724697 0.996551
0.181048 0.724788 0.996643
0.317159 0.724834 0.996704
0.452857 0.724712 0.996582
0.588922 0.724727 0.996582
0.724834 0.724834 0.996689
0.860853 0.724773 0.996643
0.996582 0.724727 0.996582
0 0.860624 0.996414
0.0449989 0.860685 0.996475
0.180972 0.860777 0.996567
0.317082 0.860838 0.996628
0.452735 0.86067 0.99646
0.588861 0.860716 0.996506
0.724758 0.860822 0.996612
0.860639 0.860639 0.996429
0.996506 0.860716 0.996506
0 0.996414 0.996414
0.0451209 0.996612 0.996612
0.181094 0.996689 0.996689
0.317037 0.996597 0.996597
0.452857 0.996582 0.996582
0.588983 0.996628 0.996628
0.72488 0.996735 0.996735
0.860731 0.996521 0.996521
0.996628 0.996628 0.996628
