src/LiveStudio.Agent/BuiltInAssets/ColorCards/v1/cube/去灰.cube
TITLE "Generated by Resolve"
LUT_3D_SIZE 65
0 0 0
0 0 0
0 0 0
0 0 0
0 0 0
0 0 0
0.0107424 0 0
0.0276951 0 0
0.0447852 0 0
0.061677 0 0
0.0787671 0 0
0.0958572 0 0
0.112673 0 0
0.129778 0 0
0.146593 0 0
0.163684 0 0
0.180529 0 0
0.197589 0 0
0.214679 0 0
0.231495 0 0
0.248585 0 0
0.265446 0 0
0.28249 0 0
0.299779 0 0
0.316594 0 0
0.3337 0 0
0.350515 0 0
0.36762 0 0
0.384527 0 0
0.401526 0 0
0.418616 0 0
0.435431 0 0
0.452522 0 0
0.469429 0 0
0.486427 0 0
0.503517 0 0
0.520333 0 0
0.537423 0 0
0.554269 0 0
0.571359 0 0
0.588647 0 0
0.605463 0 0
0.622553 0 0
0.639368 0 0
0.656458 0 0
0.673426 0 0
0.690364 0 0
0.707454 0 0
0.724269 0 0
0.74136 0 0
0.758343 0 0
0.775265 0 0
0.792355 0 0
0.809186 0 0
0.826352 0 0
0.843168 0 0
0.860395 0 0
0.87744 0 0
0.894301 0 0
0.911391 0 0
0.928206 0 0
0.945296 0 0
0.962341 0 0
0.979202 0 0
0.996292 0 0
0 0 0
0 0 0
0 0 0
0 0 0
0 0 0
0 0 0
0.0109712 0 0
0.0281987 0 0
0.0450294 0 0
0.0621958 0 0
0.0792859 0 0
0.0961013 0 0
0.113191 0 0
0.130007 0 0
0.147097 0 0
0.163943 0 0
0.181003 0 0
0.198093 0 0
0.214908 0 0
0.231998 0 0
0.248844 0 0
0.265904 0 0
0.282994 0 0
0.300008 0 0
0.317098 0 0
0.333944 0 0
0.351034 0 0
0.368124 0 0
0.384939 0 0
0.402029 0 0
0.418845 0 0
0.435935 0 0
0.452842 0 0
0.469841 0 0
0.486931 0 0
0.503761 0 0
0.520851 0 0
0.537758 0 0
0.554772 0 0
0.571862 0 0
0.588876 0 0
0.605966 0 0
0.622782 0 0
0.639872 0 0
0.65684 0 0
0.673793 0 0
0.690883 0 0
0.707698 0 0
0.724788 0 0
0.741756 0 0
0.758694 0 0
0.775784 0 0
0.792599 0 0
0.809689 0 0
0.826581 0 0
0.843671 0 0
0.860899 0 0
0.877714 0 0
0.894804 0 0
0.911635 0 0
0.928725 0 0
0.945754 0 0
0.962631 0 0
0.979721 0 0
0.996536 0 0
0 0 0
0 0 0
0 0 0
0 0 0
0 0 0
0 0 0
0.0110933 0 0
0.0280461 0 0
0.0451362 0 0
0.0623026 0 0
0.079118 0 0
0.0962234 0 0
0.113039 0 0
0.130129 0 0
0.147219 0 0
0.164034 0 0
0.181125 0 0
0.19794 0 0
0.21503 0 0
0.231876 0 0
0.248936 0 0
0.266026 0 0
0.282841 0 0
0.30013 0 0
0.316976 0 0
0.334066 0 0
0.351156 0 0
0.367971 0 0
0.385061 0 0
0.401877 0 0
0.418967 0 0
0.435874 0 0
0.452873 0 0
0.469963 0 0
0.486778 0 0
0.503868 0 0
0.520775 0 0
0.537789 0 0
0.554894 0 0
0.57171 0 0
0.588998 0 0
0.605814 0 0
0.622904 0 0
0.639994 0 0
0.656809 0 0
0.673899 0 0
0.690715 0 0
0.707805 0 0
0.724773 0 0
0.741711 0 0
0.758801 0 0
0.775631 0 0
0.792721 0 0
0.809674 0 0
0.826703 0 0
0.843793 0 0
0.860746 0 0
0.877836 0 0
0.894652 0 0
0.911742 0 0
0.928771 0 0
0.945663 0 0
0.962753 0 0
0.979568 0 0
0.996658 0 0
0 0 0
0 0 0
0 0 0
0 0 0
0 0 0
0 0 0
0.0109407 0 0
0.0281682 0 0
0.0452583 0 0
0.06215 0 0
0.0792401 0 0
0.0960555 0 0
0.113146 0 0
0.130236 0 0
0.147066 0 0
0.164157 0 0
0.180972 0 0
0.198062 0 0
0.214893 0 0
0.231968 0 0
0.249058 0 0
0.265873 0 0
0.282963 0 0
0.299977 0 0
0.317067 0 0
0.334188 0 0
0.351003 0 0
0.368078 0 0
0.384909 0 0
0.401999 0 0
0.419089 0 0
0.435904 0 0
0.452995 0 0
0.46981 0 0
0.4869 0 0
0.503792 0 0
0.520806 0 0
0.537896 0 0
0.554742 0 0
0.571832 0 0
0.588922 0 0
0.605936 0 0
0.623026 0 0
0.639841 0 0
0.656931 0 0
0.673747 0 0
0.690837 0 0
0.70779 0 0
0.724743 0 0
0.741833 0 0
0.758648 0 0
0.775738 0 0
0.792706 0 0
0.809659 0 0
0.82681 0 0
0.843641 0 0
0.860868 0 0
0.877684 0 0
0.894774 0 0
0.911864 0 0
0.928679 0 0
0.945769 0 0
0.962585 0 0
0.979675 0 0
0.996689 0 0
0 0 0
0 0 0
0 0 0
0 0 0
0 0 0
0 0 0
0.0110628 0 0
0.028275 0 0
0.0451057 0 0
0.0622721 0 0
0.0790875 0 0
0.0961776 0 0
0.113268 0 0
0.130083 0 0
0.147173 0 0
0.163989 0 0
0.181079 0 0
0.198169 0 0
0.214984 0 0
0.232074 0 0
0.248905 0 0
0.265995 0 0
0.282811 0 0
0.300084 0 0
0.317174 0 0
0.33402 0 0
0.35111 0 0
0.367941 0 0
0.385016 0 0
0.402106 0 0
0.418936 0 0
0.436027 0 0
0.452842 0 0
0.469932 0 0
0.486809 0 0
0.503838 0 0
0.520928 0 0
0.537743 0 0
0.554849 0 0
0.57174 0 0
0.588968 0 0
0.606058 0 0
0.622873 0 0
0.639963 0 0
0.656779 0 0
0.673869 0 0
0.690959 0 0
0.707774 0 0
0.724865 0 0
0.74168 0 0
0.75877 0 0
0.775708 0 0
0.792676 0 0
0.809766 0 0
0.826658 0 0
0.843748 0 0
0.860838 0 0
0.877806 0 0
0.894896 0 0
0.911711 0 0
0.928801 0 0
0.945617 0 0
0.962707 0 0
0.979721 0 0
0.996612 0 0
0 0 0
0 0 0
0 0 0
0 0 0
0 0 0
0 0 0
0.0111696 0 0
0.0281224 0 0
0.0452125 0 0
0.0621195 0 0
0.0792096 0 0
0.0962844 0 0
0.113115 0 0
0.130205 0 0
0.147021 0 0
0.164111 0 0
0.181201 0 0
0.198016 0 0
0.215106 0 0
0.231922 0 0
0.249012 0 0
0.265827 0 0
0.282933 0 0
0.300206 0 0
0.317021 0 0
0.334142 0 0
0.350958 0 0
0.368048 0 0
0.385138 0 0
0.401953 0 0
0.419043 0 0
0.435859 0 0
0.452964 0 0
0.470054 0 0
0.48687 0 0
0.50396 0 0
0.520775 0 0
0.537865 0 0
0.554757 0 0
0.571786 0 0
0.589075 0 0
0.60589 0 0
0.62298 0 0
0.639857 0 0
0.656886 0 0
0.673976 0 0
0.690806 0 0
0.707897 0 0
0.724712 0 0
0.741802 0 0
0.75874 0 0
0.775708 0 0
0.792798 0 0
0.809613 0 0
0.82678 0 0
0.843717 0 0
0.860838 0 0
0.877928 0 0
0.894743 0 0
0.911833 0 0
0.928649 0 0
0.945739 0 0
0.962829 0 0
0.979644 0 0
0.996735 0 0
0 0.011017 0
0 0.0109865 0
0 0.0110933 0
0 0.0111391 0
0 0.0110628 0
0 0.0111696 0
0.011017 0.011017 0
0.0282444 0.0110933 0
0.0450599 0.0109407 0
0.0622416 0.0110323 0
0.0793317 0.0111543 0
0.0961471 0.0109865 0
0.113237 0.0111086 0
0.130053 0.010956 0
0.147143 0.0110628 0
0.164218 0.0111696 0
0.181048 0.0110323 0
0.198138 0.0111391 0
0.214954 0.0109865 0
0.232044 0.0111086 0
0.249119 0.0112154 0
0.265949 0.0110628 0
0.28304 0.0111849 0
0.300053 0.0109712 0
0.317143 0.0110781 0
0.333989 0.0109255 0
0.35108 0.0110323 0
0.36817 0.0111543 0
0.384985 0.0110018 0
0.402075 0.0111086 0
0.418891 0.010956 0
0.435981 0.0110781 0
0.453071 0.0111849 0
0.469886 0.0110323 0
0.486976 0.0111543 0
0.503792 0.0109865 0
0.520882 0.0111086 0
0.537758 0.0110018 0
0.554818 0.0110628 0
0.571908 0.0111696 0
0.588922 0.0109712 0
0.606012 0.0110781 0
0.622889 0.0109712 0
0.639918 0.0110475 0
0.657008 0.0111543 0
0.673823 0.0110018 0
0.690913 0.0111238 0
0.707729 0.010956 0
0.724819 0.0110781 0
0.741924 0.0112001 0
0.75874 0.0110323 0
0.77583 0.0111543 0
0.792645 0.0110018 0
0.809735 0.0111086 0
0.826734 0.0110475 0
0.843717 0.0110475 0
0.860945 0.0111238 0
0.87776 0.0109712 0
0.89485 0.0110933 0
0.911788 0.0110475 0
0.928756 0.0110475 0
0.945846 0.0111543 0
0.962661 0.0110018 0
0.979767 0.0111238 0
0.996582 0.010956 0
0 0.0278935 0
0 0.0281224 0
0 0.0281529 0
0 0.0280766 0
0 0.0281987 0
0 0.0280461 0
0.011017 0.0281529 0
0.0281529 0.0281529 0
0.0450599 0.0280766 0
0.0622263 0.0281834 0
0.0790417 0.0280156 0
0.0961318 0.0281376 0
0.112947 0.0279698 0
0.130037 0.0280919 0
0.147112 0.0281834 0
0.163943 0.0280461 0
0.181048 0.0281682 0
0.197864 0.0280156 0
0.214954 0.0281224 0
0.232013 0.0282139 0
0.248859 0.0280919 0
0.265949 0.0281987 0
0.282765 0.0280461 0
0.300038 0.0281071 0
0.316869 0.0279545 0
0.333974 0.0280613 0
0.35108 0.0281834 0
0.367895 0.0280156 0
0.384985 0.0281376 0
0.401801 0.027985 0
0.418891 0.0280919 0
0.435981 0.0282139 0
0.452796 0.0280613 0
0.469886 0.0281682 0
0.486702 0.0280156 0
0.503792 0.0281376 0
0.520882 0.0282444 0
0.537697 0.0280919 0
0.554818 0.0281987 0
0.571633 0.0280461 0
0.588922 0.0281071 0
0.605783 0.0280003 0
0.622827 0.0280613 0
0.639918 0.0281834 0
0.656733 0.0280308 0
0.673823 0.0281376 0
0.690684 0.0280308 0
0.707729 0.0281071 0
0.724819 0.0282139 0
0.741634 0.0280613 0
0.758724 0.0281682 0
0.77554 0.0280156 0
0.79263 0.0281376 0
0.809552 0.0280766 0
0.826612 0.0280766 0
0.843717 0.0281834 0
0.86067 0.0280003 0
0.87776 0.0281071 0
0.894682 0.0280613 0
0.911665 0.0280766 0
0.928756 0.0281834 0
0.945571 0.0280308 0
0.962661 0.0281529 0
0.979477 0.027985 0
0.996567 0.0281071 0
0 0.0449836 0
0 0.0451209 0
0 0.0450599 0
0 0.045182 0
0 0.0450141 0
0 0.0451362 0
0.0110323 0.0451667 0
0.0280766 0.0450599 0
0.0451667 0.0451667 0
0.0620737 0.0449989 0
0.0791638 0.0451057 0
0.0959793 0.0449531 0
0.113069 0.0450752 0
0.130159 0.045182 0
0.146975 0.0450294 0
0.164065 0.0451514 0
0.18088 0.0449836 0
0.197971 0.0451057 0
0.21503 0.0451972 0
0.231876 0.0450599 0
0.248966 0.045182 0
0.265782 0.0450294 0
0.282872 0.0451362 0
0.30013 0.045182 0
0.316976 0.0450446 0
0.334096 0.0451514 0
0.350912 0.0449989 0
0.368002 0.0451209 0
0.384817 0.0449531 0
0.401907 0.0450752 0
0.418997 0.0451972 0
0.435813 0.0450294 0
0.452903 0.0451514 0
0.469734 0.0449989 0
0.486824 0.0451057 0
0.503899 0.0452277 0
0.520714 0.0450599 0
0.537804 0.045182 0
0.55465 0.0450141 0
0.57174 0.0451362 0
0.588785 0.0449531 0
0.605844 0.0450446 0
0.622934 0.0451667 0
0.63975 0.0449989 0
0.65684 0.0451209 0
0.673701 0.0449989 0
0.690745 0.0450752 0
0.707835 0.0451972 0
0.724666 0.0450446 0
0.741756 0.0451514 0
0.758572 0.0449989 0
0.775662 0.0451209 0
0.792752 0.0452277 0
0.809567 0.0450752 0
0.826734 0.0451667 0
0.843549 0.0450141 0
0.860777 0.0450904 0
0.877699 0.0450294 0
0.894697 0.0450446 0
0.911788 0.0451667 0
0.928603 0.0450141 0
0.945693 0.0451209 0
0.9626 0.0450599 0
0.979599 0.0450904 0
0.996689 0.0451972 0
0 0.0621042 0
0 0.0620584 0
0 0.0621805 0
0 0.0620279 0
0 0.0621347 0
0 0.06215 0
0.0108949 0.0621042 0
0.0281224 0.0621805 0
0.0449531 0.0620279 0
0.0621195 0.0621195 0
0.0791028 0.0621347 0
0.096025 0.0620737 0
0.113115 0.0621958 0
0.129931 0.0620279 0
0.147021 0.06215 0
0.163836 0.0619974 0
0.180926 0.0621042 0
0.197986 0.0621805 0
0.214832 0.0620737 0
0.231922 0.0621805 0
0.248753 0.0620279 0
0.265843 0.06215 0
0.282887 0.0622263 0
0.299931 0.0620432 0
0.317021 0.0621653 0
0.333867 0.0619974 0
0.350958 0.0621195 0
0.367773 0.0619669 0
0.384863 0.0620737 0
0.401953 0.0621958 0
0.418769 0.0620432 0
0.435859 0.06215 0
0.452674 0.0619974 0
0.469764 0.0621195 0
0.486854 0.0622263 0
0.503685 0.0620737 0
0.520775 0.0621958 0
0.537591 0.0620279 0
0.554696 0.06215 0
0.571786 0.0622568 0
0.5888 0.0620432 0
0.60589 0.0621653 0
0.622705 0.0620127 0
0.639796 0.0621195 0
0.656641 0.0619974 0
0.673716 0.062089 0
0.690806 0.0621958 0
0.707622 0.0620432 0
0.724712 0.0621653 0
0.741558 0.0620279 0
0.758618 0.0621195 0
0.775708 0.0622416 0
0.792523 0.0620737 0
0.809613 0.0621958 0
0.826505 0.0620127 0
0.843595 0.0621347 0
0.860639 0.0620279 0
0.877653 0.0620584 0
0.894728 0.0621653 0
0.911559 0.0620127 0
0.928649 0.0621195 0
0.945556 0.0620584 0
0.962554 0.062089 0
0.979644 0.0621958 0
0.99646 0.0620432 0
0 0.0789197 0
0 0.0791638 0
0 0.078996 0
0 0.079118 0
0 0.079118 0
0 0.0790723 0
0.011017 0.0791943 0
0.0279698 0.078996 0
0.0450599 0.079118 0
0.0621195 0.0791028 0
0.0790417 0.0790417 0
0.0961318 0.0791638 0
0.112963 0.0790112 0
0.130053 0.079118 0
0.146868 0.0789654 0
0.163958 0.0790875 0
0.181048 0.0791943 0
0.197864 0.0790417 0
0.214954 0.0791638 0
0.231769 0.078996 0
0.248859 0.079118 0
0.265904 0.0791943 0
0.282765 0.0790723 0
0.300053 0.0791485 0
0.316869 0.0789807 0
0.333989 0.0791028 0
0.351034 0.0791638 0
0.367895 0.079057 0
0.384985 0.0791638 0
0.401801 0.0790112 0
0.418891 0.0791333 0
0.435706 0.0789807 0
0.452796 0.0790875 0
0.469886 0.0792096 0
0.486702 0.079057 0
0.503792 0.0791638 0
0.520607 0.0790112 0
0.537713 0.079118 0
0.554818 0.0792401 0
0.571633 0.0790723 0
0.588922 0.0791485 0
0.605737 0.0789807 0
0.622827 0.0791028 0
0.639658 0.0789654 0
0.656733 0.079057 0
0.673823 0.0791791 0
0.690639 0.0790112 0
0.707729 0.0791333 0
0.724575 0.078996 0
0.741634 0.0790875 0
0.758724 0.0792096 0
0.775555 0.079057 0
0.792645 0.0791638 0
0.809461 0.0790112 0
0.826627 0.0791028 0
0.843717 0.0792248 0
0.86067 0.0790265 0
0.87776 0.0791485 0
0.894575 0.0789807 0
0.911665 0.0791028 0
0.928573 0.0790265 0
0.945586 0.079057 0
0.962676 0.0791791 0
0.979492 0.0790265 0
0.996582 0.0791333 0
0 0.0960098 0
0 0.0959793 0
0 0.0960861 0
0 0.0962081 0
0 0.0960555 0
0 0.0961624 0
0.0108644 0.0960098 0
0.0280919 0.0960861 0
0.0450599 0.0960861 0
0.0620737 0.096025 0
0.0791638 0.0961471 0
0.0959793 0.0959793 0
0.113069 0.0961013 0
0.130053 0.0961013 0
0.14699 0.0960555 0
0.16408 0.0961776 0
0.180896 0.096025 0
0.197986 0.0961318 0
0.214801 0.0959793 0
0.231891 0.0961013 0
0.24892 0.0961624 0
0.265797 0.0960555 0
0.282887 0.0961776 0
0.299886 0.095964 0
0.316991 0.0960861 0
0.334051 0.0961318 0
0.350927 0.096025 0
0.368017 0.0961471 0
0.384833 0.0959945 0
0.401923 0.0961013 0
0.418738 0.0959487 0
0.435828 0.0960708 0
0.452918 0.0961776 0
0.469734 0.096025 0
0.486824 0.0961318 0
0.503639 0.0959793 0
0.520729 0.0961013 0
0.53782 0.0962081 0
0.554665 0.0960555 0
0.571756 0.0961624 0
0.588769 0.095964 0
0.605859 0.0960708 0
0.62295 0.0961929 0
0.639765 0.0960403 0
0.656855 0.0961471 0
0.673671 0.0959945 0
0.690761 0.0961166 0
0.707591 0.095964 0
0.724666 0.0960708 0
0.741756 0.0961929 0
0.758572 0.096025 0
0.775662 0.0961471 0
0.792493 0.0959945 0
0.809567 0.0961013 0
0.826734 0.0962081 0
0.843565 0.0960403 0
0.860792 0.0961166 0
0.877607 0.095964 0
0.894697 0.0960861 0
0.911589 0.0959945 0
0.928603 0.0960403 0
0.945693 0.0961624 0
0.962509 0.0959945 0
0.979599 0.0961166 0
0.99649 0.096025 0
0 0.112917 0
0 0.113069 0
0 0.113176 0
0 0.113024 0
0 0.113146 0
0 0.112993 0
0.0109865 0.1131 0
0.0280766 0.113054 0
0.0450294 0.113024 0
0.0621958 0.113115 0
0.0790112 0.112963 0
0.0961013 0.113085 0
0.113069 0.113069 0
0.130007 0.113039 0
0.147097 0.113161 0
0.163912 0.112993 0
0.181018 0.113115 0
0.197833 0.112963 0
0.214923 0.113069 0
0.231998 0.113191 0
0.248829 0.113024 0
0.265919 0.113146 0
0.282734 0.112993 0
0.300008 0.113054 0
0.317037 0.1131 0
0.333944 0.113008 0
0.351034 0.113115 0
0.367849 0.112963 0
0.384939 0.113085 0
0.401968 0.11313 0
0.41886 0.113039 0
0.43595 0.113161 0
0.452766 0.112993 0
0.469856 0.113115 0
0.486671 0.112963 0
0.503761 0.113069 0
0.520851 0.113191 0
0.537667 0.113039 0
0.554772 0.113146 0
0.571603 0.112993 0
0.588891 0.113054 0
0.605966 0.113161 0
0.622797 0.113008 0
0.639887 0.11313 0
0.656703 0.112978 0
0.673793 0.113085 0
0.690608 0.112932 0
0.707698 0.113039 0
0.724788 0.113161 0
0.741604 0.113008 0
0.758694 0.113115 0
0.775509 0.112963 0
0.792599 0.113085 0
0.809689 0.113191 0
0.826581 0.113024 0
0.843671 0.11313 0
0.860639 0.112932 0
0.877729 0.113054 0
0.89482 0.113176 0
0.911635 0.113008 0
0.928725 0.11313 0
0.945541 0.112978 0
0.962631 0.113085 0
0.979507 0.112993 0
0.996536 0.113054 0
0 0.129931 0
0 0.130159 0
0 0.130007 0
0 0.130114 0
0 0.129961 0
0 0.130083 0
0.0110933 0.13019 0
0.0280461 0.129992 0
0.0451362 0.130114 0
0.0620432 0.129931 0
0.0791333 0.130053 0
0.0960861 0.130037 0
0.113039 0.130007 0
0.130129 0.130129 0
0.146944 0.129976 0
0.164034 0.130083 0
0.181003 0.130068 0
0.19794 0.130053 0
0.21503 0.130159 0
0.231846 0.130007 0
0.248936 0.130129 0
0.265751 0.129961 0
0.282841 0.130083 0
0.300053 0.130068 0
0.316945 0.129992 0
0.334066 0.130098 0
0.350881 0.129946 0
0.367971 0.130053 0
0.385 0.130098 0
0.401877 0.130022 0
0.418967 0.130129 0
0.435782 0.129976 0
0.452873 0.130098 0
0.469703 0.129931 0
0.486793 0.130053 0
0.503883 0.130175 0
0.520699 0.130007 0
0.537789 0.130129 0
0.55462 0.129961 0
0.571725 0.130083 0
0.588998 0.130129 0
0.605814 0.129992 0
0.622904 0.130098 0
0.639719 0.129946 0
0.656809 0.130053 0
0.673899 0.130175 0
0.690715 0.130022 0
0.70782 0.130129 0
0.724636 0.129976 0
0.741726 0.130098 0
0.758541 0.129931 0
0.775631 0.130053 0
0.792721 0.130175 0
0.809537 0.130007 0
0.826703 0.130114 0
