src/LiveStudio.Agent/BuiltInAssets/ColorCards/v1/cube/去灰.cube
TITLE "Generated by Resolve"
LUT_3D_SIZE 5
0 0 0
0.180529 0 0
0.452522 0 0
0.724269 0 0
0.996292 0 0
0 0.180926 0
0.180926 0.180926 0
0.452964 0.181094 0
0.724712 0.180987 0
0.996735 0.18114 0
0 0.452842 0
0.180972 0.452842 0
0.452995 0.452995 0
0.724758 0.452903 0
0.996506 0.452781 0
0 0.724681 0
0.181033 0.724758 0
0.452781 0.724636 0
0.724804 0.724804 0
0.996551 0.724697 0
0 0.996384 0
0.181079 0.996674 0
0.452827 0.996551 0
0.724849 0.996719 0
0.996612 0.996612 0
0 0 0.180591
0.180606 0 0.180606
0.452628 0 0.180758
0.724376 0 0.180652
0.996277 0 0.180682
0 0.181033 0.181033
0.181033 0.181033 0.181033
0.452903 0.181033 0.181033
0.724819 0.181094 0.181094
0.996567 0.180972 0.180972
0 0.452735 0.180865
0.181079 0.452949 0.181079
0.452842 0.452842 0.180972
0.724865 0.452995 0.18114
0.996612 0.452888 0.181018
0 0.72459 0.18085
0.18114 0.724865 0.18114
0.452888 0.724743 0.181018
0.72491 0.72491 0.181186
0.996658 0.724804 0.181064
0 0.99649 0.180896
0.181186 0.996765 0.181186
0.452934 0.996658 0.181064
0.724681 0.996551 0.180957
0.996704 0.996704 0.181125
0 0 0.452522
0.180667 0 0.452537
0.452415 0 0.452415
0.724437 0 0.452583
0.996201 0 0.452461
0 0.180819 0.452689
0.181109 0.181109 0.452964
0.452857 0.180987 0.452857
0.72488 0.181155 0.45301
0.996628 0.181048 0.452903
0 0.452735 0.452735
0.181155 0.45301 0.45301
0.452903 0.452903 0.452903
0.724834 0.452964 0.452964
0.996674 0.452949 0.452949
0 0.724651 0.452781
0.181048 0.724773 0.452918
0.452949 0.724819 0.452949
0.724697 0.724697 0.452842
0.996719 0.724865 0.452995
0 0.996551 0.452827
0.180972 0.996567 0.452827
0.452995 0.996719 0.452995
0.724743 0.996612 0.452888
0.996612 0.996612 0.452888
0 0 0.724178
0.180728 0 0.724453
0.452476 0 0.724346
0.724498 0 0.724498
0.996262 0 0.724392
0 0.180896 0.72462
0.181125 0.181125 0.724849
0.452918 0.181064 0.724788
0.724697 0.180972 0.724697
0.996704 0.181109 0.724834
0 0.452796 0.724666
0.180941 0.452811 0.724666
0.452964 0.452964 0.724834
0.724727 0.452857 0.724727
0.99675 0.45301 0.72488
0 0.724712 0.724712
0.180987 0.724712 0.724712
0.45301 0.72488 0.72488
0.724773 0.724773 0.724773
0.996521 0.724651 0.724651
0 0.996628 0.724758
0.181033 0.996628 0.724758
0.452979 0.996719 0.724849
0.724819 0.996674 0.724819
0.996567 0.996567 0.724697
0 0 0.996109
0.180591 0 0.996185
0.452552 0 0.996277
0.7243 0 0.99617
0.996323 0 0.996323
0 0.180957 0.996551
0.180957 0.180957 0.996551
0.452979 0.181125 0.996719
0.724743 0.181018 0.996597
0.996765 0.18117 0.996765
0 0.452873 0.996597
0.181003 0.452873 0.996597
0.453025 0.453025 0.996765
0.724788 0.452918 0.996643
0.996536 0.452811 0.996536
0 0.724758 0.996612
0.181048 0.724788 0.996643
0.452857 0.724712 0.996582
0.724834 0.724834 0.996689
0.996582 0.724727 0.996582
0 0.996414 0.996414
0.181094 0.996689 0.996689
0.452857 0.996582 0.996582
0.72488 0.996735 0.996735
0.996628 0.996628 0.996628
