src/LiveStudio.Agent/BuiltInAssets/ColorCards/v1/cube/柔滑嫩白LUT.cube
# Created by Adobe Lightroom plugin Export LUT (1.17.0)
# www.johnrellis.com/lightroom/exportlut.htm
# Preset: 柔滑肌肤质感[素锦印象]-1
# Color profile: /Library/Application Support/Adobe/Color/Profiles/Recommended/AdobeRGB1998.icc
LUT_3D_SIZE 5
DOMAIN_MIN 0.000000 0.000000 0.000000
DOMAIN_MAX 0.903226 0.903226 0.903226
0.000000 0.000000 0.000000
0.241611 0.000000 0.000000
0.577386 0.000000 0.000000
0.848356 0.000000 0.000000
1.000000 0.000000 0.000000
0.114992 0.269993 0.000000
0.275975 0.263005 0.000000
0.555688 0.288396 0.000000
0.839719 0.220157 0.000000
1.000000 0.000000 0.000000
0.260777 0.616449 0.000000
0.386358 0.616907 0.000000
0.640742 0.610285 0.000000
0.831022 0.559625 0.064302
0.995789 0.547173 0.279179
0.365972 0.854582 0.000000
0.445411 0.853422 0.000000
0.642939 0.847593 0.000000
0.871916 0.830869 0.000000
0.994690 0.749386 0.269383
0.422004 1.000000 0.000000
0.474830 1.000000 0.000000
0.617762 0.995727 0.000000
0.806485 0.983612 0.000000
1.000000 0.962799 0.000000
0.000000 0.029084 0.329931
0.251774 0.000000 0.302342
0.562036 0.000000 0.329412
0.843687 0.000000 0.277043
1.000000 0.000000 0.116182
0.000000 0.294255 0.298100
0.245640 0.252659 0.266209
0.571160 0.217624 0.267155
0.840970 0.138979 0.254704
1.000000 0.000000 0.175021
0.000000 0.607630 0.188174
0.333440 0.600610 0.230137
0.620691 0.598291 0.250858
0.823423 0.576379 0.341466
0.996857 0.550408 0.339818
0.342199 0.850431 0.181216
0.431037 0.849088 0.186526
0.631556 0.845548 0.147433
0.866361 0.830686 0.237888
0.994720 0.752163 0.325536
0.418250 1.000000 0.000000
0.469520 1.000000 0.000000
0.613153 0.996551 0.000000
0.809079 0.983734 0.000000
1.000000 0.962402 0.000000
0.000000 0.082033 0.696468
0.000000 0.000000 0.682948
0.540917 0.000000 0.646662
0.819089 0.000000 0.621698
0.991699 0.226139 0.627619
0.000000 0.376287 0.674861
0.000000 0.283543 0.666255
0.537957 0.246464 0.630121
0.810971 0.295506 0.617884
0.986633 0.366064 0.635340
0.000000 0.631525 0.638697
0.259953 0.613947 0.624109
0.529778 0.540795 0.563256
0.801907 0.557641 0.590814
0.993805 0.552453 0.591150
0.265904 0.838285 0.544060
0.382361 0.832914 0.547936
0.619409 0.819944 0.577478
0.838712 0.822049 0.608728
0.973053 0.803677 0.658198
0.477180 0.994079 0.530755
0.559716 0.989227 0.569696
0.656519 0.988006 0.539422
0.814817 0.980896 0.509209
0.994903 0.962646 0.535637
0.000000 0.152193 0.897490
0.000000 0.150515 0.893706
0.407507 0.147341 0.880278
0.731075 0.154086 0.861173
0.981415 0.264775 0.844297
0.000000 0.380224 0.889525
0.000000 0.323888 0.888029
0.427649 0.317876 0.875029
0.736202 0.318181 0.855253
0.978088 0.391272 0.840299
0.289525 0.664424 0.873228
0.397436 0.659968 0.868254
0.515679 0.591516 0.857298
0.752010 0.568505 0.833219
0.969329 0.613611 0.830289
0.357366 0.844388 0.851225
0.439094 0.839719 0.847471
0.606867 0.823270 0.833555
0.759640 0.768032 0.785519
0.964843 0.800290 0.818509
0.511467 0.983948 0.786709
0.560906 0.981811 0.789303
0.686427 0.976532 0.795834
0.837034 0.970764 0.808804
0.976959 0.964599 0.824369
0.000000 0.227146 1.000000
0.000000 0.232425 1.000000
0.242374 0.250950 1.000000
0.597772 0.273259 1.000000
0.855406 0.315923 0.992279
0.000000 0.388739 1.000000
0.000000 0.356115 1.000000
0.306065 0.365393 1.000000
0.615015 0.377386 0.997711
0.861936 0.406653 0.989593
0.453712 0.687709 0.994263
0.445075 0.664820 0.995178
0.475593 0.601312 0.996094
0.674617 0.594842 0.989960
0.884123 0.599084 0.982971
0.557671 0.848020 0.985199
0.594171 0.849912 0.984344
0.692531 0.850889 0.982361
0.760342 0.803128 0.981903
0.918944 0.797421 0.974670
0.613794 0.975402 0.976501
0.641810 0.974670 0.976013
0.726894 0.972686 0.974670
0.838773 0.968322 0.971435
0.940612 0.944488 0.951202
