src/LiveStudio.Agent/BuiltInAssets/ColorCards/v1/cube/柔滑嫩白LUT.cube
# Created by Adobe Lightroom plugin Export LUT (1.17.0)
# www.johnrellis.com/lightroom/exportlut.htm
# Preset: 柔滑肌肤质感[素锦印象]-1
# Color profile: /Library/Application Support/Adobe/Color/Profiles/Recommended/AdobeRGB1998.icc
LUT_3D_SIZE 32
0.000000 0.000000 0.000000
0.026978 0.000000 0.000000
0.059998 0.000000 0.000061
0.084840 0.000000 0.000885
0.114778 0.000000 0.000885
0.151827 0.000000 0.000000
0.195224 0.000000 0.000000
0.241611 0.000000 0.000000
0.288701 0.000000 0.000000
0.335760 0.000000 0.000000
0.383734 0.000000 0.000000
0.431830 0.000000 0.000000
0.480293 0.000000 0.000000
0.528862 0.000000 0.000000
0.577386 0.000000 0.000000
0.624292 0.000000 0.000000
0.668086 0.000000 0.000000
0.708400 0.000000 0.000000
0.745663 0.000000 0.000000
0.781003 0.000000 0.000000
0.815427 0.000000 0.000000
0.848356 0.000000 0.000000
0.879149 0.000000 0.000000
0.907866 0.000000 0.000000
0.934783 0.000000 0.000000
0.960174 0.000000 0.000000
0.984192 0.000000 0.000000
1.000000 0.000000 0.000000
1.000000 0.000000 0.000000
1.000000 0.000000 0.000000
1.000000 0.000000 0.000000
1.000000 0.000000 0.000000
0.004974 0.029694 0.000000
0.029999 0.027863 0.000183
0.053712 0.025788 0.003998
0.080781 0.025727 0.007568
0.111360 0.013672 0.007324
0.148745 0.000000 0.005249
0.192599 0.000000 0.000702
0.239200 0.000000 0.000000
0.286534 0.000000 0.000000
0.334142 0.000000 0.000000
0.382147 0.000000 0.000000
0.430610 0.000000 0.000000
0.478920 0.000000 0.000000
0.527642 0.000000 0.000000
0.576165 0.000000 0.000000
0.623224 0.000000 0.000000
0.666957 0.000000 0.000000
0.707485 0.000000 0.000000
0.744747 0.000000 0.000000
0.780209 0.000000 0.000000
0.814572 0.000000 0.000000
0.847471 0.000000 0.000000
0.878233 0.000000 0.000000
0.906981 0.000000 0.000000
0.933959 0.000000 0.000000
0.959350 0.000000 0.000000
0.983490 0.000000 0.000000
1.000000 0.000000 0.000000
1.000000 0.000000 0.000000
1.000000 0.000000 0.000000
1.000000 0.000000 0.000000
1.000000 0.000000 0.000000
0.008698 0.061738 0.000000
0.036469 0.061280 0.000000
0.061921 0.059449 0.000000
0.079957 0.055055 0.010437
0.106630 0.059693 0.018860
0.144656 0.054292 0.014832
0.188754 0.033478 0.008331
0.236179 0.000000 0.000153
0.283940 0.000000 0.000000
0.331884 0.000000 0.000000
0.380285 0.000000 0.000000
0.428779 0.000000 0.000000
0.477455 0.000000 0.000000
0.526299 0.000000 0.000000
0.574853 0.000000 0.000000
0.622187 0.000000 0.000000
0.666041 0.000000 0.000000
0.706508 0.000000 0.000000
0.743984 0.000000 0.000000
0.779416 0.000000 0.000000
0.813962 0.000000 0.000000
0.846799 0.000000 0.000000
0.877531 0.000000 0.000000
0.906371 0.000000 0.000000
0.933349 0.000000 0.000000
0.958801 0.000000 0.000000
0.982940 0.000000 0.000000
1.000000 0.000000 0.000000
1.000000 0.000000 0.000000
1.000000 0.000000 0.000000
1.000000 0.000000 0.000000
1.000000 0.000000 0.000000
0.020661 0.088655 0.000000
0.047028 0.088411 0.000000
0.066987 0.088045 0.000000
0.089265 0.085664 0.000000
0.108034 0.081392 0.015686
0.140139 0.088319 0.027161
0.181125 0.093263 0.025788
0.229740 0.091249 0.013031
0.278965 0.082795 0.000000
0.327855 0.066926 0.000000
0.376654 0.020600 0.000000
0.425757 0.000000 0.000000
0.474739 0.000000 0.000000
0.523796 0.000000 0.000000
0.572778 0.000000 0.000000
0.620203 0.000000 0.000000
0.664302 0.000000 0.000000
0.704952 0.000000 0.000000
0.742428 0.000000 0.000000
0.778073 0.000000 0.000000
0.812711 0.000000 0.000000
0.845487 0.000000 0.000000
0.876310 0.000000 0.000000
0.905241 0.000000 0.000000
0.932433 0.000000 0.000000
0.958038 0.000000 0.000000
0.982300 0.000000 0.000000
1.000000 0.000000 0.000000
1.000000 0.000000 0.000000
1.000000 0.000000 0.000000
1.000000 0.000000 0.000000
1.000000 0.000000 0.000000
0.045441 0.124697 0.000000
0.063874 0.124849 0.000000
0.077790 0.125093 0.000000
0.101472 0.124056 0.000000
0.125856 0.121096 0.000000
0.144381 0.113436 0.015015
0.182162 0.122316 0.021546
0.223819 0.131411 0.023133
0.271061 0.136172 0.013031
0.321080 0.134981 0.000000
0.371130 0.129427 0.000000
0.420874 0.121218 0.000000
0.470588 0.108919 0.000000
0.520043 0.091188 0.000000
0.569421 0.061524 0.000000
0.617243 0.000000 0.000000
0.661921 0.000000 0.000000
0.702907 0.000000 0.000000
0.740749 0.000000 0.000000
0.776699 0.000000 0.000000
0.811368 0.000000 0.000000
0.844175 0.000000 0.000000
0.874968 0.000000 0.000000
0.903990 0.000000 0.000000
0.931212 0.000000 0.000000
0.956939 0.000000 0.000000
0.981262 0.000000 0.000000
1.000000 0.000000 0.000000
1.000000 0.000000 0.000000
1.000000 0.000000 0.000000
1.000000 0.000000 0.000000
1.000000 0.000000 0.000000
0.070954 0.169833 0.000000
0.082338 0.170077 0.000000
0.094942 0.170382 0.000000
0.117769 0.170901 0.000000
0.145480 0.168307 0.000000
0.172183 0.165103 0.000000
0.188327 0.151980 0.002106
0.229221 0.161685 0.001892
0.272038 0.170748 0.000305
0.316045 0.179171 0.000000
0.363867 0.184512 0.000000
0.414771 0.183627 0.000000
0.465217 0.180545 0.000000
0.515587 0.174777 0.000000
0.565454 0.165927 0.000000
0.614008 0.153506 0.000000
0.658930 0.137545 0.000000
0.700313 0.115175 0.000000
0.738460 0.080934 0.000000
0.775021 0.000000 0.000000
0.809689 0.000000 0.000000
0.842710 0.000000 0.000000
0.878172 0.000000 0.000000
0.906981 0.000000 0.000000
0.933928 0.000000 0.000000
0.959319 0.000000 0.000000
0.983246 0.000000 0.000000
1.000000 0.000000 0.000000
1.000000 0.000000 0.000000
1.000000 0.000000 0.000000
1.000000 0.000000 0.000000
1.000000 0.000000 0.000000
0.093233 0.220401 0.000000
0.103883 0.220462 0.000000
0.115846 0.220645 0.000000
0.138491 0.221164 0.000000
0.166201 0.220584 0.000000
0.195621 0.217502 0.000000
0.224125 0.214237 0.000000
0.237339 0.196750 0.000000
0.279057 0.204471 0.000000
0.322545 0.213504 0.000000
0.367041 0.222202 0.000000
0.412360 0.230900 0.000000
0.460334 0.236576 0.000000
0.511589 0.235721 0.000000
0.562219 0.232700 0.000000
0.611109 0.227085 0.000000
0.656397 0.218418 0.000000
0.698207 0.206149 0.000000
0.736843 0.191745 0.000000
0.773983 0.173556 0.000000
0.809262 0.151003 0.000000
0.842771 0.118685 0.000000
0.874235 0.065827 0.000000
0.903746 0.000000 0.000000
0.931273 0.000000 0.000000
0.957031 0.000000 0.000000
0.981170 0.000000 0.000000
1.000000 0.000000 0.000000
1.000000 0.000000 0.000000
1.000000 0.000000 0.000000
1.000000 0.000000 0.000000
1.000000 0.000000 0.000000
0.114992 0.269993 0.000000
0.123903 0.270024 0.000000
0.135073 0.270054 0.000000
0.156497 0.270298 0.000000
0.184115 0.270817 0.000000
0.215152 0.268925 0.000000
0.246036 0.265843 0.000000
0.275975 0.263005 0.000000
0.286168 0.241886 0.000000
0.328405 0.247929 0.000000
0.372259 0.256931 0.000000
0.416999 0.265568 0.000000
0.462104 0.274205 0.000000
0.507774 0.282750 0.000000
0.555688 0.288396 0.000000
0.605524 0.286595 0.000000
0.651484 0.281926 0.000000
0.693782 0.274144 0.000000
0.733333 0.264103 0.000000
0.770565 0.252201 0.000000
0.806027 0.237827 0.000000
0.839719 0.220157 0.000000
0.871336 0.198917 0.000000
0.900938 0.173129 0.000000
0.928588 0.138033 0.000000
0.954437 0.084749 0.000000
0.978698 0.000000 0.000000
1.000000 0.000000 0.000000
1.000000 0.000000 0.000000
1.000000 0.000000 0.000000
1.000000 0.000000 0.000000
1.000000 0.000000 0.000000
0.136660 0.319219 0.000000
0.144594 0.319310 0.000000
0.154421 0.319524 0.000000
0.174319 0.319493 0.000000
0.201114 0.320043 0.000000
0.231601 0.319982 0.000000
0.263890 0.317540 0.000000
0.296178 0.315038 0.000000
0.327947 0.312352 0.000000
0.340124 0.291936 0.000000
0.378607 0.292668 0.000000
0.422553 0.301152 0.000000
0.467414 0.309758 0.000000
0.512596 0.318273 0.000000
0.557855 0.326726 0.000000
0.602197 0.334783 0.000000
0.645747 0.338170 0.000000
0.689296 0.333501 0.000000
0.729030 0.326390 0.000000
0.766659 0.317205 0.000000
0.802365 0.306401 0.000000
0.836240 0.293095 0.000000
0.868040 0.278111 0.000000
0.897795 0.260594 0.000000
0.925566 0.239994 0.000000
0.951537 0.215305 0.000000
0.975952 0.185763 0.000000
0.998993 0.146914 0.000000
1.000000 0.084565 0.000000
1.000000 0.000000 0.000000
1.000000 0.000000 0.041077
1.000000 0.000000 0.067750
0.157504 0.368750 0.000000
0.165072 0.368841 0.000000
0.174197 0.368902 0.000000
0.192752 0.368963 0.000000
0.218082 0.369390 0.000000
0.247410 0.369909 0.000000
0.279973 0.368872 0.000000
0.313451 0.366735 0.000000
0.347112 0.364599 0.000000
0.380224 0.362280 0.000000
0.395727 0.343755 0.000000
0.428779 0.337865 0.000000
0.473030 0.345953 0.000000
0.517601 0.354192 0.000000
0.562768 0.362402 0.000000
0.606683 0.370153 0.000000
0.648066 0.376837 0.000000
0.686549 0.382177 0.000000
0.724086 0.382757 0.006806
0.762142 0.375708 0.000000
0.798184 0.367010 0.000000
0.832151 0.356512 0.000000
0.864103 0.343908 0.000000
0.893889 0.330083 0.000000
0.921813 0.313939 0.001404
0.947906 0.296117 0.026123
0.972503 0.275395 0.052979
0.995697 0.252201 0.069490
1.000000 0.224430 0.081666
1.000000 0.191135 0.093751
1.000000 0.147616 0.105379
1.000000 0.071199 0.116365
0.178317 0.418189 0.000000
0.184726 0.418189 0.000000
0.193118 0.418463 0.000000
0.210819 0.418524 0.000000
0.235019 0.418921 0.000000
0.263340 0.419379 0.000000
0.295201 0.420142 0.000000
0.329320 0.418494 0.000000
0.364080 0.416449 0.000000
0.398871 0.414649 0.000000
0.433204 0.412634 0.000000
0.451575 0.396002 0.000000
0.479286 0.384192 0.000000
0.523766 0.391638 0.000000
0.568566 0.399664 0.000000
0.611658 0.406683 0.000000
0.652064 0.412055 0.000000
0.689754 0.416541 0.000000
0.724880 0.420294 0.000000
0.758541 0.424079 0.074647
0.792844 0.422492 0.091920
0.827268 0.413825 0.090486
0.859556 0.403540 0.091554
0.889647 0.391669 0.094789
0.917723 0.378424 0.099855
0.944060 0.363195 0.105653
0.968719 0.346715 0.112764
0.992065 0.328374 0.120577
1.000000 0.307713 0.128847
1.000000 0.284886 0.137270
1.000000 0.259342 0.146456
1.000000 0.229252 0.155215
0.199069 0.468208 0.000000
0.204715 0.468238 0.000000
0.213046 0.468391 0.000000
0.228794 0.468513 0.000000
0.252140 0.468879 0.000000
0.279515 0.469459 0.000000
0.310643 0.470100 0.000000
0.344182 0.470130 0.000000
0.379675 0.468605 0.000000
0.415625 0.466957 0.000000
0.451209 0.465187 0.000000
0.486885 0.463813 0.000000
0.512108 0.452735 0.000000
0.535027 0.435859 0.000000
0.579553 0.441566 0.000000
0.621515 0.447211 0.000000
0.660853 0.451453 0.000000
0.697597 0.454566 0.000000
0.731838 0.456886 0.000000
0.764858 0.459510 0.032410
0.796262 0.462135 0.096223
0.826169 0.465126 0.131563
0.856931 0.460090 0.142733
0.886961 0.449714 0.144503
0.915038 0.437842 0.147677
0.941253 0.424781 0.151949
0.965942 0.410193 0.156954
0.989197 0.394476 0.162966
1.000000 0.377478 0.169528
1.000000 0.358953 0.176669
1.000000 0.338903 0.184268
1.000000 0.316991 0.192386
0.220554 0.519921 0.000000
0.225864 0.520104 0.000000
0.233463 0.520073 0.000000
0.248600 0.520165 0.000000
0.270146 0.520348 0.000000
0.296696 0.520562 0.000000
0.326879 0.521263 0.000000
0.359380 0.521874 0.000000
0.394965 0.521172 0.000000
0.431769 0.520378 0.000000
0.469245 0.519493 0.000000
0.506493 0.518608 0.000000
0.543603 0.517693 0.000000
0.567864 0.505241 0.000000
0.584741 0.483040 0.000000
0.626612 0.485084 0.000000
0.665064 0.488289 0.000000
0.700862 0.490181 0.000000
0.734463 0.491371 0.000000
0.766964 0.492775 0.000000
0.798032 0.494240 0.070588
0.827543 0.495918 0.115969
0.855375 0.497932 0.150576
0.881590 0.500206 0.181674
0.909422 0.491554 0.187900
0.935943 0.480018 0.191257
0.960845 0.467201 0.195468
0.984283 0.453376 0.200443
1.000000 0.438514 0.206302
1.000000 0.422644 0.212772
1.000000 0.405646 0.219791
1.000000 0.387518 0.227329
0.240970 0.569421 0.000000
0.246525 0.569390 0.000000
0.252903 0.569421 0.000000
0.267155 0.569574 0.000000
0.287602 0.569635 0.000000
0.313176 0.569970 0.000000
0.342016 0.570550 0.000000
0.373846 0.571191 0.000000
0.408270 0.571679 0.000000
0.444862 0.570733 0.000000
0.482368 0.569787 0.000000
0.520073 0.568719 0.000000
0.557458 0.567498 0.000000
0.594446 0.566339 0.000000
0.619654 0.554467 0.000000
0.630640 0.527306 0.000000
0.669368 0.525444 0.000000
0.704311 0.526299 0.000000
0.737392 0.526299 0.000000
0.769345 0.526665 0.000000
0.800046 0.527001 0.011444
0.829191 0.527550 0.095338
0.856748 0.528283 0.136812
0.882628 0.529412 0.171023
0.906950 0.530846 0.202426
0.930205 0.531579 0.229252
0.955322 0.520195 0.232914
0.978973 0.507866 0.237278
1.000000 0.494697 0.242466
1.000000 0.480537 0.248417
1.000000 0.465766 0.255100
1.000000 0.450080 0.262272
0.260777 0.616449 0.000000
0.265446 0.616388 0.000000
0.271702 0.616358 0.000000
0.285039 0.616419 0.000000
0.304326 0.616327 0.000000
0.328405 0.616449 0.000000
0.355901 0.616602 0.000000
0.386358 0.616907 0.000000
0.419287 0.617426 0.000000
0.454841 0.617090 0.000000
0.491859 0.615991 0.000000
0.529473 0.614679 0.000000
0.566827 0.613550 0.000000
0.604150 0.612055 0.000000
0.640742 0.610285 0.000000
0.666468 0.599115 0.000000
0.672389 0.567926 0.000000
0.708217 0.562829 0.000000
0.740627 0.561913 0.000000
0.772000 0.561089 0.000000
0.802152 0.560296 0.000000
0.831022 0.559625 0.064302
0.858122 0.559228 0.119631
0.883726 0.559106 0.158755
0.907836 0.559350 0.192599
0.930449 0.560327 0.224308
0.951720 0.562097 0.254795
0.973297 0.558953 0.274235
0.995789 0.547173 0.279179
1.000000 0.534661 0.284764
1.000000 0.521447 0.291112
1.000000 0.507561 0.298039
0.279271 0.659358 0.000000
0.283543 0.659419 0.000000
0.289464 0.659419 0.000000
0.301396 0.659297 0.000000
0.319524 0.659236 0.000000
0.342321 0.659358 0.000000
0.368536 0.659327 0.000000
0.397711 0.659449 0.000000
0.429419 0.659724 0.000000
0.462745 0.659998 0.000000
0.499031 0.658717 0.000000
0.536095 0.657374 0.000000
0.572992 0.655573 0.000000
0.609857 0.653834 0.000000
0.646174 0.651789 0.000000
0.681941 0.649592 0.000000
0.708278 0.639338 0.000000
0.711849 0.606897 0.000000
0.743801 0.598505 0.000000
0.774990 0.596063 0.000000
0.804807 0.594263 0.000000
0.833341 0.592370 0.000000
0.860105 0.590906 0.097444
0.885344 0.589715 0.144259
0.909178 0.588800 0.181979
0.931579 0.588525 0.215915
0.952605 0.589014 0.247929
0.972381 0.590417 0.279210
0.990814 0.593072 0.310124
1.000000 0.585260 0.321630
1.000000 0.573388 0.327611
1.000000 0.560876 0.334234
0.296086 0.698207 0.000000
0.299901 0.698116 0.000000
0.305211 0.698054 0.000000
0.316533 0.697963 0.000000
0.333410 0.697871 0.000000
0.354467 0.697749 0.000000
0.379004 0.697627 0.000000
0.407080 0.697566 0.000000
0.437293 0.697536 0.000000
0.469215 0.697536 0.000000
0.503380 0.697047 0.000000
0.539635 0.695552 0.000000
0.575921 0.693874 0.000000
0.612421 0.691951 0.000000
0.648524 0.689876 0.000000
0.683986 0.687465 0.000000
0.718929 0.684962 0.000000
0.746090 0.675959 0.000000
0.750820 0.645319 0.000000
0.777523 0.632715 0.000000
0.807340 0.628290 0.000000
0.835386 0.625422 0.000000
0.861814 0.622736 0.062776
0.886778 0.620447 0.126406
0.910277 0.618494 0.169253
0.932464 0.617029 0.205875
0.953338 0.616266 0.239841
0.972961 0.616510 0.272465
0.991272 0.617792 0.304509
1.000000 0.620325 0.336492
1.000000 0.622004 0.364630
1.000000 0.610864 0.371099
0.311711 0.733486 0.000000
0.315282 0.733455 0.000000
0.321508 0.736446 0.000000
0.331914 0.736202 0.000000
0.347662 0.736049 0.000000
0.367163 0.735744 0.000000
0.390692 0.735439 0.000000
0.416846 0.735134 0.000000
0.445655 0.734798 0.000000
0.476387 0.734524 0.000000
0.508537 0.734371 0.000000
0.543236 0.733028 0.000000
0.579004 0.731167 0.000000
0.614893 0.729183 0.000000
0.650629 0.727016 0.000000
0.685969 0.724636 0.000000
0.720882 0.722164 0.000000
0.755093 0.719539 0.000000
0.782864 0.711604 0.000000
0.788479 0.682368 0.000000
0.810483 0.666407 0.000000
0.838712 0.659602 0.000000
0.864714 0.655695 0.000000
0.889128 0.652216 0.104341
0.912139 0.648951 0.155001
0.933867 0.646296 0.195224
0.954345 0.644312 0.231266
0.973663 0.643091 0.265385
0.991760 0.643061 0.298436
1.000000 0.644221 0.331243
1.000000 0.646845 0.364141
1.000000 0.651087 0.397528
0.326970 0.766995 0.000000
0.330327 0.767361 0.000000
0.335088 0.767666 0.000000
0.344854 0.767849 0.000000
0.359106 0.767941 0.000000
0.377447 0.767788 0.000000
0.399603 0.767514 0.000000
0.424353 0.767208 0.000000
0.451759 0.766842 0.000000
0.480934 0.766537 0.000000
0.511833 0.766140 0.000000
0.544182 0.765530 0.000000
0.579248 0.763851 0.000000
0.614374 0.761959 0.000000
0.649500 0.759792 0.000000
0.684596 0.757473 0.000000
0.719173 0.755062 0.000000
0.753323 0.752560 0.000000
0.786984 0.749935 0.000000
0.815488 0.743313 0.000000
0.821744 0.715450 0.000000
0.839963 0.696681 0.000000
0.866606 0.688167 0.000000
0.890715 0.683650 0.069459
0.913451 0.679438 0.137057
0.934966 0.675654 0.182437
0.955261 0.672511 0.221469
0.974365 0.670222 0.257298
0.992279 0.668849 0.291814
1.000000 0.668696 0.325597
1.000000 0.669947 0.359289
1.000000 0.672724 0.393408
0.340642 0.797635 0.000000
0.343877 0.797910 0.000000
0.348119 0.798215 0.000000
0.357061 0.798337 0.000000
0.370397 0.798337 0.000000
0.387518 0.798245 0.000000
0.408270 0.797910 0.000000
0.431708 0.797513 0.000000
0.457679 0.797177 0.000000
0.485512 0.796750 0.000000
0.514946 0.796353 0.000000
0.545892 0.795865 0.000000
0.578882 0.794675 0.000000
0.613275 0.792813 0.000000
0.647913 0.790738 0.000000
0.682399 0.788510 0.000000
0.716670 0.786160 0.000000
0.750546 0.783627 0.000000
0.783993 0.781064 0.000000
0.816983 0.778531 0.000000
0.846036 0.772946 0.000000
0.852598 0.746273 0.000000
0.867582 0.725490 0.000000
0.892424 0.715480 0.000000
0.914916 0.710170 0.114351
0.936126 0.705318 0.167758
0.956176 0.701076 0.210330
0.975067 0.697566 0.248478
0.992798 0.695064 0.284489
1.000000 0.693599 0.319463
1.000000 0.693477 0.354040
1.000000 0.694881 0.388800
0.353338 0.826474 0.000000
0.356329 0.826719 0.000000
0.360388 0.826963 0.000000
0.368627 0.827085 0.000000
0.381323 0.827054 0.000000
0.397192 0.826871 0.000000
0.416663 0.826505 0.000000
0.438575 0.826139 0.000000
0.463142 0.825681 0.000000
0.489723 0.825223 0.000000
0.517845 0.824704 0.000000
0.547509 0.824125 0.000000
0.578088 0.823453 0.000000
0.611505 0.821714 0.000000
0.645502 0.819760 0.000000
0.679408 0.817624 0.000000
0.713283 0.815366 0.000000
0.746944 0.813107 0.000000
0.780270 0.810697 0.000000
0.813199 0.808255 0.000000
0.845579 0.805814 0.000000
0.875364 0.801541 0.000000
0.881956 0.775509 0.000000
0.894072 0.753567 0.000000
0.917296 0.742733 0.072236
0.938323 0.736202 0.151919
0.958068 0.730800 0.199435
0.976654 0.726162 0.240146
0.994110 0.722408 0.277928
1.000000 0.719753 0.314122
1.000000 0.718227 0.349676
1.000000 0.718196 0.385229
0.365972 0.854582 0.000000
0.368658 0.854643 0.000000
0.372168 0.854704 0.000000
0.380041 0.854612 0.000000
0.391638 0.854459 0.000000
0.406592 0.854185 0.000000
0.424628 0.853849 0.000000
0.445411 0.853422 0.000000
0.468818 0.853025 0.000000
0.494026 0.852506 0.000000
0.520989 0.851987 0.000000
0.549340 0.851377 0.000000
0.578820 0.850706 0.000000
0.609857 0.849577 0.000000
0.642939 0.847593 0.000000
0.676356 0.845457 0.000000
0.709499 0.843290 0.000000
0.742794 0.840940 0.000000
0.775662 0.838529 0.000000
0.808255 0.836057 0.000000
0.840360 0.833494 0.000000
0.871916 0.830869 0.000000
0.901976 0.827604 0.000000
0.907927 0.802426 0.000000
0.917754 0.779416 0.000000
0.939361 0.767849 0.113039
0.959045 0.760006 0.185153
0.977447 0.754269 0.229435
0.994690 0.749386 0.269383
1.000000 0.745449 0.307012
1.000000 0.742702 0.343664
1.000000 0.741329 0.380194
0.377234 0.879850 0.000000
0.379828 0.879911 0.000000
0.382940 0.879973 0.000000
0.390112 0.879881 0.000000
0.400671 0.879728 0.000000
0.414893 0.879454 0.000000
0.431922 0.879057 0.000000
0.451484 0.878630 0.000000
0.473518 0.878141 0.000000
0.497444 0.877562 0.000000
0.523156 0.877012 0.000000
0.550317 0.876341 0.000000
0.578668 0.875608 0.000000
0.607996 0.874723 0.000000
0.639612 0.873106 0.000000
0.672175 0.871092 0.000000
0.704768 0.868925 0.000000
0.737453 0.866667 0.000000
0.769986 0.864286 0.000000
0.802243 0.861845 0.000000
0.834043 0.859342 0.000000
0.865507 0.856718 0.000000
0.895933 0.854185 0.000000
0.925658 0.851621 0.000000
0.931426 0.827024 0.000000
0.939788 0.803861 0.000000
0.959655 0.791501 0.146517
0.978058 0.782467 0.217075
0.995117 0.776455 0.259556
1.000000 0.771389 0.299046
1.000000 0.767391 0.337072
1.000000 0.764706 0.374426
0.387945 0.904387 0.000000
0.390051 0.904448 0.000000
0.393225 0.904448 0.000000
0.399786 0.904356 0.000000
0.409674 0.904112 0.000000
0.422797 0.903777 0.000000
0.438758 0.903319 0.000000
0.457252 0.902831 0.000000
0.478035 0.902220 0.000000
0.500938 0.901549 0.000000
0.525414 0.900816 0.000000
0.551293 0.900084 0.000000
0.578515 0.899199 0.000000
0.606561 0.898253 0.000000
0.635767 0.897063 0.000000
0.667567 0.894987 0.000000
0.699489 0.892760 0.000000
0.731350 0.890501 0.000000
0.763302 0.888151 0.000000
0.795102 0.885740 0.000000
0.826658 0.883238 0.000000
0.857542 0.880735 0.000000
0.887663 0.878172 0.000000
0.917205 0.875517 0.000000
0.946075 0.872801 0.000000
0.953338 0.850431 0.000000
0.961822 0.828244 0.000000
0.978759 0.814115 0.178256
0.995697 0.803952 0.249210
1.000000 0.797757 0.290654
1.000000 0.792538 0.330083
1.000000 0.788388 0.368383
0.396735 0.926513 0.000000
0.398810 0.926574 0.000000
0.401648 0.926604 0.000000
0.407935 0.926452 0.000000
0.417395 0.926238 0.000000
0.429541 0.925933 0.000000
0.444617 0.925475 0.000000
0.462165 0.924987 0.000000
0.481971 0.924407 0.000000
0.503593 0.923766 0.000000
0.527001 0.923095 0.000000
0.551904 0.922332 0.000000
0.577966 0.921477 0.000000
0.605127 0.920500 0.000000
0.633021 0.919432 0.000000
0.662928 0.917845 0.000000
0.694118 0.915709 0.000000
0.725399 0.913481 0.000000
0.756771 0.911162 0.000000
0.788083 0.908751 0.000000
0.818875 0.906310 0.000000
0.849058 0.903838 0.000000
0.878935 0.901305 0.000000
0.908385 0.898650 0.000000
0.937224 0.895903 0.000000
0.965454 0.893126 0.000000
0.973754 0.872404 0.000000
0.982177 0.851225 0.102480
0.996674 0.835843 0.209506
1.000000 0.824613 0.282231
1.000000 0.818173 0.323033
1.000000 0.812711 0.362402
0.404761 0.947631 0.000000
0.406806 0.947631 0.000000
0.409369 0.947601 0.000000
0.415198 0.947448 0.000000
0.423896 0.947173 0.000000
0.435523 0.946838 0.000000
0.449561 0.946410 0.000000
0.466133 0.945861 0.000000
0.485054 0.945251 0.000000
0.505669 0.944640 0.000000
0.528161 0.943938 0.000000
0.551995 0.943175 0.000000
0.577081 0.942321 0.000000
0.603296 0.941344 0.000000
0.630274 0.940276 0.000000
0.657984 0.939086 0.000000
0.688289 0.937041 0.000000
0.718929 0.934844 0.000000
0.749691 0.932555 0.000000
0.779812 0.930266 0.000000
0.809659 0.927947 0.000000
0.839567 0.925475 0.000000
0.869139 0.922942 0.000000
0.898436 0.920256 0.000000
0.927245 0.917510 0.000000
0.955444 0.914672 0.000000
0.982971 0.911803 0.000000
0.992493 0.892882 0.000000
1.000000 0.872374 0.151827
1.000000 0.856107 0.240146
1.000000 0.844144 0.312352
1.000000 0.837064 0.355383
0.411505 0.967224 0.000000
0.413306 0.967193 0.000000
0.415839 0.967163 0.000000
0.421180 0.967010 0.000000
0.429419 0.966796 0.000000
0.440436 0.966522 0.000000
0.454017 0.966155 0.000000
0.469825 0.965789 0.000000
0.487800 0.965332 0.000000
0.507652 0.964843 0.000000
0.529229 0.964233 0.000000
0.552239 0.963561 0.000000
0.576410 0.962799 0.000000
0.601862 0.961883 0.000000
0.627985 0.960815 0.000000
0.654841 0.959655 0.000000
0.683131 0.958099 0.000000
0.712734 0.955993 0.000000
0.741726 0.953887 0.000000
0.771023 0.951659 0.000000
0.800534 0.949310 0.000000
0.830106 0.946868 0.000000
0.859434 0.944274 0.000000
0.888579 0.941527 0.000000
0.917296 0.938720 0.000000
0.945464 0.935821 0.000000
0.972992 0.932891 0.000000
0.999756 0.929931 0.000000
1.000000 0.912902 0.087190
1.000000 0.892607 0.194705
1.000000 0.875578 0.272313
1.000000 0.863218 0.342687
0.417548 0.986419 0.000000
0.419287 0.986389 0.000000
0.421607 0.986328 0.000000
0.426673 0.986145 0.000000
0.434516 0.985901 0.000000
0.444984 0.985565 0.000000
0.457771 0.985168 0.000000
0.472694 0.984710 0.000000
0.489998 0.984161 0.000000
0.508995 0.983551 0.000000
0.529595 0.982879 0.000000
0.551690 0.982086 0.000000
0.575006 0.981231 0.000000
0.599451 0.980224 0.000000
0.624781 0.979126 0.000000
0.650294 0.977966 0.000000
