src/LiveStudio.Agent/BuiltInAssets/ColorCards/v1/cube/柔滑嫩白LUT.cube
# Created by Adobe Lightroom plugin Export LUT (1.17.0)
# www.johnrellis.com/lightroom/exportlut.htm
# Preset: 柔滑肌肤质感[素锦印象]-1
# Color profile: /Library/Application Support/Adobe/Color/Profiles/Recommended/AdobeRGB1998.icc
LUT_3D_SIZE 8
DOMAIN_MIN 0.000000 0.000000 0.000000
DOMAIN_MAX 0.903226 0.903226 0.903226
0.000000 0.000000 0.000000
0.114778 0.000000 0.000885
0.288701 0.000000 0.000000
0.480293 0.000000 0.000000
0.668086 0.000000 0.000000
0.815427 0.000000 0.000000
0.934783 0.000000 0.000000
1.000000 0.000000 0.000000
0.045441 0.124697 0.000000
0.125856 0.121096 0.000000
0.271061 0.136172 0.013031
0.470588 0.108919 0.000000
0.661921 0.000000 0.000000
0.811368 0.000000 0.000000
0.931212 0.000000 0.000000
1.000000 0.000000 0.000000
0.136660 0.319219 0.000000
0.201114 0.320043 0.000000
0.327947 0.312352 0.000000
0.467414 0.309758 0.000000
0.645747 0.338170 0.000000
0.802365 0.306401 0.000000
0.925566 0.239994 0.000000
1.000000 0.084565 0.000000
0.220554 0.519921 0.000000
0.270146 0.520348 0.000000
0.394965 0.521172 0.000000
0.543603 0.517693 0.000000
0.665064 0.488289 0.000000
0.798032 0.494240 0.070588
0.909422 0.491554 0.187900
1.000000 0.438514 0.206302
0.296086 0.698207 0.000000
0.333410 0.697871 0.000000
0.437293 0.697536 0.000000
0.575921 0.693874 0.000000
0.718929 0.684962 0.000000
0.807340 0.628290 0.000000
0.910277 0.618494 0.169253
0.991272 0.617792 0.304509
0.353338 0.826474 0.000000
0.381323 0.827054 0.000000
0.463142 0.825681 0.000000
0.578088 0.823453 0.000000
0.713283 0.815366 0.000000
0.845579 0.805814 0.000000
0.917296 0.742733 0.072236
0.994110 0.722408 0.277928
0.396735 0.926513 0.000000
0.417395 0.926238 0.000000
0.481971 0.924407 0.000000
0.577966 0.921477 0.000000
0.694118 0.915709 0.000000
0.818875 0.906310 0.000000
0.937224 0.895903 0.000000
0.996674 0.835843 0.209506
0.422004 1.000000 0.000000
0.438331 1.000000 0.000000
0.491279 1.000000 0.000000
0.572747 0.998474 0.000000
0.666773 0.993530 0.000000
0.777462 0.986023 0.000000
0.892668 0.975341 0.000000
1.000000 0.962799 0.000000
0.000000 0.010590 0.154604
0.121553 0.000000 0.144076
0.288853 0.000000 0.166445
0.483101 0.000000 0.143496
0.670619 0.000000 0.069093
0.815640 0.000000 0.000000
0.933288 0.000000 0.000000
1.000000 0.000000 0.000000
0.000000 0.141543 0.142733
0.121096 0.124361 0.130526
0.293400 0.091615 0.123842
0.480201 0.000000 0.110018
0.665919 0.000000 0.081636
0.812253 0.000000 0.000000
0.930175 0.000000 0.000000
1.000000 0.000000 0.000000
0.000000 0.317632 0.074250
0.163333 0.314153 0.099794
0.322026 0.309667 0.104372
0.468482 0.312993 0.145144
0.650019 0.330205 0.153048
0.802335 0.298436 0.126101
0.923308 0.246830 0.069703
1.000000 0.115114 0.000000
0.169162 0.514153 0.000000
0.236973 0.514000 0.000000
0.377386 0.517052 0.000000
0.535332 0.511925 0.000000
0.660090 0.487739 0.143771
0.792813 0.497505 0.197726
0.907164 0.492256 0.218326
1.000000 0.439826 0.206241
0.270237 0.694667 0.000000
0.311711 0.694301 0.000000
0.423011 0.693690 0.000000
0.567163 0.690059 0.000000
0.713344 0.681331 0.000000
0.804410 0.629541 0.156435
0.908812 0.620508 0.213870
0.991028 0.617151 0.304295
0.341344 0.824155 0.000000
0.369696 0.823850 0.000000
0.453925 0.822751 0.000000
0.571527 0.821073 0.000000
0.709529 0.813962 0.000000
0.843442 0.805234 0.000000
0.916838 0.743038 0.157961
0.994202 0.721492 0.278447
0.390723 0.924956 0.000000
0.411322 0.924346 0.000000
0.476600 0.922789 0.000000
0.573541 0.920378 0.000000
0.690669 0.915221 0.000000
0.817411 0.905760 0.000000
0.938231 0.894713 0.000000
0.996521 0.834043 0.211887
0.415564 1.000000 0.000000
0.431952 1.000000 0.000000
0.485115 1.000000 0.000000
0.567468 0.998535 0.000000
0.667720 0.994049 0.000000
0.779416 0.986023 0.000000
0.893980 0.975006 0.000000
1.000000 0.962371 0.000000
0.000000 0.039918 0.387213
0.000000 0.000000 0.378882
0.294255 0.000000 0.353765
0.479225 0.000000 0.355901
0.647242 0.000000 0.383062
0.794736 0.000000 0.384497
0.930785 0.000000 0.311437
1.000000 0.000000 0.191073
0.000000 0.194522 0.371679
0.000000 0.132570 0.365332
0.288762 0.101350 0.343420
0.474525 0.085634 0.349645
0.643030 0.015595 0.377295
0.800961 0.000000 0.354284
0.932280 0.000000 0.279210
1.000000 0.000000 0.203616
0.000000 0.344213 0.348699
0.093324 0.333135 0.339788
0.287236 0.294835 0.310307
0.471687 0.279026 0.310826
0.657221 0.265080 0.317327
0.805356 0.241184 0.315190
0.925566 0.194644 0.298589
1.000000 0.000000 0.248753
0.000000 0.507012 0.302556
0.134829 0.504295 0.296910
0.329320 0.495003 0.295720
0.509697 0.496773 0.307469
0.651637 0.498848 0.353735
0.787076 0.518975 0.387945
0.909819 0.492042 0.371221
1.000000 0.440742 0.327337
0.108156 0.689204 0.231662
0.216953 0.685817 0.247868
0.389227 0.681025 0.280644
0.543450 0.681727 0.274235
0.700313 0.675837 0.308080
0.799313 0.641169 0.367620
0.902800 0.643519 0.405676
0.986633 0.640650 0.422950
0.310735 0.818662 0.253727
0.346593 0.817990 0.259373
0.441169 0.816342 0.265141
0.561120 0.815274 0.252415
0.700496 0.810636 0.265660
0.835721 0.803647 0.307378
0.911589 0.753567 0.378454
0.991394 0.732753 0.389349
0.391699 0.922515 0.236301
0.413458 0.921904 0.237125
0.478096 0.920348 0.229709
0.572839 0.918120 0.209384
0.685969 0.914488 0.177768
0.814755 0.905699 0.223209
0.934508 0.895995 0.268284
0.996124 0.836118 0.322026
0.425147 1.000000 0.133211
0.438209 1.000000 0.111147
0.488563 1.000000 0.063752
0.567712 0.997803 0.000000
0.664485 0.993835 0.000000
0.778531 0.986206 0.000000
0.896391 0.974853 0.000000
1.000000 0.961975 0.000000
0.000000 0.069551 0.607782
0.000000 0.011963 0.602411
0.245548 0.000000 0.583032
0.465248 0.000000 0.557702
0.652430 0.000000 0.553887
0.787655 0.000000 0.548516
0.899901 0.114107 0.558373
0.996185 0.171847 0.560876
0.000000 0.212467 0.596948
0.000000 0.152651 0.593408
0.234531 0.121736 0.576104
0.463050 0.063203 0.551324
0.650446 0.038972 0.547967
0.784787 0.130312 0.546624
0.897581 0.199191 0.558679
0.999207 0.175540 0.545586
0.000000 0.409003 0.578637
0.000000 0.394018 0.571466
0.221683 0.312322 0.554406
0.457099 0.289342 0.527977
0.641993 0.304448 0.527367
0.776059 0.323491 0.542626
0.896330 0.342199 0.554650
1.000000 0.207950 0.491279
0.000000 0.545373 0.551995
0.051209 0.538445 0.546258
0.291875 0.513451 0.525200
0.450935 0.461433 0.482887
0.627375 0.461311 0.494179
0.781643 0.471504 0.510735
0.906218 0.473701 0.517876
1.000000 0.439246 0.492561
0.064851 0.676295 0.495705
0.172793 0.673610 0.492683
0.329259 0.665003 0.482765
0.498604 0.649012 0.483131
0.663264 0.652918 0.502251
0.779904 0.659449 0.554955
0.886442 0.687984 0.596490
0.982696 0.662226 0.572747
0.232334 0.814389 0.447578
0.279362 0.813474 0.449714
0.395666 0.807431 0.456336
0.553826 0.799802 0.490517
0.685328 0.800809 0.490761
0.818967 0.798245 0.524926
0.899840 0.773465 0.573053
0.978424 0.768460 0.586603
0.353674 0.919646 0.425818
0.385534 0.918456 0.433692
0.509453 0.911406 0.492012
0.590997 0.911070 0.482094
0.693324 0.909514 0.471229
0.812985 0.903960 0.485389
0.925353 0.896727 0.516106
0.985107 0.851225 0.553521
0.512749 0.992981 0.494331
0.520836 0.993042 0.489540
0.545403 0.993408 0.466621
0.596399 0.993133 0.430091
0.681147 0.990173 0.405768
0.781857 0.985016 0.379767
0.895567 0.974365 0.398810
1.000000 0.962554 0.412604
0.000000 0.098634 0.767330
0.000000 0.086702 0.764645
0.000000 0.019043 0.754788
0.405951 0.000000 0.737636
0.604761 0.000000 0.720180
0.783261 0.000000 0.715724
0.899443 0.162387 0.688472
0.989960 0.243107 0.685420
0.000000 0.224765 0.761746
0.000000 0.179538 0.760403
0.000000 0.164553 0.751125
0.405463 0.137697 0.734340
0.604517 0.102602 0.716335
0.781949 0.124727 0.712062
0.897765 0.230716 0.688502
0.988495 0.290013 0.686946
0.000000 0.428138 0.746883
0.000000 0.411200 0.744594
0.086824 0.334600 0.738888
0.408240 0.317632 0.722438
0.603876 0.303075 0.702480
0.775875 0.323278 0.698451
0.891020 0.374395 0.688808
0.983093 0.407568 0.692256
0.000000 0.580957 0.733944
0.138582 0.577600 0.730861
0.320806 0.559564 0.718624
0.428687 0.490394 0.699886
0.604028 0.470405 0.676051
0.764645 0.497261 0.676905
0.880064 0.520745 0.688930
0.975525 0.536797 0.698848
0.081849 0.702693 0.710384
0.181094 0.699123 0.707393
0.334752 0.685756 0.696223
0.483131 0.659663 0.673915
0.600641 0.611231 0.633051
0.748867 0.620508 0.648127
0.884459 0.640253 0.669184
0.983948 0.638819 0.669215
0.232334 0.800595 0.650568
0.275425 0.798642 0.649866
0.387396 0.792020 0.646998
0.519005 0.782010 0.642054
0.648371 0.769467 0.640131
0.786313 0.778256 0.662715
0.883940 0.789944 0.710048
0.963928 0.806271 0.733761
0.368505 0.911345 0.615290
0.396948 0.910094 0.617609
0.477943 0.906340 0.625177
0.581933 0.901122 0.635828
0.698054 0.897246 0.652491
0.804898 0.897673 0.654047
0.912383 0.894926 0.681880
0.973358 0.869871 0.708980
0.486946 0.991485 0.607111
0.505180 0.990631 0.611139
0.561761 0.987854 0.623835
0.660975 0.982055 0.661280
0.713588 0.982940 0.630976
0.797116 0.980194 0.615961
0.896727 0.972564 0.623072
0.989502 0.963104 0.637629
0.000000 0.141451 0.875761
0.000000 0.138155 0.874388
0.000000 0.134981 0.869352
0.308843 0.128817 0.860899
0.532525 0.112062 0.847990
0.708766 0.118196 0.836759
0.888640 0.142367 0.847562
0.984771 0.269993 0.808072
0.000000 0.241337 0.872251
0.000000 0.211429 0.871611
0.000000 0.207340 0.867033
0.315129 0.202670 0.858610
0.534600 0.192294 0.845762
0.709712 0.195407 0.834501
0.887572 0.215305 0.844907
0.983642 0.313909 0.807156
0.000000 0.428595 0.863920
0.000000 0.414405 0.863279
0.000000 0.357488 0.861051
0.344518 0.351171 0.852781
0.546014 0.343236 0.839933
0.714870 0.343572 0.827695
0.884550 0.365942 0.836301
0.980255 0.429145 0.805112
0.231785 0.597589 0.853605
0.278386 0.595514 0.851713
0.372656 0.581476 0.846403
0.412818 0.517479 0.842344
0.572930 0.506035 0.829770
0.725032 0.499611 0.815549
0.879667 0.520714 0.822019
0.974212 0.553857 0.806058
0.271183 0.713252 0.842710
0.311162 0.712795 0.841306
0.416632 0.710933 0.836423
0.535058 0.702449 0.826719
0.603632 0.647211 0.813138
0.731655 0.627344 0.794369
0.871916 0.651728 0.800107
0.965789 0.668666 0.804959
0.310796 0.819028 0.826230
0.344671 0.817563 0.825071
0.434211 0.811704 0.820310
0.541283 0.800534 0.810849
0.641596 0.781369 0.794034
0.729641 0.738613 0.757198
0.862150 0.755093 0.776242
0.968292 0.774014 0.793942
0.396918 0.902953 0.780850
0.420264 0.901915 0.780911
0.487984 0.897978 0.780728
0.576349 0.891966 0.778866
0.675563 0.886137 0.773556
0.781735 0.878599 0.773892
0.892729 0.885954 0.795346
0.963348 0.889372 0.826078
0.507073 0.985626 0.752102
0.523003 0.984863 0.753353
0.573083 0.982544 0.757382
0.645197 0.979461 0.763119
0.728145 0.975860 0.770901
0.814969 0.972961 0.778500
0.897642 0.970550 0.777279
0.979278 0.964324 0.793912
0.000000 0.185733 0.955566
0.000000 0.186526 0.955291
0.000000 0.192081 0.952819
0.187686 0.199252 0.948547
0.450965 0.206546 0.942046
0.635492 0.211185 0.933074
0.791928 0.238682 0.926238
0.968566 0.251225 0.949065
0.000000 0.262303 0.952605
0.000000 0.242924 0.952789
0.000000 0.244266 0.950530
0.207034 0.248936 0.946227
0.456184 0.253391 0.939574
0.636988 0.255070 0.930388
0.791836 0.276188 0.923247
0.967926 0.285618 0.946777
0.000000 0.428962 0.948180
0.000000 0.418067 0.947997
0.000000 0.376501 0.947204
0.278630 0.376837 0.943023
0.482887 0.377935 0.936278
0.650660 0.377234 0.927306
0.800198 0.392523 0.920470
0.967651 0.405859 0.941558
0.331579 0.614130 0.939574
0.337530 0.607324 0.939208
0.356542 0.581720 0.938384
0.393072 0.533623 0.937377
0.537163 0.529564 0.931151
0.678614 0.524651 0.922667
0.814481 0.528252 0.915618
0.965545 0.537835 0.930632
0.411810 0.731716 0.932158
0.433265 0.731289 0.931182
0.498604 0.729885 0.928405
0.582391 0.724147 0.924376
0.594537 0.664454 0.923217
0.706264 0.652369 0.914458
0.827512 0.646509 0.905486
0.961486 0.662562 0.914580
0.441047 0.819425 0.923827
0.460853 0.819669 0.923308
0.520928 0.820340 0.921599
0.602441 0.820584 0.918944
0.689082 0.816831 0.914366
0.741909 0.774319 0.906645
0.842618 0.758724 0.893278
0.957824 0.779568 0.898039
0.474098 0.908965 0.914611
0.491341 0.908598 0.914397
0.543023 0.906645 0.912871
0.615259 0.903197 0.910094
0.695583 0.896696 0.904601
0.775662 0.884459 0.893797
0.843351 0.849882 0.863645
0.955016 0.868956 0.882994
0.539483 0.979065 0.882261
0.552178 0.978485 0.882261
0.594537 0.977081 0.882994
0.655085 0.974243 0.882780
0.726009 0.970214 0.881559
0.806485 0.966461 0.879301
0.891966 0.962890 0.883513
0.969665 0.964294 0.898680
0.000000 0.227146 1.000000
0.000000 0.228336 1.000000
0.000000 0.234318 1.000000
0.000000 0.244602 1.000000
0.368261 0.257267 1.000000
0.556023 0.270054 1.000000
0.716365 0.281468 0.996643
0.855406 0.315923 0.992279
0.000000 0.285588 1.000000
0.000000 0.272465 1.000000
0.000000 0.275761 1.000000
0.000000 0.283787 1.000000
0.379034 0.293950 1.000000
0.561212 0.304448 1.000000
0.718929 0.312840 0.995392
0.856748 0.343420 0.991028
0.000000 0.427619 1.000000
0.000000 0.419776 1.000000
0.000000 0.388098 1.000000
0.204654 0.393317 1.000000
0.420447 0.399207 1.000000
0.583154 0.404669 0.997925
0.730983 0.409155 0.992828
0.863859 0.430732 0.988586
0.290959 0.595575 0.999817
0.298711 0.590784 0.999939
0.320531 0.571374 0.999969
0.357855 0.534417 1.000000
0.493477 0.535424 0.997742
0.624567 0.535637 0.993957
0.753353 0.532860 0.989227
0.876493 0.542046 0.985290
0.518791 0.748104 0.990448
0.532769 0.749142 0.990295
0.568109 0.747921 0.989563
0.548882 0.706538 0.991791
0.569512 0.663081 0.992248
0.670008 0.657923 0.988861
0.780056 0.652522 0.984436
0.893065 0.657527 0.980713
0.548699 0.830411 0.985992
0.560235 0.831083 0.985657
0.597375 0.832303 0.984771
0.652430 0.830289 0.983581
0.719326 0.826535 0.982055
0.725917 0.776730 0.984009
0.815396 0.771298 0.980224
0.914122 0.771847 0.976257
0.579583 0.900572 0.981506
0.589685 0.900725 0.981292
0.622675 0.901335 0.980652
0.675319 0.902556 0.979858
0.740658 0.904204 0.978759
0.811887 0.905608 0.977356
0.854551 0.877104 0.975494
0.931914 0.868101 0.968475
0.613794 0.975402 0.976501
0.622217 0.975158 0.976349
0.650965 0.974456 0.975860
0.698390 0.973419 0.975158
0.757504 0.971740 0.974029
0.822293 0.969177 0.972107
0.887999 0.964233 0.968139
0.940612 0.944488 0.951202
