src/LiveStudio.Agent/BuiltInAssets/ColorCards/v1/cube/高光.cube
LUT_3D_SIZE 6
0.000000 0.000000 0.000000
0.319456 0.000000 0.000000
0.666372 0.000000 0.000000
0.907288 0.000000 0.000000
1.067808 0.000000 0.000000
1.334905 0.000000 0.000000
0.000000 0.319456 0.000000
0.319456 0.319456 0.000000
0.666372 0.333190 0.000000
0.907288 0.302406 0.000000
1.067808 0.266958 0.000000
1.334905 0.266959 0.000000
0.000000 0.666372 0.000000
0.333190 0.666372 0.000000
0.666372 0.666372 0.000000
0.907288 0.604834 0.000000
1.067808 0.533916 0.000000
1.334905 0.533918 0.000000
0.000000 0.907288 0.000000
0.302406 0.907288 0.000000
0.604834 0.907288 0.000000
0.907288 0.907288 0.000000
1.067808 0.800876 0.000000
1.334905 0.800879 0.000000
0.000000 1.067808 0.000000
0.266958 1.067808 0.000000
0.533916 1.067808 0.000000
0.800876 1.067808 0.000000
1.067808 1.067808 0.000000
1.334905 1.067812 0.000000
0.000000 1.334905 0.000000
0.266959 1.334905 0.000000
0.533918 1.334905 0.000000
0.800879 1.334905 0.000000
1.067812 1.334905 0.000000
1.334905 1.334905 0.000000
0.000000 0.000000 0.319456
0.319456 0.000000 0.319456
0.666372 0.000000 0.333190
0.907288 0.000000 0.302406
1.067808 0.000000 0.266958
1.334905 0.000000 0.266959
0.000000 0.319456 0.319456
0.319456 0.319456 0.319456
0.666372 0.319456 0.319456
0.907288 0.319456 0.319456
1.067808 0.319456 0.319456
1.334904 0.319456 0.319456
0.000000 0.666372 0.333190
0.319456 0.666372 0.319456
0.666372 0.666372 0.319456
0.907288 0.609318 0.319456
1.067808 0.552553 0.319456
1.334904 0.553995 0.319456
0.000000 0.907288 0.302406
0.319456 0.907288 0.319456
0.609318 0.907288 0.319456
0.907288 0.907288 0.319456
1.067808 0.807495 0.319456
1.334904 0.810161 0.319456
0.000000 1.067808 0.266958
0.319456 1.067808 0.319456
0.552553 1.067808 0.319456
0.807495 1.067808 0.319456
1.067808 1.067808 0.319456
1.334904 1.071454 0.319456
0.000000 1.334905 0.266959
0.319456 1.334904 0.319456
0.553995 1.334904 0.319456
0.810161 1.334904 0.319456
1.071454 1.334904 0.319456
1.334904 1.334904 0.319456
0.000000 0.000000 0.666372
0.333190 0.000000 0.666372
0.666372 0.000000 0.666372
0.907288 0.000000 0.604834
1.067808 0.000000 0.533916
1.334905 0.000000 0.533918
0.000000 0.333190 0.666372
0.319456 0.319456 0.666372
0.666372 0.319456 0.666372
0.907288 0.319456 0.609318
1.067808 0.319456 0.552553
1.334904 0.319456 0.553995
0.000000 0.666372 0.666372
0.319456 0.666372 0.666372
0.666372 0.666372 0.666372
0.907288 0.666372 0.666372
1.067808 0.666372 0.666372
1.334905 0.666372 0.666372
0.000000 0.907288 0.604834
0.319456 0.907288 0.609318
0.666372 0.907288 0.666372
0.907288 0.907288 0.666372
1.067808 0.853019 0.666372
1.334905 0.867365 0.666372
0.000000 1.067808 0.533916
0.319456 1.067808 0.552553
0.666372 1.067808 0.666372
0.853019 1.067808 0.666372
1.067808 1.067808 0.666372
1.334905 1.094888 0.666372
0.000000 1.334905 0.533918
0.319456 1.334904 0.553995
0.666372 1.334905 0.666372
0.867365 1.334905 0.666372
1.094888 1.334905 0.666372
1.334905 1.334905 0.666372
0.000000 0.000000 0.907288
0.302406 0.000000 0.907288
0.604834 0.000000 0.907288
0.907288 0.000000 0.907288
1.067808 0.000000 0.800876
1.334905 0.000000 0.800879
0.000000 0.302406 0.907288
0.319456 0.319456 0.907288
0.609318 0.319456 0.907288
0.907288 0.319456 0.907288
1.067808 0.319456 0.807495
1.334904 0.319456 0.810161
0.000000 0.604834 0.907288
0.319456 0.609318 0.907288
0.666372 0.666372 0.907288
0.907288 0.666372 0.907288
1.067808 0.666372 0.853019
1.334905 0.666372 0.867365
0.000000 0.907288 0.907288
0.319456 0.907288 0.907288
0.666372 0.907288 0.907288
0.907288 0.907288 0.907288
1.067808 0.907288 0.907288
1.334905 0.907288 0.907288
0.000000 1.067808 0.800876
0.319456 1.067808 0.807495
0.666372 1.067808 0.853019
0.907288 1.067808 0.907288
1.067808 1.067808 0.907288
1.334905 1.112222 0.907288
0.000000 1.334905 0.800879
0.319456 1.334904 0.810161
0.666372 1.334905 0.867365
0.907288 1.334905 0.907288
1.112222 1.334905 0.907288
1.334905 1.334905 0.907288
0.000000 0.000000 1.067808
0.266958 0.000000 1.067808
0.533916 0.000000 1.067808
0.800876 0.000000 1.067808
1.067808 0.000000 1.067808
1.334905 0.000000 1.067812
0.000000 0.266958 1.067808
0.319456 0.319456 1.067808
0.552553 0.319456 1.067808
0.807495 0.319456 1.067808
1.067808 0.319456 1.067808
1.334904 0.319456 1.071454
0.000000 0.533916 1.067808
0.319456 0.552553 1.067808
0.666372 0.666372 1.067808
0.853019 0.666372 1.067808
1.067808 0.666372 1.067808
1.334905 0.666372 1.094888
0.000000 0.800876 1.067808
0.319456 0.807495 1.067808
0.666372 0.853019 1.067808
0.907288 0.907288 1.067808
1.067808 0.907288 1.067808
1.334905 0.907288 1.112222
0.000000 1.067808 1.067808
0.319456 1.067808 1.067808
0.666372 1.067808 1.067808
0.907288 1.067808 1.067808
1.067808 1.067808 1.067808
1.334905 1.067808 1.067808
0.000000 1.334905 1.067812
0.319456 1.334904 1.071454
0.666372 1.334905 1.094888
0.907288 1.334905 1.112222
1.067808 1.334905 1.067808
1.334905 1.334905 1.067808
0.000000 0.000000 1.334905
0.266959 0.000000 1.334905
0.533918 0.000000 1.334905
0.800879 0.000000 1.334905
1.067812 0.000000 1.334905
1.334905 0.000000 1.334905
0.000000 0.266959 1.334905
0.319456 0.319456 1.334904
0.553995 0.319456 1.334904
0.810161 0.319456 1.334904
1.071454 0.319456 1.334904
1.334904 0.319456 1.334904
0.000000 0.533918 1.334905
0.319456 0.553995 1.334904
0.666372 0.666372 1.334905
0.867365 0.666372 1.334905
1.094888 0.666372 1.334905
1.334905 0.666372 1.334905
0.000000 0.800879 1.334905
0.319456 0.810161 1.334904
0.666372 0.867365 1.334905
0.907288 0.907288 1.334905
1.112222 0.907288 1.334905
1.334905 0.907288 1.334905
0.000000 1.067812 1.334905
0.319456 1.071454 1.334904
0.666372 1.094888 1.334905
0.907288 1.112222 1.334905
1.067808 1.067808 1.334905
1.334905 1.067808 1.334905
0.000000 1.334905 1.334905
0.319456 1.334904 1.334904
0.666372 1.334905 1.334905
0.907288 1.334905 1.334905
1.067808 1.334905 1.334905
1.334905 1.334905 1.334905
