src/LiveStudio.Agent/BuiltInAssets/ColorCards/v1/cube/高光.cube
LUT_3D_SIZE 16
0.000000 0.000000 0.000000
0.096286 0.000000 0.000000
0.204188 0.000000 0.000000
0.319456 0.000000 0.000000
0.437905 0.000000 0.000000
0.555040 0.000000 0.000000
0.666372 0.000000 0.000000
0.766330 0.000000 0.000000
0.848702 0.000000 0.000000
0.907288 0.000000 0.000000
0.943037 0.000000 0.000000
0.982688 0.000000 0.000000
1.067808 0.000000 0.000000
1.156997 0.000000 0.000000
1.245709 0.000000 0.000000
1.334905 0.000000 0.000000
0.000000 0.096286 0.000000
0.096286 0.096286 0.000000
0.204188 0.102099 0.000000
0.319456 0.106495 0.000000
0.437905 0.109480 0.000000
0.555040 0.111015 0.000000
0.666372 0.111069 0.000000
0.766330 0.109483 0.000000
0.848702 0.106090 0.000000
0.907288 0.100808 0.000000
0.943037 0.094299 0.000000
0.982688 0.089324 0.000000
1.067808 0.088994 0.000000
1.156997 0.088994 0.000000
1.245709 0.088994 0.000000
1.334905 0.088994 0.000000
0.000000 0.204188 0.000000
0.102099 0.204188 0.000000
0.204188 0.204188 0.000000
0.319456 0.212983 0.000000
0.437905 0.218945 0.000000
0.555040 0.222032 0.000000
0.666372 0.222140 0.000000
0.766330 0.218962 0.000000
0.848702 0.212182 0.000000
0.907288 0.201614 0.000000
0.943037 0.188596 0.000000
0.982688 0.178650 0.000000
1.067808 0.177983 0.000000
1.156997 0.177984 0.000000
1.245709 0.177984 0.000000
1.334905 0.177984 0.000000
0.000000 0.319456 0.000000
0.106495 0.319456 0.000000
0.212983 0.319456 0.000000
0.319456 0.319456 0.000000
0.437905 0.328403 0.000000
0.555040 0.333026 0.000000
0.666372 0.333190 0.000000
0.766330 0.328415 0.000000
0.848702 0.318254 0.000000
0.907288 0.302406 0.000000
0.943037 0.282901 0.000000
0.982688 0.267967 0.000000
1.067808 0.266958 0.000000
1.156997 0.266959 0.000000
1.245709 0.266959 0.000000
1.334905 0.266959 0.000000
0.000000 0.437905 0.000000
0.109480 0.437905 0.000000
0.218945 0.437905 0.000000
0.328403 0.437905 0.000000
0.437905 0.437905 0.000000
0.555040 0.444060 0.000000
0.666372 0.444270 0.000000
0.766330 0.437925 0.000000
0.848702 0.424346 0.000000
0.907288 0.403226 0.000000
0.943037 0.377194 0.000000
0.982688 0.357308 0.000000
1.067808 0.355961 0.000000
1.156997 0.355961 0.000000
1.245709 0.355962 0.000000
1.334905 0.355962 0.000000
0.000000 0.555040 0.000000
0.111015 0.555040 0.000000
0.222032 0.555040 0.000000
0.333026 0.555040 0.000000
0.444060 0.555040 0.000000
0.555040 0.555040 0.000000
0.666372 0.555307 0.000000
0.766330 0.547397 0.000000
0.848702 0.530429 0.000000
0.907288 0.504019 0.000000
0.943037 0.471503 0.000000
0.982688 0.446630 0.000000
1.067808 0.444926 0.000000
1.156997 0.444926 0.000000
1.245709 0.444927 0.000000
1.334905 0.444927 0.000000
0.000000 0.666372 0.000000
0.111069 0.666372 0.000000
0.222140 0.666372 0.000000
0.333190 0.666372 0.000000
0.444270 0.666372 0.000000
0.555307 0.666372 0.000000
0.666372 0.666372 0.000000
0.766330 0.656846 0.000000
0.848702 0.636502 0.000000
0.907288 0.604834 0.000000
0.943037 0.565800 0.000000
0.982688 0.535934 0.000000
1.067808 0.533916 0.000000
1.156997 0.533917 0.000000
1.245709 0.533917 0.000000
1.334905 0.533918 0.000000
0.000000 0.766330 0.000000
0.109483 0.766330 0.000000
0.218962 0.766330 0.000000
0.328415 0.766330 0.000000
0.437925 0.766330 0.000000
0.547397 0.766330 0.000000
0.656846 0.766330 0.000000
0.766330 0.766330 0.000000
0.848702 0.742582 0.000000
0.907288 0.705669 0.000000
0.943037 0.660094 0.000000
0.982688 0.625253 0.000000
1.067808 0.622854 0.000000
1.156997 0.622855 0.000000
1.245709 0.622856 0.000000
1.334905 0.622857 0.000000
0.000000 0.848702 0.000000
0.106090 0.848702 0.000000
0.212182 0.848702 0.000000
0.318254 0.848702 0.000000
0.424346 0.848702 0.000000
0.530429 0.848702 0.000000
0.636502 0.848702 0.000000
0.742582 0.848702 0.000000
0.848702 0.848702 0.000000
0.907288 0.806433 0.000000
0.943037 0.754390 0.000000
0.982688 0.714632 0.000000
1.067808 0.711909 0.000000
1.156997 0.711910 0.000000
1.245709 0.711912 0.000000
1.334905 0.711913 0.000000
0.000000 0.907288 0.000000
0.100808 0.907288 0.000000
0.201614 0.907288 0.000000
0.302406 0.907288 0.000000
0.403226 0.907288 0.000000
0.504019 0.907288 0.000000
0.604834 0.907288 0.000000
0.705669 0.907288 0.000000
0.806433 0.907288 0.000000
0.907288 0.907288 0.000000
0.943037 0.848740 0.000000
0.982688 0.803980 0.000000
1.067808 0.800876 0.000000
1.156997 0.800878 0.000000
1.245709 0.800879 0.000000
1.334905 0.800879 0.000000
0.000000 0.943037 0.000000
0.094299 0.943037 0.000000
0.188596 0.943037 0.000000
0.282901 0.943037 0.000000
0.377194 0.943037 0.000000
0.471503 0.943037 0.000000
0.565800 0.943037 0.000000
0.660094 0.943037 0.000000
0.754390 0.943037 0.000000
0.848740 0.943037 0.000000
0.943037 0.943037 0.000000
0.982688 0.893284 0.000000
1.067808 0.889849 0.000000
1.156997 0.889851 0.000000
1.245709 0.889852 0.000000
1.334905 0.889853 0.000000
0.000000 0.982688 0.000000
0.089324 0.982688 0.000000
0.178650 0.982688 0.000000
0.267967 0.982688 0.000000
0.357308 0.982688 0.000000
0.446630 0.982688 0.000000
0.535934 0.982688 0.000000
0.625253 0.982688 0.000000
0.714632 0.982688 0.000000
0.803980 0.982688 0.000000
0.893284 0.982688 0.000000
0.982688 0.982688 0.000000
1.067808 0.978972 0.000000
1.156997 0.978974 0.000000
1.245709 0.978975 0.000000
1.334905 0.978977 0.000000
0.000000 1.067808 0.000000
0.088994 1.067808 0.000000
0.177983 1.067808 0.000000
0.266958 1.067808 0.000000
0.355961 1.067808 0.000000
0.444926 1.067808 0.000000
0.533916 1.067808 0.000000
0.622854 1.067808 0.000000
0.711909 1.067808 0.000000
0.800876 1.067808 0.000000
0.889849 1.067808 0.000000
0.978972 1.067808 0.000000
1.067808 1.067808 0.000000
1.156997 1.067809 0.000000
1.245709 1.067811 0.000000
1.334905 1.067812 0.000000
0.000000 1.156997 0.000000
0.088994 1.156997 0.000000
0.177984 1.156997 0.000000
0.266959 1.156997 0.000000
0.355961 1.156997 0.000000
0.444926 1.156997 0.000000
0.533917 1.156997 0.000000
0.622855 1.156997 0.000000
0.711910 1.156997 0.000000
0.800878 1.156997 0.000000
0.889851 1.156997 0.000000
0.978974 1.156997 0.000000
1.067809 1.156997 0.000000
1.156997 1.156997 0.000000
1.245709 1.156998 0.000000
1.334905 1.156999 0.000000
0.000000 1.245709 0.000000
0.088994 1.245709 0.000000
0.177984 1.245709 0.000000
0.266959 1.245709 0.000000
0.355962 1.245709 0.000000
0.444927 1.245709 0.000000
0.533917 1.245709 0.000000
0.622856 1.245709 0.000000
0.711912 1.245709 0.000000
0.800879 1.245709 0.000000
0.889852 1.245709 0.000000
0.978975 1.245709 0.000000
1.067811 1.245709 0.000000
1.156998 1.245709 0.000000
1.245709 1.245709 0.000000
1.334905 1.245710 0.000000
0.000000 1.334905 0.000000
0.088994 1.334905 0.000000
0.177984 1.334905 0.000000
0.266959 1.334905 0.000000
0.355962 1.334905 0.000000
0.444927 1.334905 0.000000
0.533918 1.334905 0.000000
0.622857 1.334905 0.000000
0.711913 1.334905 0.000000
0.800879 1.334905 0.000000
0.889853 1.334905 0.000000
0.978977 1.334905 0.000000
1.067812 1.334905 0.000000
1.156999 1.334905 0.000000
1.245710 1.334905 0.000000
1.334905 1.334905 0.000000
0.000000 0.000000 0.096286
0.096286 0.000000 0.096286
0.204188 0.000000 0.102099
0.319456 0.000000 0.106495
0.437905 0.000000 0.109480
0.555040 0.000000 0.111015
0.666372 0.000000 0.111069
0.766330 0.000000 0.109483
0.848702 0.000000 0.106090
0.907288 0.000000 0.100808
0.943037 0.000000 0.094299
0.982688 0.000000 0.089324
1.067808 0.000000 0.088994
1.156997 0.000000 0.088994
1.245709 0.000000 0.088994
1.334905 0.000000 0.088994
0.000000 0.096286 0.096286
0.096286 0.096286 0.096286
0.204188 0.096286 0.096286
0.319456 0.096286 0.096286
0.437905 0.096286 0.096286
0.555040 0.096286 0.096286
0.666372 0.096286 0.096286
0.766330 0.096286 0.096286
0.848702 0.096286 0.096286
0.907288 0.096286 0.096286
0.943037 0.096286 0.096286
0.982688 0.096286 0.096286
1.067808 0.096286 0.096286
1.156997 0.096286 0.096286
1.245709 0.096286 0.096286
1.334905 0.096286 0.096286
0.000000 0.204188 0.102099
0.096286 0.204188 0.096286
0.204188 0.204188 0.096286
0.319456 0.210536 0.096286
0.437905 0.215056 0.096286
0.555040 0.217344 0.096286
0.666372 0.217283 0.096286
0.766330 0.214508 0.096286
0.848702 0.208770 0.096286
0.907288 0.199990 0.096286
0.943037 0.189345 0.096286
0.982688 0.181368 0.096286
1.067808 0.180843 0.096286
1.156997 0.180850 0.096286
1.245709 0.180856 0.096286
1.334905 0.180860 0.096286
0.000000 0.319456 0.106495
0.096286 0.319456 0.096286
0.210536 0.319456 0.096286
0.319456 0.319456 0.096286
0.437905 0.327058 0.096286
0.555040 0.330947 0.096286
0.666372 0.330810 0.096286
0.766330 0.326135 0.096286
0.848702 0.316458 0.096286
0.907288 0.301526 0.096286
0.943037 0.283292 0.096286
0.982688 0.269473 0.096286
1.067808 0.268549 0.096286
1.156997 0.268561 0.096286
1.245709 0.268569 0.096286
1.334905 0.268562 0.096286
0.000000 0.437905 0.109480
0.096286 0.437905 0.096286
0.215056 0.437905 0.096286
0.327058 0.437905 0.096286
0.437905 0.437905 0.096286
0.555040 0.443237 0.096286
0.666372 0.443038 0.096286
0.766330 0.436621 0.096286
0.848702 0.423258 0.096286
0.907288 0.402700 0.096286
0.943037 0.377456 0.096286
0.982688 0.358282 0.096286
1.067808 0.356965 0.096286
1.156997 0.356984 0.096286
1.245709 0.356976 0.096286
1.334905 0.356988 0.096286
0.000000 0.555040 0.111015
0.096286 0.555040 0.096286
0.217344 0.555040 0.096286
0.330947 0.555040 0.096286
0.443237 0.555040 0.096286
0.555040 0.555040 0.096286
0.666372 0.554796 0.096286
0.766330 0.546703 0.096286
0.848702 0.529770 0.096286
0.907288 0.503676 0.096286
0.943037 0.471669 0.096286
0.982688 0.447275 0.096286
1.067808 0.445655 0.096286
1.156997 0.445652 0.096286
1.245709 0.445668 0.096286
1.334905 0.445680 0.096286
0.000000 0.666372 0.111069
0.096286 0.666372 0.096286
0.217283 0.666372 0.096286
0.330810 0.666372 0.096286
0.443038 0.666372 0.096286
0.554796 0.666372 0.096286
0.666372 0.666372 0.096286
0.766330 0.656520 0.096286
0.848702 0.636139 0.096286
0.907288 0.604583 0.096286
0.943037 0.565911 0.096286
0.982688 0.536390 0.096286
1.067808 0.534396 0.096286
1.156997 0.534426 0.096286
1.245709 0.534448 0.096286
1.334905 0.534465 0.096286
0.000000 0.766330 0.109483
0.096286 0.766330 0.096286
0.214508 0.766330 0.096286
0.326135 0.766330 0.096286
0.436621 0.766330 0.096286
0.546703 0.766330 0.096286
0.656520 0.766330 0.096286
0.766330 0.766330 0.096286
0.848702 0.742391 0.096286
0.907288 0.705471 0.096286
0.943037 0.660177 0.096286
0.982688 0.625586 0.096286
1.067808 0.623266 0.096286
1.156997 0.623267 0.096286
1.245709 0.623286 0.096286
1.334905 0.623302 0.096286
0.000000 0.848702 0.106090
0.096286 0.848702 0.096286
0.208770 0.848702 0.096286
0.316458 0.848702 0.096286
0.423258 0.848702 0.096286
0.529770 0.848702 0.096286
0.636139 0.848702 0.096286
0.742391 0.848702 0.096286
0.848702 0.848702 0.096286
0.907288 0.806388 0.096286
0.943037 0.754443 0.096286
0.982688 0.714914 0.096286
1.067808 0.712137 0.096286
1.156997 0.712185 0.096286
1.245709 0.712221 0.096286
1.334905 0.712178 0.096286
0.000000 0.907288 0.100808
0.096286 0.907288 0.096286
0.199990 0.907288 0.096286
0.301526 0.907288 0.096286
0.402700 0.907288 0.096286
0.503676 0.907288 0.096286
0.604583 0.907288 0.096286
0.705471 0.907288 0.096286
0.806388 0.907288 0.096286
0.907288 0.907288 0.096286
0.943037 0.848767 0.096286
0.982688 0.804139 0.096286
1.067808 0.801093 0.096286
1.156997 0.801133 0.096286
1.245709 0.801163 0.096286
1.334905 0.801163 0.096286
0.000000 0.943037 0.094299
0.096286 0.943037 0.096286
0.189345 0.943037 0.096286
0.283292 0.943037 0.096286
0.377456 0.943037 0.096286
0.471669 0.943037 0.096286
0.565911 0.943037 0.096286
0.660177 0.943037 0.096286
0.754443 0.943037 0.096286
0.848767 0.943037 0.096286
0.943037 0.943037 0.096286
0.982688 0.893285 0.096286
1.067808 0.889943 0.096286
1.156997 0.889991 0.096286
1.245709 0.890028 0.096286
1.334905 0.890057 0.096286
0.000000 0.982688 0.089324
0.096286 0.982688 0.096286
0.181368 0.982688 0.096286
0.269473 0.982688 0.096286
0.358282 0.982688 0.096286
0.447275 0.982688 0.096286
0.536390 0.982688 0.096286
0.625586 0.982688 0.096286
0.714914 0.982688 0.096286
0.804139 0.982688 0.096286
0.893285 0.982688 0.096286
0.982688 0.982688 0.096286
1.067808 0.978946 0.096286
1.156997 0.979004 0.096286
1.245709 0.979048 0.096286
1.334905 0.979082 0.096286
0.000000 1.067808 0.088994
0.096286 1.067808 0.096286
0.180843 1.067808 0.096286
0.268549 1.067808 0.096286
0.356965 1.067808 0.096286
0.445655 1.067808 0.096286
0.534396 1.067808 0.096286
0.623266 1.067808 0.096286
0.712137 1.067808 0.096286
0.801093 1.067808 0.096286
0.889943 1.067808 0.096286
0.978946 1.067808 0.096286
1.067808 1.067808 0.096286
1.156997 1.067853 0.096286
1.245709 1.067888 0.096286
1.334905 1.067916 0.096286
0.000000 1.156997 0.088994
0.096286 1.156997 0.096286
0.180850 1.156997 0.096286
0.268561 1.156997 0.096286
0.356984 1.156997 0.096286
0.445652 1.156997 0.096286
0.534426 1.156997 0.096286
0.623267 1.156997 0.096286
0.712185 1.156997 0.096286
0.801133 1.156997 0.096286
0.889991 1.156997 0.096286
0.979004 1.156997 0.096286
1.067853 1.156997 0.096286
1.156997 1.156997 0.096286
1.245709 1.156966 0.096286
1.334905 1.156998 0.096286
0.000000 1.245709 0.088994
0.096286 1.245709 0.096286
0.180856 1.245709 0.096286
0.268569 1.245709 0.096286
0.356976 1.245709 0.096286
0.445668 1.245709 0.096286
0.534448 1.245709 0.096286
0.623286 1.245709 0.096286
0.712221 1.245709 0.096286
0.801163 1.245709 0.096286
0.890028 1.245709 0.096286
0.979048 1.245709 0.096286
1.067888 1.245709 0.096286
1.156966 1.245709 0.096286
1.245709 1.245709 0.096286
1.334905 1.245746 0.096286
0.000000 1.334905 0.088994
0.096286 1.334905 0.096286
0.180860 1.334905 0.096286
0.268562 1.334905 0.096286
0.356988 1.334905 0.096286
0.445680 1.334905 0.096286
0.534465 1.334905 0.096286
0.623302 1.334905 0.096286
0.712178 1.334905 0.096286
0.801163 1.334905 0.096286
0.890057 1.334905 0.096286
0.979082 1.334905 0.096286
1.067916 1.334905 0.096286
1.156998 1.334905 0.096286
1.245746 1.334905 0.096286
1.334905 1.334905 0.096286
0.000000 0.000000 0.204188
0.102099 0.000000 0.204188
0.204188 0.000000 0.204188
0.319456 0.000000 0.212983
0.437905 0.000000 0.218945
0.555040 0.000000 0.222032
0.666372 0.000000 0.222140
0.766330 0.000000 0.218962
0.848702 0.000000 0.212182
0.907288 0.000000 0.201614
0.943037 0.000000 0.188596
0.982688 0.000000 0.178650
1.067808 0.000000 0.177983
1.156997 0.000000 0.177984
1.245709 0.000000 0.177984
1.334905 0.000000 0.177984
0.000000 0.102099 0.204188
0.096286 0.096286 0.204188
0.204188 0.096286 0.204188
0.319456 0.096286 0.210536
0.437905 0.096286 0.215056
0.555040 0.096286 0.217344
0.666372 0.096286 0.217283
0.766330 0.096286 0.214508
0.848702 0.096286 0.208770
0.907288 0.096286 0.199990
0.943037 0.096286 0.189345
0.982688 0.096286 0.181368
1.067808 0.096286 0.180843
1.156997 0.096286 0.180850
1.245709 0.096286 0.180856
1.334905 0.096286 0.180860
0.000000 0.204188 0.204188
0.096286 0.204188 0.204188
0.204188 0.204188 0.204188
0.319456 0.204188 0.204188
0.437905 0.204188 0.204188
0.555040 0.204188 0.204188
0.666372 0.204188 0.204188
0.766330 0.204188 0.204188
0.848702 0.204188 0.204188
0.907288 0.204188 0.204188
0.943037 0.204188 0.204188
0.982688 0.204188 0.204188
1.067808 0.204188 0.204188
1.156997 0.204188 0.204188
1.245709 0.204188 0.204188
1.334905 0.204188 0.204188
0.000000 0.319456 0.212983
0.096286 0.319456 0.210536
0.204188 0.319456 0.204188
0.319456 0.319456 0.204188
0.437905 0.323457 0.204188
0.555040 0.325322 0.204188
0.666372 0.324650 0.204188
0.766330 0.321016 0.204188
0.848702 0.314084 0.204188
0.907288 0.303792 0.204188
0.943037 0.291723 0.204188
0.982688 0.282896 0.204188
1.067808 0.282379 0.204188
1.156997 0.282437 0.204188
1.245709 0.282470 0.204188
1.334905 0.282513 0.204188
0.000000 0.437905 0.218945
0.096286 0.437905 0.215056
0.204188 0.437905 0.204188
0.323457 0.437905 0.204188
0.437905 0.437905 0.204188
0.555040 0.441046 0.204188
0.666372 0.439929 0.204188
0.766330 0.433751 0.204188
0.848702 0.421850 0.204188
0.907288 0.404091 0.204188
0.943037 0.382817 0.204188
0.982688 0.366998 0.204188
1.067808 0.366104 0.204188
1.156997 0.366192 0.204188
1.245709 0.366293 0.204188
1.334905 0.366358 0.204188
0.000000 0.555040 0.222032
0.096286 0.555040 0.217344
0.204188 0.555040 0.204188
0.325322 0.555040 0.204188
0.441046 0.555040 0.204188
0.555040 0.555040 0.204188
0.666372 0.553502 0.204188
0.766330 0.545118 0.204188
0.848702 0.528913 0.204188
0.907288 0.504585 0.204188
0.943037 0.475264 0.204188
0.982688 0.453296 0.204188
1.067808 0.451983 0.204188
1.156997 0.452146 0.204188
1.245709 0.452282 0.204188
1.334905 0.452354 0.204188
0.000000 0.666372 0.222140
0.096286 0.666372 0.217283
0.204188 0.666372 0.204188
0.324650 0.666372 0.204188
0.439929 0.666372 0.204188
0.553502 0.666372 0.204188
0.666372 0.666372 0.204188
0.766330 0.655857 0.204188
0.848702 0.635646 0.204188
0.907288 0.605183 0.204188
0.943037 0.568330 0.204188
0.982688 0.540599 0.204188
1.067808 0.538985 0.204188
1.156997 0.539155 0.204188
1.245709 0.539329 0.204188
1.334905 0.539440 0.204188
0.000000 0.766330 0.218962
0.096286 0.766330 0.214508
0.204188 0.766330 0.204188
0.321016 0.766330 0.204188
0.433751 0.766330 0.204188
0.545118 0.766330 0.204188
0.655857 0.766330 0.204188
0.766330 0.766330 0.204188
0.848702 0.742235 0.204188
0.907288 0.705815 0.204188
0.943037 0.661796 0.204188
0.982688 0.628522 0.204188
1.067808 0.626559 0.204188
1.156997 0.626833 0.204188
1.245709 0.626981 0.204188
1.334905 0.627129 0.204188
0.000000 0.848702 0.212182
0.096286 0.848702 0.208770
0.204188 0.848702 0.204188
0.314084 0.848702 0.204188
0.421850 0.848702 0.204188
0.528913 0.848702 0.204188
0.635646 0.848702 0.204188
0.742235 0.848702 0.204188
0.848702 0.848702 0.204188
0.907288 0.806549 0.204188
0.943037 0.755443 0.204188
0.982688 0.716763 0.204188
1.067808 0.714475 0.204188
1.156997 0.714852 0.204188
1.245709 0.714880 0.204188
1.334905 0.715078 0.204188
0.000000 0.907288 0.201614
0.096286 0.907288 0.199990
0.204188 0.907288 0.204188
0.303792 0.907288 0.204188
0.404091 0.907288 0.204188
0.504585 0.907288 0.204188
0.605183 0.907288 0.204188
0.705815 0.907288 0.204188
0.806549 0.907288 0.204188
0.907288 0.907288 0.204188
0.943037 0.849225 0.204188
0.982688 0.805327 0.204188
1.067808 0.802714 0.204188
1.156997 0.802981 0.204188
1.245709 0.803236 0.204188
1.334905 0.803436 0.204188
0.000000 0.943037 0.188596
0.096286 0.943037 0.189345
0.204188 0.943037 0.204188
0.291723 0.943037 0.204188
0.382817 0.943037 0.204188
0.475264 0.943037 0.204188
0.568330 0.943037 0.204188
0.661796 0.943037 0.204188
0.755443 0.943037 0.204188
0.849225 0.943037 0.204188
0.943037 0.943037 0.204188
0.982688 0.893850 0.204188
1.067808 0.890952 0.204188
1.156997 0.891336 0.204188
1.245709 0.891591 0.204188
1.334905 0.891789 0.204188
0.000000 0.982688 0.178650
0.096286 0.982688 0.181368
0.204188 0.982688 0.204188
0.282896 0.982688 0.204188
0.366998 0.982688 0.204188
0.453296 0.982688 0.204188
0.540599 0.982688 0.204188
0.628522 0.982688 0.204188
0.716763 0.982688 0.204188
0.805327 0.982688 0.204188
0.893850 0.982688 0.204188
0.982688 0.982688 0.204188
1.067808 0.979404 0.204188
1.156997 0.979762 0.204188
1.245709 0.980090 0.204188
1.334905 0.980367 0.204188
0.000000 1.067808 0.177983
0.096286 1.067808 0.180843
0.204188 1.067808 0.204188
0.282379 1.067808 0.204188
0.366104 1.067808 0.204188
0.451983 1.067808 0.204188
0.538985 1.067808 0.204188
0.626559 1.067808 0.204188
0.714475 1.067808 0.204188
0.802714 1.067808 0.204188
0.890952 1.067808 0.204188
0.979404 1.067808 0.204188
1.067808 1.067808 0.204188
1.156997 1.068212 0.204188
1.245709 1.068555 0.204188
1.334905 1.068791 0.204188
0.000000 1.156997 0.177984
0.096286 1.156997 0.180850
0.204188 1.156997 0.204188
0.282437 1.156997 0.204188
0.366192 1.156997 0.204188
0.452146 1.156997 0.204188
0.539155 1.156997 0.204188
0.626833 1.156997 0.204188
0.714852 1.156997 0.204188
0.802981 1.156997 0.204188
0.891336 1.156997 0.204188
0.979762 1.156997 0.204188
1.068212 1.156997 0.204188
1.156997 1.156997 0.204188
1.245709 1.157317 0.204188
1.334905 1.157591 0.204188
0.000000 1.245709 0.177984
0.096286 1.245709 0.180856
0.204188 1.245709 0.204188
0.282470 1.245709 0.204188
0.366293 1.245709 0.204188
0.452282 1.245709 0.204188
0.539329 1.245709 0.204188
0.626981 1.245709 0.204188
0.714880 1.245709 0.204188
0.803236 1.245709 0.204188
0.891591 1.245709 0.204188
0.980090 1.245709 0.204188
1.068555 1.245709 0.204188
1.157317 1.245709 0.204188
1.245709 1.245709 0.204188
1.334905 1.246038 0.204188
0.000000 1.334905 0.177984
0.096286 1.334905 0.180860
0.204188 1.334905 0.204188
0.282513 1.334905 0.204188
0.366358 1.334905 0.204188
0.452354 1.334905 0.204188
0.539440 1.334905 0.204188
0.627129 1.334905 0.204188
0.715078 1.334905 0.204188
0.803436 1.334905 0.204188
0.891789 1.334905 0.204188
0.980367 1.334905 0.204188
1.068791 1.334905 0.204188
1.157591 1.334905 0.204188
1.246038 1.334905 0.204188
1.334905 1.334905 0.204188
0.000000 0.000000 0.319456
0.106495 0.000000 0.319456
0.212983 0.000000 0.319456
0.319456 0.000000 0.319456
0.437905 0.000000 0.328403
0.555040 0.000000 0.333026
0.666372 0.000000 0.333190
0.766330 0.000000 0.328415
0.848702 0.000000 0.318254
0.907288 0.000000 0.302406
0.943037 0.000000 0.282901
0.982688 0.000000 0.267967
1.067808 0.000000 0.266958
1.156997 0.000000 0.266959
1.245709 0.000000 0.266959
1.334905 0.000000 0.266959
0.000000 0.106495 0.319456
0.096286 0.096286 0.319456
0.210536 0.096286 0.319456
0.319456 0.096286 0.319456
0.437905 0.096286 0.327058
0.555040 0.096286 0.330947
0.666372 0.096286 0.330810
0.766330 0.096286 0.326135
0.848702 0.096286 0.316458
0.907288 0.096286 0.301526
0.943037 0.096286 0.283292
0.982688 0.096286 0.269473
1.067808 0.096286 0.268549
1.156997 0.096286 0.268561
1.245709 0.096286 0.268569
1.334905 0.096286 0.268562
0.000000 0.212983 0.319456
0.096286 0.210536 0.319456
0.204188 0.204188 0.319456
0.319456 0.204188 0.319456
0.437905 0.204188 0.323457
0.555040 0.204188 0.325322
0.666372 0.204188 0.324650
0.766330 0.204188 0.321016
0.848702 0.204188 0.314084
0.907288 0.204188 0.303792
0.943037 0.204188 0.291723
0.982688 0.204188 0.282896
1.067808 0.204188 0.282379
1.156997 0.204188 0.282437
1.245709 0.204188 0.282470
1.334905 0.204188 0.282513
0.000000 0.319456 0.319456
0.096286 0.319456 0.319456
0.204188 0.319456 0.319456
0.319456 0.319456 0.319456
0.437905 0.319456 0.319456
0.555040 0.319456 0.319456
0.666372 0.319456 0.319456
0.766330 0.319456 0.319456
0.848702 0.319456 0.319456
0.907288 0.319456 0.319456
0.943037 0.319456 0.319456
0.982688 0.319456 0.319456
1.067808 0.319456 0.319456
1.156997 0.319456 0.319456
1.245709 0.319456 0.319456
1.334904 0.319456 0.319456
0.000000 0.437905 0.328403
0.096286 0.437905 0.327058
0.204188 0.437905 0.323457
0.319456 0.437905 0.319456
0.437905 0.437905 0.319456
0.555040 0.438832 0.319456
0.666372 0.437342 0.319456
0.766330 0.432873 0.319456
0.848702 0.425068 0.319456
0.907288 0.413956 0.319456
0.943037 0.401251 0.319456
0.982688 0.392233 0.319456
1.067808 0.391916 0.319456
1.156997 0.392190 0.319456
1.245709 0.392362 0.319456
1.334904 0.392505 0.319456
0.000000 0.555040 0.333026
0.096286 0.555040 0.330947
0.204188 0.555040 0.325322
0.319456 0.555040 0.319456
0.438832 0.555040 0.319456
0.555040 0.555040 0.319456
0.666372 0.552443 0.319456
0.766330 0.544651 0.319456
0.848702 0.530866 0.319456
0.907288 0.511008 0.319456
0.943037 0.487861 0.319456
0.982688 0.471137 0.319456
1.067808 0.470574 0.319456
1.156997 0.471014 0.319456
1.245709 0.471335 0.319456
1.334904 0.471604 0.319456
0.000000 0.666372 0.333190
0.096286 0.666372 0.330810
0.204188 0.666372 0.324650
0.319456 0.666372 0.319456
0.437342 0.666372 0.319456
0.552443 0.666372 0.319456
0.666372 0.666372 0.319456
0.766330 0.655679 0.319456
0.848702 0.636767 0.319456
0.907288 0.609318 0.319456
0.943037 0.576957 0.319456
0.982688 0.553370 0.319456
1.067808 0.552553 0.319456
1.156997 0.553144 0.319456
1.245709 0.553597 0.319456
1.334904 0.553995 0.319456
0.000000 0.766330 0.328415
0.096286 0.766330 0.326135
0.204188 0.766330 0.321016
0.319456 0.766330 0.319456
0.432873 0.766330 0.319456
0.544651 0.766330 0.319456
0.655679 0.766330 0.319456
0.766330 0.766330 0.319456
